P3
256 256
255
203 99 79
221 103 238
96 105 209
255 206 181
197 43 241
207 173 213
66 20 46
98 68 228
115 176 134
88 212 238
235 164 226
52 220 138
162 155 141
145 216 25
10 141 251
15 117 152
177 78 111
164 22 177
187 33 96
47 139 129
52 178 146
246 207 12
161 204 250
24 103 226
78 41 111
51 250 247
248 168 196
41 109 96
143 173 156
11 101 131
37 154 24
189 75 66
2 215 141
244 27 38
59 217 132
187 128 150
26 232 26
20 24 128
107 11 71
175 120 111
44 12 10
122 85 86
210 255 184
254 6 4
194 168 173
45 33 172
67 147 199
72 144 232
131 119 152
36 166 240
193 40 19
193 217 248
96 36 196
109 74 148
212 228 94
202 60 116
54 86 144
138 200 135
236 122 54
215 213 218
248 12 33
248 41 127
53 163 58
47 229 123
252 77 28
81 169 17
210 58 157
229 68 189
99 217 112
192 34 67
99 152 153
100 252 26
5 132 162
141 55 174
182 59 165
144 132 181
203 174 4
75 121 172
230 133 164
216 26 224
205 75 157
204 255 81
255 198 225
73 229 9
185 171 43
96 53 137
221 4 250
15 158 142
134 100 52
133 203 172
211 160 22
228 47 232
164 206 233
186 149 221
62 194 20
129 240 183
128 100 162
138 98 151
53 209 253
149 19 102
192 174 185
179 177 219
228 37 74
115 145 52
156 253 62
160 248 233
29 122 38
69 164 224
160 232 128
203 97 199
234 196 144
186 187 3
70 40 72
151 94 144
44 97 96
168 37 146
248 233 38
52 74 25
30 19 200
113 241 90
23 210 108
1 63 94
7 23 130
25 73 7
21 48 10
40 23 24
238 92 147
177 98 88
126 14 133
196 9 133
14 110 143
48 157 74
157 161 63
119 202 195
209 203 254
232 51 100
95 22 136
86 55 124
204 186 42
30 174 226
224 92 30
80 55 180
4 193 248
234 142 254
0 144 14
16 99 17
248 66 52
171 216 168
104 49 17
116 198 153
234 206 85
224 150 234
238 200 236
80 213 213
101 91 149
154 0 242
209 113 3
209 228 110
24 191 51
232 216 84
203 22 84
254 80 80
191 81 3
76 202 206
145 120 120
216 97 113
87 181 12
78 212 180
148 44 99
193 98 148
203 173 155
223 56 172
184 237 215
200 236 160
47 96 85
56 133 225
78 213 38
234 70 84
209 57 239
136 24 226
242 14 95
241 186 113
67 37 174
242 226 92
54 162 228
229 101 199
104 172 213
21 235 7
132 223 194
74 211 70
40 184 58
244 154 157
244 2 134
181 164 145
198 174 51
36 167 217
124 131 122
91 245 131
72 168 105
69 95 2
200 125 59
135 238 158
234 74 188
246 84 139
93 65 217
95 195 237
65 139 67
107 20 44
175 84 28
53 87 126
49 28 169
39 139 90
140 169 100
211 197 219
7 103 45
235 100 92
66 224 158
253 201 125
44 80 164
16 165 111
44 85 204
91 70 96
0 32 236
93 173 40
21 245 157
240 36 187
50 245 175
161 141 14
158 150 236
229 123 71
121 144 54
179 207 241
92 176 159
121 55 236
205 34 197
149 247 47
120 6 231
159 218 183
41 11 112
224 61 153
197 24 155
6 29 176
134 36 195
40 127 211
186 219 135
202 245 228
171 152 47
174 212 142
109 102 106
33 54 216
199 0 179
210 157 195
185 140 200
92 3 28
153 136 190
100 18 117
121 188 116
72 171 157
85 214 40
46 215 86
218 195 232
38 229 48
143 89 139
126 102 243
136 159 149
165 185 104
211 185 232
11 212 175
80 87 129
58 179 228
115 185 140
108 43 2
156 88 203
86 144 96
72 217 217
71 14 178
168 47 58
97 228 0
173 3 33
26 170 147
136 130 108
32 201 233
182 213 21
158 181 241
81 0 12
210 233 54
241 159 23
105 50 93
228 223 222
149 145 95
218 209 215
42 53 218
31 66 42
90 180 244
236 165 26
25 176 23
249 6 16
86 126 114
235 147 104
227 95 208
16 223 251
2 9 94
103 219 104
218 40 231
100 162 194
182 74 230
253 5 37
149 136 165
145 197 144
146 135 26
57 73 146
96 177 20
165 131 170
17 237 49
47 123 183
153 195 78
97 48 247
91 177 233
101 91 236
133 5 100
250 210 30
98 131 170
190 70 74
250 136 242
183 73 232
213 194 118
229 233 230
195 194 197
231 125 180
152 208 4
200 91 140
38 62 20
154 7 33
4 73 118
149 194 237
163 116 66
25 91 42
7 148 113
220 61 240
92 53 212
60 149 213
181 154 10
254 88 63
205 105 15
213 64 39
231 184 122
157 169 143
161 222 250
170 215 20
102 33 228
213 80 253
142 135 231
16 201 211
169 11 117
47 230 25
101 215 246
21 129 140
152 221 104
231 175 220
123 214 4
87 213 138
224 115 138
158 218 248
18 40 42
209 252 190
7 32 139
17 191 101
201 96 243
167 15 109
145 240 101
24 81 136
91 177 250
67 9 84
38 193 50
142 253 8
105 194 184
109 112 97
7 251 118
3 96 11
46 204 91
160 228 218
115 27 68
121 198 162
212 11 0
148 35 254
191 254 130
55 23 5
239 132 47
131 252 31
207 244 25
142 107 229
50 2 116
42 101 9
12 77 169
111 191 209
155 197 37
172 229 253
197 254 35
236 19 138
212 13 25
107 142 246
193 96 108
49 130 129
175 13 3
230 65 234
50 102 221
7 80 77
31 46 160
33 172 199
119 189 18
191 216 212
50 92 152
225 175 203
101 183 103
42 146 56
28 14 214
18 25 215
138 151 142
185 229 83
230 11 137
178 199 77
240 236 86
13 59 1
192 252 42
152 84 115
31 196 26
181 36 112
148 215 130
16 232 138
7 3 14
188 134 40
225 32 166
244 166 127
75 11 73
63 159 179
57 82 202
168 107 171
161 3 44
115 115 38
48 91 114
189 4 208
206 220 134
126 108 177
246 22 219
153 245 38
151 26 113
183 78 191
241 95 188
126 247 115
152 79 117
129 223 4
50 243 244
130 34 15
253 50 52
117 21 150
1 204 106
77 126 73
69 101 241
13 145 135
88 154 58
200 50 179
146 168 192
150 172 162
45 4 235
54 154 183
196 109 225
225 196 250
6 147 49
160 229 195
221 233 7
111 133 205
115 69 109
233 248 234
135 1 66
142 144 183
188 84 40
144 191 115
60 189 62
55 39 246
244 173 208
166 144 152
141 68 253
186 165 77
176 153 42
231 11 201
150 32 187
104 180 40
176 46 66
74 144 251
166 184 177
8 64 48
3 112 87
229 24 102
233 158 78
190 23 98
214 205 21
239 192 185
40 42 3
36 228 179
96 58 70
247 55 33
135 255 63
98 162 208
104 76 111
203 130 8
242 128 232
190 190 71
38 73 49
243 207 107
232 254 10
163 185 204
29 19 151
32 44 133
184 22 207
74 72 158
72 228 90
144 35 233
157 250 236
214 228 154
252 238 47
249 178 222
74 247 73
26 59 180
64 74 189
164 57 183
62 96 242
6 185 209
95 74 183
230 200 197
166 201 187
56 119 7
180 232 156
78 57 241
179 193 192
175 41 173
10 248 9
177 151 62
95 152 33
186 243 220
152 26 99
178 159 8
105 193 147
35 123 225
24 16 35
234 171 42
100 124 24
51 13 89
3 238 56
20 159 110
69 130 215
34 171 197
202 103 225
59 135 191
70 207 167
109 128 240
85 220 170
232 137 62
195 161 208
165 121 219
137 175 63
222 73 216
231 105 92
92 200 86
167 20 189
98 1 250
208 38 158
161 242 176
32 33 143
186 222 222
134 50 12
175 198 125
37 236 221
126 150 253
96 100 174
144 100 91
157 106 29
193 165 227
145 194 171
34 58 210
21 64 22
13 208 36
151 157 93
138 254 73
140 54 61
19 21 47
142 168 156
29 75 106
19 128 40
109 148 159
85 139 6
80 252 74
59 108 13
191 228 126
59 116 206
224 246 233
153 162 174
139 109 81
223 109 123
10 77 246
26 85 85
34 20 244
119 23 169
172 82 146
155 205 130
102 103 103
81 42 191
86 131 17
227 126 40
180 140 169
29 70 42
153 253 57
106 27 36
40 90 42
132 252 102
10 122 34
112 15 199
188 146 108
33 4 103
117 219 183
4 226 221
13 228 68
161 235 125
40 218 177
185 99 254
197 28 61
177 164 165
221 142 204
80 94 100
66 104 162
126 91 123
254 12 254
222 113 45
223 76 115
105 253 46
12 225 110
124 74 30
147 175 68
141 30 234
94 109 45
70 54 0
250 128 164
104 81 62
65 245 14
63 100 89
102 209 60
198 67 112
68 99 170
121 175 94
125 4 232
174 238 73
200 234 166
42 93 2
203 222 226
70 98 191
189 186 148
160 145 138
223 243 221
37 245 253
129 62 78
1 239 226
93 187 16
52 51 164
150 50 144
101 173 226
213 143 52
167 198 151
173 76 139
8 183 226
114 249 214
240 166 219
250 82 243
252 243 125
95 230 158
116 67 184
44 205 220
103 141 98
188 41 28
164 233 245
157 208 56
170 225 109
101 13 229
182 18 222
191 113 59
57 11 30
76 78 119
123 1 216
1 157 221
244 28 65
226 39 212
38 49 150
103 58 173
101 99 238
157 102 89
33 139 35
160 219 236
203 91 123
62 55 94
245 205 52
177 147 77
190 85 8
177 27 143
172 251 159
101 12 226
46 204 11
207 221 48
81 228 114
214 26 205
50 48 242
243 170 48
176 128 157
144 102 71
142 56 110
16 90 42
198 89 120
115 155 239
182 158 38
32 84 49
24 151 7
43 123 136
252 169 213
205 11 220
144 20 134
60 56 98
97 120 106
122 130 82
21 88 8
232 165 135
117 88 7
151 198 96
89 92 114
49 120 183
190 186 59
231 67 189
74 221 88
231 203 158
45 16 185
88 68 14
139 182 140
122 111 212
121 146 62
85 122 236
27 157 19
81 161 85
69 210 255
75 125 11
187 237 184
245 147 34
253 177 88
36 209 39
36 215 131
24 35 2
180 243 70
100 159 189
84 232 42
47 190 249
42 165 207
253 10 71
189 32 226
245 92 122
219 158 177
213 175 44
119 74 45
119 43 75
127 197 104
6 174 179
12 74 222
212 120 125
217 96 184
160 184 227
42 184 156
210 1 84
74 59 94
61 99 106
67 166 130
111 119 23
179 240 167
107 240 147
83 79 143
9 27 173
215 167 184
53 97 89
102 8 185
209 119 34
90 83 63
77 122 85
214 222 172
128 0 195
231 77 226
127 241 239
252 132 68
215 149 84
23 141 64
234 163 63
208 7 237
204 239 61
166 240 3
55 211 104
174 166 49
132 168 189
231 230 26
176 136 32
28 144 110
164 48 254
50 194 5
147 113 33
229 156 29
94 126 164
90 18 46
156 135 62
79 42 61
169 51 193
173 49 97
113 128 11
85 36 6
220 241 118
192 169 55
123 211 88
97 156 15
120 49 224
38 64 122
68 4 76
165 140 120
195 143 167
170 35 223
74 198 153
97 234 186
197 82 11
134 129 94
118 220 77
169 29 109
114 143 34
122 73 82
35 12 96
33 2 240
198 21 138
110 151 49
72 212 228
175 234 174
252 38 129
148 85 23
61 205 126
173 169 68
45 81 15
154 243 211
161 76 92
53 236 237
45 36 97
83 153 220
129 163 183
219 152 133
12 181 207
109 41 156
238 249 66
121 204 110
41 72 132
220 79 250
220 242 198
138 58 118
149 218 239
179 127 63
51 145 153
27 248 37
4 13 183
181 209 71
134 220 12
150 149 219
146 39 59
53 199 231
76 231 48
69 129 8
101 164 46
85 199 57
234 27 26
102 97 132
72 209 60
159 87 63
248 208 118
80 246 208
247 176 126
27 249 101
36 29 28
246 152 121
32 169 208
237 29 99
205 142 175
207 144 51
192 94 33
62 58 33
113 218 15
105 0 131
28 77 77
90 231 18
80 121 214
173 220 234
219 133 26
205 221 77
123 89 107
46 182 184
26 37 179
166 31 194
10 38 139
224 191 180
135 100 158
163 53 111
235 23 53
181 60 122
227 87 246
131 200 234
11 54 0
77 18 105
7 46 127
171 64 205
106 145 86
133 254 195
26 96 183
33 167 218
5 51 141
102 139 239
61 255 13
45 196 161
212 226 0
83 228 144
242 94 223
21 87 229
91 140 211
158 137 34
7 96 21
166 89 158
170 250 16
80 151 123
172 59 45
205 186 64
179 70 224
234 106 93
231 255 42
112 147 228
15 110 66
219 24 89
233 206 138
163 36 180
27 210 175
168 68 76
250 76 229
206 231 7
47 205 72
119 167 156
36 167 161
83 31 200
169 235 116
31 175 161
255 14 32
48 57 121
224 54 213
146 1 32
207 9 229
23 8 223
69 6 68
95 71 63
196 32 32
115 127 6
185 44 241
153 254 45
134 173 14
32 23 166
106 144 201
206 239 19
108 204 29
137 86 243
26 147 243
84 151 95
3 210 35
34 36 124
180 190 11
91 7 247
39 20 179
60 82 21
206 35 95
221 136 179
70 214 54
175 120 151
241 48 19
218 120 91
76 127 0
20 5 112
98 242 98
7 14 110
111 144 17
103 111 234
126 20 133
68 22 24
82 10 66
34 25 20
152 27 27
196 132 106
232 233 71
3 11 59
246 79 223
240 52 67
243 121 169
208 135 162
167 117 150
224 19 1
243 190 153
47 224 115
185 0 117
104 140 96
205 111 117
104 56 64
179 209 37
188 238 121
186 154 117
245 175 229
207 34 90
53 21 172
207 183 178
212 207 191
54 168 198
209 109 25
83 109 98
138 110 33
12 165 182
20 107 27
224 222 22
86 56 122
164 112 205
155 249 44
65 32 57
56 19 55
217 180 160
65 227 116
216 102 208
168 25 13
42 106 183
60 67 47
57 84 77
114 109 94
215 93 171
87 51 100
91 107 50
146 52 75
238 200 105
246 91 120
61 149 191
74 101 150
79 54 230
82 50 146
19 128 199
229 235 224
75 36 200
53 125 4
132 111 215
197 247 189
25 248 253
99 162 106
205 155 22
248 35 192
253 38 214
156 64 77
155 163 244
231 127 184
102 91 152
37 229 200
73 34 100
3 144 77
209 203 137
147 205 34
150 253 167
179 237 189
193 148 147
191 177 58
164 233 229
69 179 27
157 84 178
182 240 235
53 52 92
57 215 208
248 54 16
60 50 232
102 163 154
206 198 211
244 112 100
185 101 226
85 190 189
202 152 202
230 209 15
247 194 186
62 230 103
98 82 31
208 101 209
129 108 108
219 237 225
65 68 179
179 102 42
250 64 37
252 7 189
9 215 124
184 150 136
100 30 244
225 58 190
64 243 8
182 235 245
79 46 186
99 95 23
103 175 69
119 194 36
167 72 173
7 155 95
96 162 228
244 137 75
201 231 168
110 130 6
199 179 184
86 17 102
234 113 223
101 34 196
88 179 164
1 247 24
37 231 142
240 104 19
35 41 221
122 20 213
199 235 42
244 143 245
31 4 123
173 131 223
253 116 215
26 99 87
198 34 97
115 74 52
52 35 126
181 172 60
87 80 161
177 251 82
45 75 238
107 235 196
100 224 172
142 91 88
220 189 220
249 192 174
188 143 29
167 108 95
181 29 74
130 255 1
107 177 109
8 3 46
94 237 175
250 240 10
132 138 10
38 169 95
106 223 17
225 168 57
202 4 78
220 133 241
9 219 164
136 179 3
213 235 229
61 70 231
22 146 11
198 109 31
112 79 157
167 160 148
61 17 242
95 214 132
221 153 168
119 112 174
42 199 60
14 237 64
38 201 107
134 185 61
213 96 136
16 40 134
82 153 30
39 28 72
95 231 66
72 10 252
144 90 127
188 33 222
8 222 29
86 60 51
109 252 138
154 16 3
139 137 5
5 48 41
203 169 118
23 165 65
35 138 189
85 106 83
73 231 239
116 241 62
254 195 22
237 238 11
253 108 64
230 178 185
62 17 120
77 187 166
247 124 167
243 25 86
41 78 104
45 52 72
238 227 109
165 71 227
251 17 212
59 138 36
87 142 78
25 97 199
98 76 104
157 168 157
236 117 49
245 22 45
126 22 14
181 11 243
157 92 101
214 153 113
205 29 117
251 248 107
20 57 167
225 93 218
109 196 237
41 246 7
154 23 225
31 177 92
142 163 186
125 109 17
43 254 18
49 153 189
83 133 49
192 11 179
218 127 6
108 148 238
193 60 16
75 9 6
109 13 18
52 89 84
43 32 75
166 171 35
60 66 208
12 3 95
124 241 56
92 48 224
83 87 219
88 174 115
254 219 99
121 107 17
158 148 34
175 221 184
149 93 190
232 110 118
198 140 202
105 116 114
28 16 138
61 56 74
206 77 81
212 163 57
248 3 226
209 145 63
199 70 163
167 56 32
248 62 164
2 118 19
129 207 175
168 192 155
110 135 238
24 53 69
100 212 141
105 173 121
52 93 75
168 192 236
53 0 93
129 219 81
10 240 207
174 175 246
78 133 190
77 241 167
225 254 96
225 47 195
62 155 153
140 74 246
236 130 230
63 140 170
69 63 56
186 108 210
4 176 220
170 170 203
216 12 39
139 229 143
66 128 116
186 15 50
206 27 134
38 69 139
161 53 145
106 13 157
85 86 6
14 252 10
45 92 132
109 116 12
247 225 253
189 33 15
138 190 110
185 229 206
55 140 120
24 14 222
206 23 17
7 79 60
14 44 92
63 116 152
247 240 23
93 183 201
160 126 200
57 140 157
151 228 123
221 10 202
57 218 134
204 81 190
92 176 69
243 8 83
72 167 153
245 186 253
6 3 144
178 78 124
66 139 187
162 161 194
132 99 187
190 83 156
176 228 155
240 167 236
172 61 46
112 236 206
32 112 192
20 188 208
21 128 131
128 160 77
128 251 209
99 242 145
190 103 87
42 239 191
223 61 33
203 40 135
167 200 223
174 193 231
165 16 128
135 253 156
219 240 204
47 13 140
13 87 122
179 138 125
8 237 157
189 247 66
188 180 124
18 188 231
29 132 239
247 226 24
154 94 155
146 29 140
16 104 76
204 61 69
48 169 209
247 161 224
182 192 183
19 224 137
70 244 21
83 224 89
192 128 140
194 254 73
66 148 166
1 212 252
187 90 43
154 185 199
180 161 157
43 254 251
90 184 174
171 103 247
194 77 109
80 141 153
25 212 214
55 10 117
21 5 43
112 50 71
107 239 229
56 242 83
77 49 16
97 174 180
165 222 150
124 139 7
244 12 117
61 115 215
25 97 22
167 25 242
182 39 83
221 111 229
14 69 113
36 179 100
91 140 182
240 123 244
172 186 108
124 189 93
196 130 84
197 1 85
215 56 81
238 102 74
117 58 255
19 140 138
114 176 215
80 69 204
233 60 54
199 140 133
50 246 109
136 21 231
149 189 157
54 199 111
24 76 173
150 67 99
5 15 19
221 201 59
103 157 140
197 66 130
167 11 103
235 220 74
58 250 47
90 81 99
239 158 222
217 230 184
53 243 1
97 23 231
31 42 216
104 127 203
183 18 209
190 69 170
24 66 204
228 25 201
111 224 156
9 93 135
146 178 28
248 107 104
29 232 171
166 9 245
225 115 137
221 64 99
245 255 95
231 118 168
239 185 48
239 12 133
44 225 217
128 67 248
122 21 103
87 237 173
78 57 82
138 218 121
43 159 83
167 179 157
232 76 34
139 72 230
174 125 201
28 216 68
204 110 51
171 28 203
195 110 9
50 26 210
139 159 159
69 163 19
194 249 213
46 138 227
235 167 52
138 240 204
183 195 189
98 185 58
139 94 68
124 60 139
94 225 17
75 199 19
194 191 127
104 218 106
170 171 19
114 44 190
98 115 196
229 130 154
53 138 106
178 189 250
207 105 115
217 165 113
67 210 146
84 247 196
216 22 178
27 102 251
201 219 151
229 50 223
52 25 154
242 135 58
197 196 190
120 139 58
20 69 200
189 9 165
27 227 127
156 174 232
110 61 50
108 201 92
224 41 220
156 228 104
73 62 13
96 189 54
141 222 205
252 173 231
57 162 145
51 145 121
173 91 34
247 248 113
49 47 126
149 80 48
13 189 24
184 12 70
180 102 65
144 188 10
74 66 45
56 239 75
163 253 53
95 185 127
93 164 43
246 97 49
183 77 196
81 216 181
50 240 111
97 242 2
69 178 199
111 60 57
232 73 46
134 245 200
42 47 197
200 54 53
81 104 244
146 183 207
58 38 54
136 209 44
38 116 100
86 10 27
239 251 160
159 88 195
42 45 177
44 82 142
201 8 244
112 24 14
73 40 202
47 210 193
35 202 40
126 141 244
39 167 201
219 94 189
196 245 221
159 237 235
27 235 116
188 148 180
68 170 0
134 234 238
69 122 10
41 23 223
17 208 109
228 140 19
170 243 21
159 148 171
111 37 12
128 102 59
136 17 201
17 221 241
80 137 142
196 252 70
84 115 244
89 151 188
54 57 72
218 169 43
96 97 144
87 49 145
7 145 9
135 13 102
125 74 44
145 54 125
162 147 237
206 76 165
74 196 53
139 10 111
234 144 112
233 198 168
148 8 227
128 138 41
180 53 204
114 76 55
164 63 111
133 188 102
153 194 165
4 54 96
21 48 36
58 190 51
236 128 212
90 215 207
205 223 172
216 101 117
87 72 91
123 209 227
130 16 190
133 183 30
140 26 160
164 38 183
177 129 206
244 252 66
219 202 23
54 16 20
77 165 57
65 118 151
60 255 210
107 200 68
77 31 58
16 16 20
107 227 121
167 62 141
202 231 88
189 98 147
232 27 26
236 65 140
122 96 65
230 32 49
174 50 194
32 98 47
146 158 108
122 175 239
219 245 157
166 135 112
99 61 171
88 212 114
18 104 53
47 231 172
14 182 83
29 101 150
62 164 175
110 72 69
169 252 215
117 90 127
237 188 41
148 83 192
40 16 37
124 90 138
239 171 128
82 38 243
135 132 126
18 251 94
226 72 154
2 97 130
134 61 70
143 62 210
154 197 215
134 55 149
138 214 201
93 201 98
26 49 21
178 157 188
168 170 164
178 4 191
244 18 91
176 126 85
169 238 72
193 176 178
196 125 81
94 155 16
46 70 117
4 179 38
18 114 126
236 24 167
0 223 114
17 198 189
14 198 33
22 43 1
202 98 116
73 149 108
167 23 211
211 83 216
47 237 217
66 204 237
173 102 36
42 82 137
162 214 208
83 22 150
106 241 202
51 91 184
70 205 222
101 215 160
182 238 224
215 18 71
215 226 126
147 213 250
34 161 134
209 178 71
127 141 254
143 74 182
171 102 118
34 121 12
46 5 65
226 97 74
220 251 80
31 181 53
148 174 155
113 144 194
97 209 37
163 35 7
56 81 41
111 106 59
153 169 212
156 135 209
182 230 48
53 237 195
163 28 225
98 128 205
160 226 155
233 125 23
48 70 56
104 242 39
0 182 224
11 34 94
5 51 2
196 130 187
184 115 89
106 59 213
78 11 147
101 244 35
201 13 90
150 185 48
177 194 191
165 233 78
145 39 237
185 213 241
110 200 120
252 19 233
253 141 108
38 227 242
249 84 37
188 76 73
60 185 195
207 80 75
146 170 46
64 55 164
88 102 111
162 192 217
161 99 194
199 84 232
144 107 36
170 173 142
156 47 77
56 18 222
252 195 45
64 44 164
29 176 118
221 114 90
27 193 221
10 72 41
134 54 65
55 162 143
112 21 24
199 21 102
57 172 137
158 195 53
172 8 20
120 75 117
18 31 106
123 220 189
62 108 235
31 35 220
139 91 65
64 49 91
245 168 48
180 225 112
134 88 39
243 223 150
9 22 170
43 214 198
253 20 83
155 42 104
82 29 218
19 253 90
136 153 47
133 168 59
163 159 10
155 127 0
177 38 62
214 155 150
215 188 200
253 161 85
181 88 131
159 51 13
77 231 145
179 172 15
95 143 167
222 116 12
35 236 245
116 34 118
121 243 67
204 154 9
123 250 36
84 102 166
211 124 174
139 204 131
65 74 148
158 53 25
189 78 186
154 17 248
76 169 229
16 12 222
7 212 231
170 202 98
83 149 40
218 230 108
109 255 153
69 125 187
0 5 146
31 103 255
154 211 218
173 159 44
79 35 150
15 153 99
191 97 178
213 26 73
94 92 141
203 251 72
186 171 96
48 79 82
134 207 191
54 74 67
130 222 111
169 32 75
95 178 39
72 75 169
146 60 23
0 223 46
228 125 17
236 100 175
232 236 250
8 56 87
58 170 217
218 15 100
125 25 200
156 250 233
56 48 35
74 249 213
12 226 102
10 34 20
105 251 2
152 227 130
187 112 156
78 132 124
21 16 40
13 28 21
148 200 192
255 142 54
37 252 226
140 52 252
223 41 60
97 128 34
40 85 109
88 180 37
99 38 255
48 227 213
67 35 198
25 154 232
182 121 160
211 128 149
151 209 127
214 148 226
228 196 206
225 84 250
184 164 88
103 172 47
221 176 103
3 83 181
173 144 125
222 213 35
161 53 21
253 8 34
234 55 137
242 149 41
151 106 196
63 129 112
178 248 233
215 118 222
58 252 169
12 48 129
103 120 227
206 7 63
251 75 186
247 219 115
2 118 239
216 108 207
65 37 83
10 165 14
124 164 136
128 169 232
30 229 11
88 163 132
55 98 166
221 124 248
56 105 183
77 33 142
25 47 217
52 238 85
32 188 93
207 39 91
230 74 9
154 82 185
64 235 153
151 79 221
122 87 110
172 26 89
185 53 39
43 250 89
164 102 90
243 170 54
151 35 227
200 209 183
30 106 32
137 55 210
94 107 127
106 155 86
119 125 120
72 243 244
124 13 250
0 243 7
170 163 164
40 222 12
116 78 20
250 240 167
57 248 148
126 198 237
100 209 102
235 65 205
17 103 141
52 12 96
248 103 81
70 123 184
105 105 224
169 197 61
217 58 160
180 110 70
140 47 35
207 139 182
219 30 232
158 200 207
133 44 0
104 82 122
111 204 36
46 190 125
47 170 69
20 233 100
176 171 23
234 119 90
96 21 134
97 81 188
3 190 123
29 240 112
103 83 167
169 81 5
75 134 182
137 128 164
127 204 142
34 146 249
221 141 197
150 147 62
70 228 150
140 205 188
253 211 229
15 34 136
220 191 39
72 101 134
222 236 58
90 2 37
20 202 38
103 167 32
199 74 110
179 192 127
58 255 140
189 144 154
91 100 108
64 236 24
192 6 170
239 82 191
171 12 104
34 90 195
243 148 214
252 143 175
2 93 70
242 152 27
15 157 9
105 22 173
44 29 132
195 252 39
226 102 151
244 194 161
210 208 171
102 228 140
60 98 9
2 195 155
64 72 85
156 143 30
148 236 191
168 137 35
152 59 7
137 111 252
48 2 140
70 222 16
150 224 241
31 88 155
217 71 166
220 64 184
185 148 14
174 82 71
208 250 179
204 213 244
37 63 191
148 117 47
186 211 229
97 69 187
63 128 4
102 54 26
2 154 122
104 235 79
236 162 122
211 24 96
84 133 95
101 66 194
223 159 221
150 30 231
77 16 204
27 218 199
100 25 33
3 239 93
87 23 236
101 217 54
59 0 43
221 244 132
95 56 23
179 139 192
237 7 224
29 36 116
43 81 174
81 168 246
228 24 72
194 229 171
238 170 229
100 124 24
65 189 217
34 196 255
65 11 64
247 148 81
214 202 251
245 231 154
76 107 232
126 55 151
12 93 138
65 224 152
46 82 238
60 65 207
212 38 110
32 200 46
167 7 73
123 107 154
154 49 14
255 200 189
239 238 200
173 15 233
96 60 188
56 169 52
175 14 31
242 9 135
27 98 32
75 65 121
203 185 152
171 73 51
239 234 246
136 163 46
197 207 192
38 175 234
115 242 43
73 128 138
13 244 128
255 251 158
176 59 11
251 66 165
196 244 177
44 43 33
41 149 56
13 13 35
233 133 198
0 184 228
153 41 215
245 150 155
173 109 98
131 87 101
108 220 75
255 230 37
108 226 13
25 202 6
76 43 157
18 177 56
172 161 229
33 217 164
247 16 26
134 12 126
161 51 24
97 3 222
185 225 72
132 152 80
173 224 151
230 183 138
248 28 80
92 96 232
159 52 211
96 8 99
98 14 72
7 15 136
188 136 177
195 193 98
109 188 135
170 10 137
62 147 18
92 34 120
74 138 58
151 152 88
149 205 19
220 196 166
214 13 243
209 226 9
245 193 215
136 35 198
14 222 218
55 95 245
78 22 18
23 22 86
141 168 138
0 7 188
138 91 83
123 201 108
209 161 201
67 76 77
146 18 165
12 248 247
56 207 206
242 159 148
184 78 91
45 135 241
231 247 9
51 253 26
179 155 88
231 172 64
139 96 86
106 85 15
169 18 47
91 243 226
34 13 163
74 101 222
172 132 6
231 98 163
250 97 194
143 246 13
163 233 103
247 33 120
12 237 233
161 56 187
34 203 90
75 68 24
128 179 215
203 240 59
128 186 214
87 123 169
0 233 101
87 183 62
15 42 97
218 22 133
62 9 155
113 108 47
142 17 19
254 250 59
213 19 144
254 12 196
195 9 62
75 88 50
162 97 167
108 155 102
29 186 159
79 65 30
177 70 44
156 152 195
217 154 248
183 212 151
222 237 133
126 201 49
33 54 217
19 158 200
211 128 132
43 219 166
205 23 95
27 245 182
15 185 234
42 109 162
184 96 176
87 110 36
200 214 24
240 94 128
215 36 224
27 10 21
51 117 218
248 45 164
60 212 44
154 145 170
86 55 25
67 20 154
31 80 179
224 8 241
168 30 20
93 3 178
217 160 71
78 148 83
246 65 126
118 30 66
116 71 47
87 242 14
110 252 106
222 171 76
187 185 194
241 85 150
91 96 12
55 205 0
221 13 233
10 112 21
64 82 235
159 77 44
210 149 15
0 89 222
162 114 61
41 124 137
108 54 38
138 146 184
251 87 162
166 122 68
185 168 243
143 241 74
83 12 190
191 213 27
110 147 235
197 55 175
99 19 71
129 238 197
75 170 192
72 204 102
206 27 155
160 230 16
143 29 131
7 169 196
58 16 254
68 223 130
244 164 58
224 149 173
25 80 174
12 149 187
241 82 70
22 189 132
37 164 98
64 191 7
23 79 123
122 183 77
230 139 41
216 236 136
42 187 13
8 78 192
115 74 233
231 18 58
242 247 38
189 139 66
182 237 199
232 1 72
145 115 180
177 156 176
208 134 250
83 95 82
197 192 21
36 85 238
237 94 212
140 134 43
14 174 168
150 138 15
29 42 16
7 94 211
42 162 165
72 201 55
143 191 181
177 43 160
227 63 89
59 226 149
130 37 109
141 171 67
108 122 205
184 120 200
227 185 236
126 90 204
193 116 13
35 121 174
69 210 130
184 194 45
188 133 143
46 167 90
184 229 172
230 55 38
172 195 101
129 65 177
185 18 100
164 9 160
211 218 31
53 134 174
159 89 229
137 57 249
146 208 141
33 146 154
197 88 107
160 58 171
241 69 79
244 223 161
86 192 122
116 130 64
21 103 127
6 120 29
207 2 176
57 45 122
13 228 94
76 23 73
73 201 113
203 54 170
175 86 102
72 14 71
124 156 112
48 215 200
240 231 81
96 23 214
121 22 166
239 242 27
129 20 188
150 234 231
73 61 54
211 75 79
169 255 180
203 184 53
45 203 225
123 113 153
248 7 44
140 97 75
72 227 222
218 171 150
182 126 168
94 42 59
72 237 161
169 232 162
90 37 141
95 29 36
127 163 86
168 199 8
13 233 85
15 152 1
146 77 68
97 97 31
141 74 133
245 213 38
27 11 217
69 38 160
201 153 25
198 236 54
60 45 99
131 163 63
38 15 215
124 185 208
235 44 27
227 53 77
157 34 142
190 217 152
218 118 134
49 156 140
165 30 54
110 105 210
104 175 200
244 54 5
73 155 65
82 126 26
21 228 0
172 97 135
145 115 189
146 229 228
160 71 94
252 72 139
30 94 179
162 181 106
10 102 29
27 21 118
183 55 252
141 197 204
92 23 121
9 84 215
234 129 235
231 200 247
112 202 80
124 27 229
35 110 207
147 15 180
218 31 108
112 112 170
146 110 121
212 86 219
49 228 168
92 55 248
24 114 212
124 185 87
40 170 143
208 137 244
23 174 157
21 45 239
146 86 208
241 109 128
113 250 246
46 176 33
24 60 80
226 254 123
252 67 199
6 251 112
80 40 170
197 70 117
200 151 241
104 171 1
185 247 223
92 123 18
97 247 108
196 226 79
202 50 238
63 12 121
251 59 169
174 4 64
90 113 235
81 253 228
172 214 195
191 80 159
112 73 4
115 48 97
254 145 127
51 32 248
244 219 84
136 142 246
22 50 165
105 65 116
187 82 209
249 153 229
239 53 232
119 162 131
83 184 185
147 232 196
43 76 209
24 134 117
38 214 84
150 192 214
141 124 62
6 32 168
168 132 117
125 159 1
214 184 17
9 11 104
209 200 169
252 212 156
92 187 59
53 112 136
94 114 150
187 84 128
10 105 151
181 232 18
173 169 46
0 99 44
24 240 2
104 227 99
75 60 46
112 68 142
169 58 40
241 74 242
187 222 206
85 59 4
150 98 145
255 172 194
153 173 173
52 104 75
45 43 128
242 216 7
200 102 234
106 225 208
248 204 235
54 107 59
69 157 43
80 76 31
113 92 193
3 139 83
44 217 188
213 47 129
31 88 22
8 247 160
183 50 46
136 142 209
145 79 233
148 205 18
181 82 253
161 232 70
86 196 206
238 46 180
204 84 173
196 228 224
238 187 10
116 7 213
153 116 3
122 252 247
164 158 39
152 224 243
192 225 147
109 84 223
148 235 124
119 49 149
206 174 152
44 69 168
150 231 171
32 250 206
88 94 19
178 105 171
232 131 195
25 40 102
59 195 29
114 39 239
19 78 156
175 8 153
247 40 117
109 213 131
32 24 127
58 137 214
83 8 132
253 174 20
204 148 26
169 55 218
18 130 137
165 170 199
60 137 130
166 211 190
84 130 113
44 239 201
208 63 213
116 220 116
15 126 114
134 21 133
192 45 218
229 14 122
127 247 125
254 185 233
40 80 67
232 253 125
94 16 3
84 245 202
228 167 53
11 211 63
77 133 242
121 203 120
54 163 15
47 68 79
132 117 72
228 207 64
11 125 231
140 180 179
123 17 61
210 141 92
180 113 146
41 152 253
118 99 180
29 94 26
251 8 57
108 185 112
140 213 241
162 237 186
113 166 45
21 123 197
119 179 175
224 182 62
111 108 81
171 228 117
191 130 12
98 76 121
19 211 126
136 124 203
182 125 128
39 126 187
164 219 95
235 105 24
198 61 239
148 227 190
122 199 206
201 77 107
33 26 32
198 47 211
5 185 224
146 35 63
31 78 68
116 60 238
166 114 4
152 34 70
46 192 35
149 104 40
11 148 14
211 183 138
56 223 183
198 20 65
216 80 73
165 217 16
73 94 239
59 82 1
121 174 162
207 137 238
222 96 236
82 126 21
47 55 183
117 241 159
50 254 222
139 72 8
217 228 184
119 164 71
99 135 74
20 3 198
243 188 41
103 127 223
127 147 38
58 149 182
47 165 155
6 91 207
24 62 187
232 139 193
29 63 66
241 214 122
146 127 138
227 41 237
35 92 225
7 118 75
140 9 18
191 191 73
181 170 82
57 248 22
76 13 212
90 241 42
135 29 6
219 160 161
114 79 115
157 73 6
239 11 147
100 162 82
121 176 80
111 125 240
87 54 179
216 64 154
101 125 155
30 39 206
232 128 23
96 74 254
36 228 50
110 99 107
134 43 224
165 20 65
63 106 121
214 9 238
51 16 144
84 194 240
27 50 84
31 30 98
137 30 0
108 21 107
84 23 127
171 222 45
237 12 28
185 196 215
250 186 149
55 98 59
156 78 165
121 62 6
77 145 201
59 183 200
238 138 250
64 151 67
105 239 106
63 60 11
110 199 243
11 205 134
68 138 18
102 204 166
150 201 224
71 125 47
185 102 48
252 16 103
191 220 174
115 21 136
65 129 238
121 194 254
150 25 103
33 119 62
194 192 143
37 183 233
12 250 186
178 220 175
85 181 238
225 54 149
88 231 47
2 83 106
238 149 204
143 161 93
158 41 244
194 182 191
2 14 37
106 165 83
156 157 56
179 183 10
149 38 102
232 110 222
180 123 191
55 125 117
42 154 84
91 46 156
180 170 75
185 121 200
130 165 221
8 41 4
32 13 160
53 251 135
185 165 10
162 156 180
107 158 243
212 89 158
29 57 99
171 36 97
206 125 76
8 114 21
143 195 158
35 7 57
199 45 84
24 231 10
76 88 131
192 120 90
231 13 29
178 155 233
30 107 78
153 232 176
35 235 231
223 143 30
213 208 5
226 163 182
148 88 84
248 204 27
101 123 252
233 177 114
156 125 60
154 32 70
243 148 241
195 60 91
96 11 216
247 101 198
6 92 223
116 3 151
249 199 139
37 80 244
199 243 61
184 92 80
59 133 103
245 202 108
210 211 141
4 79 199
154 2 206
48 189 138
168 109 132
11 76 7
240 90 74
163 6 185
211 220 9
27 110 132
122 9 243
194 184 74
7 83 237
75 245 250
11 1 98
134 222 123
87 249 222
64 45 123
4 124 125
84 64 215
157 211 11
2 96 141
194 244 59
10 13 56
51 37 152
11 137 157
124 72 186
187 43 60
38 167 138
151 152 161
147 164 32
230 167 24
130 68 77
81 72 128
167 1 106
146 207 43
4 117 58
19 217 224
112 93 103
129 69 65
114 40 161
25 119 119
15 109 188
231 196 103
108 77 167
76 182 132
112 233 7
5 96 223
146 151 5
98 136 228
106 17 242
242 154 135
227 252 8
213 228 239
26 182 30
80 135 106
46 156 70
73 224 45
136 147 215
64 90 3
246 170 205
47 76 214
79 82 7
118 84 76
26 70 192
196 221 29
241 46 143
251 193 66
150 180 246
177 161 109
253 119 224
178 128 136
12 173 38
184 209 185
199 162 199
41 63 65
120 145 31
216 188 203
134 92 6
5 211 50
21 214 194
98 88 35
5 22 118
48 91 54
235 76 233
160 80 209
101 169 222
169 90 105
36 244 238
193 66 197
8 142 148
54 94 26
106 33 57
119 114 64
60 105 214
233 189 138
83 108 234
131 150 235
220 67 172
169 1 102
37 16 133
53 236 254
248 212 225
24 45 146
64 166 98
7 89 97
79 53 188
175 151 138
168 64 175
252 61 19
237 76 53
41 207 198
245 24 208
33 109 250
226 54 45
233 70 196
233 124 159
125 247 69
103 85 3
58 117 64
80 147 3
77 86 72
142 173 25
127 105 255
164 84 19
76 224 94
173 193 2
101 25 139
69 215 240
200 21 20
80 55 68
141 190 127
49 48 215
153 177 219
85 209 115
159 252 202
116 149 255
240 213 24
68 207 210
213 111 90
166 217 244
48 111 41
234 126 2
170 214 93
157 86 207
115 120 221
162 57 140
123 212 112
147 85 223
235 157 114
119 127 67
163 249 36
80 8 146
64 17 135
153 32 199
227 27 74
30 56 6
147 247 44
244 230 169
233 238 165
32 233 17
244 101 34
168 189 113
224 55 208
246 78 19
213 100 147
67 8 134
207 172 133
232 247 89
251 74 96
141 28 244
7 140 0
47 99 154
163 3 243
247 24 80
96 87 214
93 114 151
83 144 193
17 54 218
76 199 9
215 166 161
217 132 81
62 32 69
46 253 21
240 225 122
83 101 211
30 70 109
104 245 235
230 101 121
81 152 216
55 136 215
199 124 7
59 163 134
205 35 116
247 75 22
238 94 43
103 23 159
22 36 87
184 231 127
131 45 88
44 180 189
14 32 180
190 186 116
145 222 175
85 214 209
33 196 127
101 35 144
230 247 151
1 198 178
51 79 21
233 131 101
151 34 140
198 68 160
111 198 26
40 167 41
114 253 59
203 179 117
47 221 122
203 46 19
89 127 139
18 129 98
136 250 166
112 171 156
192 226 247
94 242 5
174 228 230
219 77 209
230 111 174
79 207 50
154 77 157
195 185 174
21 218 214
28 116 148
83 249 9
72 160 207
137 57 1
212 136 220
240 126 73
217 141 107
212 248 242
171 45 74
157 235 210
236 67 243
31 150 253
91 165 54
204 47 254
220 65 71
149 215 214
35 106 207
11 65 113
90 73 138
226 86 51
104 37 192
17 85 120
175 79 85
8 223 16
60 113 122
218 191 248
108 5 242
141 137 240
248 88 99
65 91 82
72 80 147
100 100 124
104 8 238
46 6 45
119 25 37
242 1 240
127 48 26
14 181 73
239 209 124
119 168 74
136 64 78
218 149 142
39 91 48
44 145 150
220 127 160
233 168 227
28 52 188
162 215 216
71 111 223
182 240 220
213 190 254
118 179 150
230 220 79
221 65 141
120 56 212
145 143 245
17 90 69
10 90 128
154 47 93
44 24 210
53 63 253
62 52 81
255 116 24
189 228 171
247 205 3
69 163 92
62 174 150
89 214 165
82 158 90
149 57 142
201 9 162
209 49 4
105 156 50
38 149 252
229 66 198
56 160 133
30 103 165
162 215 224
206 102 44
62 2 40
217 30 174
197 21 154
197 135 180
111 195 190
77 158 137
136 89 45
179 41 211
243 114 56
208 12 116
22 191 243
113 6 186
229 66 215
60 16 220
61 143 139
143 135 180
184 149 229
70 86 195
223 163 64
34 41 178
122 210 197
195 26 210
122 226 100
27 121 183
178 146 207
54 103 250
49 69 250
73 215 59
37 88 187
167 54 101
65 41 152
27 195 121
165 137 186
44 185 83
127 102 146
45 7 74
233 231 130
5 116 236
212 91 229
93 38 41
220 86 140
113 203 231
210 164 191
252 132 78
145 94 226
176 145 26
65 244 49
186 89 203
106 237 20
217 235 95
5 253 185
167 239 82
209 244 188
211 126 102
92 95 155
157 250 129
141 57 179
48 214 62
117 213 194
52 250 195
31 239 49
196 28 28
38 234 19
217 14 41
233 47 183
118 129 120
187 94 79
221 150 133
208 231 116
31 50 176
123 128 75
177 148 167
124 200 110
147 142 155
242 114 251
225 146 98
191 188 120
242 219 43
149 240 16
35 67 136
201 5 158
238 38 12
53 23 46
72 115 127
42 161 228
80 228 169
33 199 115
110 91 91
232 143 121
4 129 47
235 48 22
240 201 70
233 198 196
100 243 167
110 90 140
33 7 112
140 131 7
95 193 227
49 21 34
0 162 145
44 166 140
147 59 65
178 34 220
213 115 125
26 216 225
236 10 63
182 92 131
153 199 137
100 198 35
73 86 57
126 77 47
57 66 114
236 28 46
84 103 187
130 253 162
122 236 147
50 86 63
229 209 128
79 42 49
160 36 197
64 174 168
119 144 213
151 184 19
144 244 84
184 208 149
117 30 25
60 42 238
88 19 31
108 204 71
115 22 72
168 252 249
73 85 144
181 201 70
134 129 191
158 233 139
35 97 7
106 190 158
32 104 133
249 172 200
237 104 237
175 184 206
255 185 146
154 138 10
155 141 127
179 199 184
181 207 46
190 23 127
28 151 7
19 11 172
166 40 32
180 209 106
74 200 86
124 61 184
134 170 134
72 180 29
181 186 151
181 192 211
150 79 61
114 206 85
187 221 203
46 121 42
99 53 72
189 232 30
107 226 152
125 59 106
48 100 101
70 184 243
198 207 3
170 4 191
113 56 119
201 239 26
7 97 80
120 204 171
239 51 24
46 174 247
8 201 37
143 162 141
245 79 127
158 29 74
200 220 170
222 95 151
178 250 219
77 174 21
226 191 47
201 50 203
150 244 38
28 209 213
243 12 147
86 101 15
204 110 54
132 46 109
80 46 168
22 70 216
34 77 162
13 25 86
151 197 218
155 9 144
159 154 103
199 145 61
213 242 247
4 220 158
96 90 195
57 20 158
96 219 35
62 91 126
140 52 90
211 203 73
213 4 12
214 204 232
152 173 148
254 103 243
68 237 83
181 53 185
104 159 146
47 45 54
100 28 208
62 47 184
71 43 255
246 68 187
117 106 44
195 209 174
47 211 29
238 136 142
231 125 124
182 55 249
158 243 15
191 48 251
252 203 207
176 216 5
120 29 173
141 212 149
124 61 21
49 32 77
45 124 116
68 252 126
218 74 107
169 83 139
118 191 10
125 153 192
77 79 35
2 65 111
98 251 121
121 154 253
192 181 11
153 7 176
225 161 194
250 145 7
202 202 157
236 206 144
74 247 4
203 185 255
133 153 168
9 197 102
162 217 199
249 243 99
197 111 124
83 154 143
187 14 2
121 118 237
136 227 183
52 141 102
196 199 44
87 162 100
215 35 149
46 242 44
75 241 150
214 35 112
104 69 25
28 44 95
11 168 65
49 192 31
70 152 230
139 44 192
73 49 146
119 93 7
97 105 241
23 155 232
128 130 162
104 225 26
75 244 138
243 222 91
66 134 163
128 236 236
69 26 158
8 46 224
156 64 170
175 8 136
116 117 184
43 117 6
122 128 10
172 163 86
137 123 183
175 250 160
44 60 88
112 173 190
62 163 9
235 236 147
25 7 79
80 234 139
108 92 18
106 135 199
23 189 196
136 131 184
31 155 234
136 204 93
148 135 86
186 198 146
218 216 247
254 55 123
228 52 165
40 112 140
22 198 151
40 203 86
71 61 157
200 79 128
16 143 33
26 97 237
95 116 140
22 2 17
178 155 253
14 241 139
93 225 54
10 227 186
28 208 146
29 61 31
43 241 44
29 2 2
75 112 156
138 163 167
164 251 210
121 181 176
224 127 152
151 241 190
24 189 117
37 224 76
59 140 210
66 137 103
244 166 25
0 201 97
207 84 66
173 79 195
230 35 27
240 184 3
228 136 58
246 156 29
206 94 223
247 130 4
99 3 29
22 203 109
198 20 201
228 201 120
11 149 161
224 165 197
211 47 187
36 32 65
118 123 246
32 133 170
242 186 129
111 47 51
63 121 91
52 125 198
250 245 124
68 251 104
24 136 58
125 202 100
100 122 139
235 208 50
86 153 234
6 239 116
117 43 201
234 60 59
226 13 123
40 205 162
179 86 228
220 223 148
136 85 101
200 191 101
179 29 158
177 78 44
54 162 119
202 75 59
9 161 126
132 166 116
122 178 253
38 151 64
128 229 160
67 47 240
195 58 113
117 201 151
63 63 167
122 113 0
150 135 90
117 7 86
193 42 241
228 209 62
2 122 83
96 99 193
49 81 57
76 35 18
2 2 245
22 72 243
37 85 129
229 66 113
150 88 170
243 153 194
12 210 131
125 2 75
96 195 21
140 72 45
131 87 225
65 111 203
119 178 146
247 196 79
137 134 191
141 255 238
23 176 176
63 44 231
35 21 141
34 168 72
176 175 181
75 119 131
10 88 196
86 9 188
193 62 93
158 231 147
31 63 5
241 155 56
239 153 61
22 150 7
181 128 52
59 15 123
118 243 235
74 102 125
234 47 218
166 203 130
32 83 163
166 79 64
71 172 130
249 164 139
225 222 151
197 22 75
202 82 193
32 23 123
187 242 44
18 135 40
200 155 200
196 232 62
234 114 238
124 130 157
244 113 3
142 150 166
32 192 245
15 164 76
249 110 146
151 105 145
144 143 131
62 102 160
135 110 19
158 36 181
38 197 34
233 252 38
229 7 78
103 6 120
181 53 89
45 172 145
6 28 217
75 230 39
109 252 40
90 220 13
193 129 79
129 220 85
44 26 39
167 16 173
115 66 233
47 79 34
28 8 54
176 110 200
239 88 210
33 238 69
95 20 137
117 24 93
187 178 26
126 99 222
183 41 236
137 96 231
1 18 50
148 194 187
235 102 255
225 24 232
132 76 143
194 123 32
68 130 222
39 157 7
62 219 171
212 6 221
185 204 14
28 189 40
239 13 88
149 213 155
81 41 110
83 77 149
56 161 12
75 143 99
32 61 46
59 230 222
187 50 188
9 203 151
199 222 254
126 182 148
255 88 182
206 140 134
132 162 13
18 19 165
208 105 73
59 223 49
103 55 205
249 144 246
144 179 111
169 18 206
165 38 89
132 89 80
64 112 99
188 77 10
223 30 219
171 48 23
233 201 172
62 248 44
230 60 91
93 210 109
112 14 193
119 161 94
204 181 155
51 123 248
135 105 165
238 136 31
187 32 17
114 15 192
73 182 122
254 126 162
30 217 233
146 28 251
200 1 168
180 37 54
168 122 212
35 93 111
129 208 25
165 124 217
76 75 202
196 24 152
211 59 87
7 187 200
20 49 212
30 130 214
19 98 222
99 195 201
45 40 119
36 34 112
142 210 211
61 166 61
74 84 96
65 115 157
19 76 47
68 94 240
198 168 183
241 182 56
209 10 54
104 253 156
202 84 225
32 46 0
28 155 143
232 21 158
245 50 64
219 80 149
126 220 218
188 60 243
81 39 141
99 139 139
220 102 55
123 218 50
58 127 137
245 127 166
197 116 44
224 117 41
112 201 198
177 50 197
173 233 13
147 125 150
181 81 77
198 10 44
248 116 72
47 166 62
182 110 10
14 205 13
180 145 145
163 137 45
206 207 149
217 29 67
73 94 236
65 56 134
83 247 86
31 103 125
14 21 30
86 91 113
225 99 83
22 20 193
71 87 8
160 111 33
197 213 24
10 52 226
60 115 20
221 52 112
48 26 37
142 9 26
159 214 106
142 79 18
217 180 95
104 229 151
7 130 51
16 49 119
129 209 170
205 147 235
105 141 239
155 216 75
89 84 5
86 234 46
206 77 110
13 91 188
101 27 203
120 167 174
72 226 74
213 67 57
243 214 7
117 180 7
210 188 84
36 52 151
231 121 146
31 199 186
158 222 219
11 104 66
253 18 25
59 62 90
145 195 65
182 239 48
107 98 86
142 161 15
213 134 183
67 236 27
223 168 21
14 84 249
240 139 100
116 39 58
62 185 233
167 250 81
97 0 155
228 149 203
54 128 185
239 97 91
140 149 169
29 152 224
43 185 53
164 184 149
229 124 127
127 17 18
38 155 125
215 136 249
180 144 45
14 9 179
186 14 223
152 98 120
85 59 86
251 202 133
210 110 193
87 51 189
177 58 27
108 165 114
197 149 227
148 195 204
128 181 134
233 254 252
240 35 5
148 37 16
204 7 102
212 94 44
10 83 231
18 4 14
193 1 104
94 117 103
141 185 195
92 162 39
225 254 233
68 175 71
87 173 136
162 37 106
203 103 68
93 236 75
13 246 172
246 212 20
133 70 81
84 152 210
209 225 114
78 69 132
98 188 237
75 86 236
62 170 247
20 82 141
127 44 232
79 207 89
69 115 241
162 55 62
39 65 80
47 169 220
44 150 182
168 228 146
8 216 0
31 148 238
124 123 60
12 157 253
222 41 77
142 13 33
243 250 178
80 170 196
27 214 167
124 25 224
2 133 88
23 198 87
208 250 95
10 146 125
250 113 41
195 251 165
26 186 222
118 149 79
93 85 156
83 151 21
20 189 64
214 4 193
225 100 244
46 25 222
30 211 120
238 246 102
204 254 142
191 114 165
201 23 32
65 117 40
88 153 39
55 229 77
48 126 34
126 174 153
238 119 223
90 31 198
60 28 224
90 27 73
209 217 60
10 217 58
203 92 121
17 213 251
69 146 99
70 58 153
138 234 55
14 230 246
153 155 83
254 132 98
160 157 36
241 16 57
242 24 131
197 130 75
110 4 39
214 107 167
169 26 230
126 66 118
115 87 228
172 198 5
244 136 79
93 165 131
241 34 191
57 189 181
81 121 82
225 122 155
128 120 252
168 194 70
149 187 36
187 76 204
239 134 194
124 192 56
236 84 109
10 21 88
198 70 209
151 144 160
45 112 113
123 51 145
175 190 49
249 238 4
60 253 35
143 41 86
110 73 179
137 105 17
121 34 197
136 163 170
197 28 155
211 234 234
238 244 120
225 131 239
109 139 73
101 145 223
20 205 207
238 206 33
62 229 165
166 234 65
122 197 1
106 42 144
92 249 245
9 107 14
82 197 166
56 238 232
108 207 95
78 56 118
68 13 195
192 132 233
229 143 229
240 118 173
46 199 78
221 173 173
177 129 38
42 175 58
58 20 144
3 226 183
13 165 179
168 159 56
85 193 239
215 96 207
251 3 46
39 48 96
28 202 25
255 230 5
119 23 71
247 184 234
218 67 156
244 68 68
138 201 108
87 7 129
84 157 183
140 251 30
190 73 200
120 206 250
16 118 244
239 43 69
148 235 225
106 114 28
196 4 234
79 233 113
116 86 14
220 233 133
229 78 106
137 218 243
133 227 127
131 72 173
231 106 222
240 233 38
103 115 92
168 87 239
44 233 12
34 67 97
202 13 158
150 202 253
248 164 145
7 225 243
10 34 194
168 83 26
140 62 255
177 58 204
55 247 110
157 210 172
153 51 93
126 217 194
24 65 151
139 216 124
23 37 168
74 5 56
70 21 112
172 22 210
137 128 26
185 28 234
12 96 209
181 130 149
130 250 230
156 7 36
246 8 145
118 22 104
106 162 4
98 166 8
26 34 65
36 121 88
43 208 81
118 197 174
167 159 193
29 7 47
199 47 245
167 182 188
109 160 171
247 15 55
43 187 112
90 174 10
232 34 95
145 40 249
180 61 68
175 158 152
240 166 162
126 159 141
59 50 128
60 232 126
153 84 25
238 62 73
199 152 52
54 223 67
92 32 157
134 160 200
245 56 41
127 75 31
136 123 95
213 231 157
64 162 242
125 181 128
21 151 194
155 208 68
219 0 239
172 203 48
169 76 112
70 3 222
16 18 74
13 102 96
39 56 30
32 91 82
145 95 116
238 53 160
68 21 235
41 2 43
89 17 179
28 92 73
55 114 215
66 24 99
53 76 115
165 186 23
60 164 212
47 53 247
246 198 228
160 8 24
154 52 59
140 225 252
54 76 7
202 4 241
201 99 101
48 190 5
117 186 248
240 183 29
125 4 82
252 72 155
248 72 251
94 164 253
140 55 194
225 128 89
247 243 169
1 114 143
73 97 1
55 46 96
195 145 82
146 54 48
49 194 73
221 237 192
77 138 123
160 195 121
103 151 161
5 125 46
197 116 251
193 172 252
0 81 106
80 73 43
81 78 161
228 111 99
155 140 214
89 116 247
2 50 193
134 225 75
171 168 77
22 122 234
171 180 229
58 198 123
208 105 145
67 3 131
24 234 66
239 120 132
121 255 233
55 230 193
41 110 207
3 244 28
190 190 17
62 148 149
74 195 154
120 48 54
5 183 140
180 129 6
92 61 175
212 194 75
17 76 164
252 6 193
151 91 181
123 151 196
26 146 209
242 143 135
54 110 234
248 61 216
202 255 163
251 97 80
134 65 133
55 198 217
181 67 96
21 6 244
22 88 149
108 138 124
53 148 145
73 242 232
85 0 95
203 2 77
228 115 255
61 184 23
197 99 47
119 238 20
143 135 248
140 119 44
249 193 232
133 81 225
56 27 217
205 22 66
125 23 250
28 85 22
32 175 126
141 29 119
116 176 153
97 57 75
243 89 7
149 168 63
239 109 176
87 177 134
26 77 230
235 238 243
32 87 48
219 255 40
119 74 180
19 196 154
125 154 123
234 178 233
247 94 209
203 71 24
241 126 39
19 13 123
131 166 31
80 110 24
11 20 221
150 238 138
152 182 96
8 136 34
31 215 15
243 175 202
153 188 65
90 53 124
203 64 89
162 126 233
173 187 20
225 47 179
46 110 213
120 136 18
23 179 17
129 17 38
63 239 162
2 129 10
92 203 203
218 130 14
234 123 220
143 201 47
243 103 57
128 57 85
45 140 228
31 72 187
201 76 157
59 129 159
24 89 129
5 10 151
234 202 104
85 190 134
21 218 152
160 164 121
115 24 197
218 17 246
242 153 91
2 92 140
194 144 192
181 170 108
64 15 17
30 60 255
99 123 80
127 74 171
94 37 84
13 139 40
113 35 210
150 199 22
23 118 53
207 159 213
153 191 60
237 238 86
50 53 133
198 104 148
0 252 6
136 80 108
186 246 106
126 50 97
190 140 217
19 203 192
248 3 180
16 195 83
242 29 162
45 212 41
210 106 169
113 48 115
29 212 136
171 59 115
127 26 156
1 74 203
232 153 112
162 57 243
146 101 112
146 15 121
241 152 217
120 82 136
96 4 78
46 15 39
138 15 159
191 71 25
105 241 57
157 24 164
254 244 78
165 211 206
115 163 198
57 223 96
172 78 170
212 119 196
140 23 219
248 244 85
247 218 234
189 198 80
164 48 178
108 247 101
50 39 225
130 243 87
39 112 46
239 150 139
73 200 109
50 113 65
158 150 50
204 237 149
183 28 159
180 40 138
51 216 67
205 81 49
32 161 214
183 10 116
156 27 121
226 84 251
208 14 231
12 125 82
146 183 152
212 104 17
209 25 73
112 138 189
4 132 72
156 68 184
242 131 114
169 134 90
190 68 13
62 187 130
159 11 111
191 164 122
109 148 185
143 186 62
125 231 138
248 131 102
60 39 197
138 188 35
79 60 83
86 91 51
40 99 72
115 157 216
148 226 118
8 149 219
48 13 248
33 46 113
32 64 108
101 206 136
199 203 235
29 78 50
169 150 134
91 131 158
161 78 148
162 218 244
225 242 194
138 148 132
159 63 41
146 61 26
117 167 97
187 179 136
74 45 220
12 220 70
129 121 233
111 226 141
94 161 79
133 249 243
64 114 156
24 147 182
187 81 131
163 56 201
204 59 181
254 211 251
209 159 146
177 151 203
132 180 4
85 52 181
251 173 172
38 149 166
38 21 241
161 178 97
237 242 138
110 41 48
23 241 115
83 62 77
109 212 236
205 252 189
101 25 164
79 139 126
147 234 127
78 27 222
76 144 55
87 55 99
248 17 106
112 157 162
239 223 11
18 196 231
197 114 122
12 57 151
61 164 135
127 153 59
227 78 204
250 129 54
161 65 142
159 50 30
1 155 212
106 131 97
64 91 159
100 228 166
188 149 9
54 60 222
175 170 144
43 91 182
5 128 156
235 4 34
103 144 57
247 172 116
155 181 36
56 106 201
79 200 54
201 133 64
91 132 6
108 20 75
60 104 160
255 199 180
144 4 243
11 254 27
114 240 137
0 13 122
149 54 146
218 77 16
182 186 110
159 39 246
18 163 250
119 51 40
96 63 69
157 110 30
27 114 144
92 20 96
66 20 110
159 2 18
66 237 209
234 160 77
111 130 48
170 235 68
152 186 93
173 44 36
136 236 86
73 93 125
253 201 141
10 101 252
67 14 228
18 66 147
118 86 35
222 29 245
103 45 34
202 152 17
213 175 218
77 161 183
119 201 20
169 251 168
100 225 113
131 160 146
15 249 246
18 254 69
95 69 141
187 56 6
140 200 56
194 198 159
89 219 44
207 115 220
28 206 230
199 157 26
114 1 139
118 245 52
51 200 102
145 219 72
71 239 72
190 80 143
85 128 96
182 70 223
190 59 138
120 219 69
135 141 227
246 180 36
57 47 177
79 59 27
140 228 56
74 232 52
52 99 8
195 50 128
147 108 99
196 77 213
49 74 51
242 147 206
251 30 135
30 144 127
26 248 26
247 104 125
73 37 204
69 8 27
208 210 25
146 106 199
29 75 176
140 49 227
45 113 155
221 55 106
150 105 67
103 122 163
162 187 238
16 135 99
2 236 127
153 218 121
39 87 28
252 111 240
142 245 166
56 22 190
232 124 23
2 61 2
7 64 8
194 227 80
105 153 153
37 243 121
31 36 166
43 207 55
136 37 158
178 105 248
160 74 239
0 102 110
176 89 34
207 197 201
253 53 141
193 57 21
19 127 201
224 77 15
136 80 193
162 81 16
73 249 129
21 78 203
92 131 28
174 73 140
135 143 88
73 86 211
24 84 33
200 135 3
239 48 201
155 138 111
146 142 160
34 233 82
128 139 57
111 218 128
157 111 228
15 251 217
117 94 233
22 223 4
225 66 29
36 97 125
21 185 85
165 87 78
118 12 180
10 23 179
38 153 139
122 114 192
219 250 18
181 77 58
243 219 9
247 169 137
90 14 96
24 69 255
35 195 155
89 230 28
232 151 112
106 231 57
220 164 151
101 219 17
81 54 161
232 22 35
11 70 135
83 135 129
127 65 229
105 218 130
194 70 189
186 165 0
163 127 180
242 74 97
90 7 253
202 189 234
20 207 232
27 41 180
138 152 42
71 65 85
216 104 118
130 207 108
167 248 150
182 3 14
244 235 55
28 116 248
101 136 134
67 200 120
230 13 220
7 75 163
13 25 17
50 56 49
6 64 241
66 118 130
9 208 62
128 159 35
50 171 178
148 149 30
190 52 140
233 15 105
100 213 247
206 142 94
56 160 87
44 240 52
51 117 198
199 246 2
178 233 83
5 222 220
190 85 183
159 151 232
73 183 238
86 151 10
112 112 3
32 220 107
233 6 66
82 83 10
66 18 72
227 127 210
41 82 176
65 43 60
95 222 111
183 51 85
241 212 29
34 113 161
76 201 206
68 167 236
198 78 188
176 243 224
245 112 203
50 101 12
22 67 214
235 187 164
233 228 102
30 162 76
27 158 77
112 188 193
233 45 138
57 198 25
252 117 52
143 100 18
28 141 80
204 12 126
235 224 50
239 225 236
71 0 207
229 161 30
53 212 175
158 220 25
245 202 159
184 240 164
112 117 196
140 245 203
93 240 183
123 102 166
133 134 92
43 156 19
46 146 75
207 192 228
73 45 252
157 227 203
109 41 17
121 196 163
142 247 185
169 141 122
227 55 84
72 45 119
111 96 82
173 95 223
105 19 145
51 143 15
117 244 58
58 4 129
136 245 108
142 171 54
142 53 51
224 35 58
204 125 228
46 65 170
19 126 145
217 191 189
164 39 52
252 35 201
66 80 149
143 97 77
103 196 138
148 6 107
154 235 104
91 85 200
147 212 52
118 146 16
75 182 56
94 110 118
181 120 129
10 198 215
120 29 152
6 125 35
23 37 204
154 51 11
105 106 176
108 210 172
94 184 217
71 1 55
94 163 138
18 167 95
243 148 135
227 151 180
75 206 88
45 151 249
74 59 63
248 130 22
126 164 73
51 109 45
153 193 169
49 129 71
225 178 67
2 56 99
114 226 88
245 205 20
11 132 127
83 41 59
197 150 161
109 85 49
95 27 236
146 113 78
225 159 12
67 99 110
62 173 153
100 168 171
98 239 58
216 233 76
250 67 194
135 86 2
116 21 9
98 176 254
123 246 143
171 194 154
196 100 182
116 143 253
230 85 197
26 18 182
51 220 158
188 103 152
164 234 201
184 78 23
161 8 198
191 214 102
174 25 125
96 252 39
138 125 55
118 126 199
106 85 70
117 46 141
176 40 172
158 229 9
194 130 182
255 143 86
202 165 198
19 114 21
14 54 115
118 48 22
214 134 150
240 42 162
251 134 88
85 218 61
241 74 27
166 200 15
118 210 148
214 3 34
165 175 138
72 57 18
192 15 51
112 185 209
210 126 145
4 122 173
181 221 229
198 10 57
8 167 118
52 197 132
203 178 110
254 79 191
170 113 251
10 60 10
246 229 235
182 80 234
125 244 191
100 207 128
110 203 9
111 82 66
211 151 63
38 132 13
69 166 198
249 219 228
96 140 74
78 71 4
52 9 54
68 215 140
19 237 40
108 142 216
69 188 62
20 241 64
78 26 152
66 108 221
185 51 102
25 45 47
210 96 149
58 199 95
73 234 133
0 36 241
160 77 105
169 108 142
46 172 197
81 229 72
216 125 173
140 237 30
161 201 43
233 149 23
35 64 59
173 52 208
178 195 214
52 123 183
113 77 226
150 78 59
140 27 15
9 169 166
103 65 211
98 234 78
184 202 233
48 229 93
9 120 243
219 38 108
255 164 169
46 115 138
209 95 184
77 78 215
188 80 140
13 189 103
99 232 121
50 241 222
90 217 106
29 144 212
65 71 107
127 206 4
119 208 245
18 73 44
162 104 123
223 86 112
137 64 92
61 20 133
64 223 101
66 4 5
138 79 161
33 48 41
80 70 157
7 203 194
96 240 28
174 127 193
26 234 108
198 67 158
251 169 73
103 21 167
71 138 217
201 0 164
152 26 186
210 45 90
233 176 108
241 164 13
170 185 33
183 37 0
177 88 219
162 175 186
99 205 122
102 223 140
201 170 252
72 26 118
73 232 197
127 7 233
56 159 2
64 74 47
210 242 92
207 77 138
148 223 224
8 102 242
134 137 104
21 112 178
255 123 71
206 49 67
98 184 150
83 93 131
201 144 208
190 83 116
100 211 125
65 10 111
171 158 23
0 203 26
55 102 180
128 115 230
158 42 255
154 28 174
174 94 44
91 201 7
213 190 94
194 58 154
51 100 237
217 191 179
165 96 228
49 126 37
36 109 138
68 12 168
58 151 238
59 200 239
203 12 84
29 120 115
174 50 107
53 98 126
76 197 225
154 146 68
18 248 8
21 106 219
236 178 227
159 47 242
138 217 125
244 125 207
203 123 39
234 55 214
125 13 229
63 1 220
96 170 181
42 165 216
42 143 178
179 161 229
215 83 92
57 62 67
102 81 40
238 252 239
197 122 96
187 208 181
190 129 19
101 128 185
159 161 234
91 141 213
197 133 214
198 97 32
208 121 174
34 10 118
187 71 214
229 171 156
229 8 16
118 100 100
0 251 75
33 56 0
222 39 250
84 190 139
75 17 24
86 55 169
39 254 75
198 75 106
173 129 85
85 104 37
126 95 243
197 233 83
55 154 74
106 152 184
224 212 85
19 182 94
63 65 109
211 172 210
133 45 50
187 225 39
36 241 50
164 232 4
215 69 125
5 78 169
235 59 219
133 222 128
194 170 174
73 244 231
26 120 93
4 142 117
245 128 229
162 78 191
211 252 37
96 206 185
69 83 113
18 8 111
53 188 62
169 16 44
242 220 192
148 152 251
72 139 142
246 1 242
107 62 61
46 2 37
188 154 124
35 129 110
52 233 223
245 59 118
53 235 179
181 182 40
6 255 128
177 75 77
236 2 114
49 127 213
177 188 217
125 249 124
68 140 68
210 201 248
12 226 157
7 240 173
18 44 222
244 121 106
198 3 131
254 86 11
235 178 251
222 0 71
159 180 213
17 130 244
151 191 213
225 35 144
108 205 44
222 207 92
79 2 252
19 107 219
233 206 134
16 231 129
80 152 161
76 169 226
40 57 241
113 77 174
209 242 82
130 237 115
33 195 101
23 132 97
104 231 206
136 211 228
154 202 23
145 197 206
4 193 27
196 61 29
124 155 141
186 28 191
107 156 35
90 156 249
254 166 144
44 109 16
191 88 87
172 143 217
98 249 144
172 55 89
183 169 24
119 168 253
24 111 237
156 168 52
29 60 182
111 233 248
113 133 121
105 181 171
143 247 203
175 22 135
177 203 159
111 219 170
220 233 244
205 66 197
45 48 150
136 177 249
158 13 134
53 81 128
128 189 58
212 145 236
133 99 109
134 28 20
227 43 157
253 170 110
63 217 174
138 192 101
145 92 86
88 104 196
132 1 89
128 86 177
28 141 12
108 253 246
177 100 112
93 68 64
40 175 92
78 79 155
229 100 89
81 254 218
236 13 110
99 66 135
150 18 215
51 96 181
224 222 132
237 73 8
182 158 120
116 62 239
192 218 229
164 166 97
83 254 220
18 105 180
122 3 140
216 40 203
211 60 30
140 172 17
163 115 31
153 129 51
63 136 226
78 14 65
244 113 140
149 62 135
242 169 247
97 44 104
102 208 94
172 157 92
117 27 210
72 69 162
106 238 190
8 154 24
203 75 162
27 141 98
77 216 13
141 197 243
52 26 169
59 193 224
98 251 191
73 211 166
199 86 30
170 215 179
100 118 34
254 197 162
250 246 211
21 164 32
207 27 96
108 139 15
215 248 149
244 160 189
220 209 231
51 70 77
185 90 174
21 208 18
130 44 98
182 132 196
147 230 250
161 128 125
207 65 243
212 74 93
69 186 253
219 166 29
88 255 31
119 131 251
211 8 199
251 60 100
220 15 172
59 95 33
85 98 22
14 197 51
57 32 14
165 113 224
31 236 94
107 39 199
60 187 132
207 221 148
178 26 158
80 44 192
31 158 219
63 216 51
66 168 249
153 186 164
131 234 230
155 161 69
107 134 45
55 178 187
5 90 30
214 124 13
170 185 69
80 59 16
153 161 114
145 155 98
60 47 201
159 103 37
148 24 175
158 193 137
217 165 48
104 167 163
120 45 161
28 50 31
138 251 13
137 233 197
26 222 17
92 151 17
86 145 57
207 198 63
218 194 89
244 239 254
1 96 33
54 226 193
210 1 181
28 214 25
132 61 20
82 169 174
118 176 245
82 80 161
201 42 52
131 120 65
186 82 224
5 85 10
26 150 68
188 193 57
42 70 195
90 123 57
70 164 181
200 136 56
241 42 85
156 247 15
116 78 65
176 89 23
8 205 130
255 25 6
7 29 154
194 5 42
28 65 30
111 208 48
215 187 118
59 134 248
122 229 142
227 50 251
101 231 154
198 117 38
30 171 84
34 180 217
169 184 168
77 107 89
170 101 53
127 14 207
98 238 128
185 1 95
32 180 140
210 66 245
225 102 230
153 65 100
199 86 212
196 39 43
118 249 175
32 224 149
136 67 91
163 253 234
196 173 186
46 21 172
22 108 89
134 239 223
244 19 15
93 208 154
107 215 200
127 200 187
253 226 235
181 140 186
204 149 74
60 61 190
136 41 254
154 69 60
218 32 110
13 86 172
159 57 108
227 29 23
135 221 60
161 39 30
132 107 103
12 197 41
210 246 255
167 41 202
185 112 121
67 31 247
162 132 77
230 228 25
103 226 169
160 89 151
11 238 18
14 76 230
198 196 98
24 83 61
183 93 60
131 179 249
241 185 76
33 100 0
16 179 52
63 223 88
117 58 157
190 136 152
86 53 125
251 229 165
44 34 75
185 112 252
177 15 71
58 77 125
251 255 218
93 1 140
65 20 233
169 186 234
117 161 27
241 253 142
58 101 235
45 110 44
37 31 101
166 132 213
95 136 201
165 110 126
164 19 20
186 68 196
73 155 13
210 113 76
79 4 218
83 122 227
250 90 93
163 33 169
80 190 94
14 97 121
192 153 140
49 183 133
79 55 99
221 157 94
16 3 136
255 76 187
73 207 0
6 32 230
138 142 190
98 62 161
163 39 3
198 226 189
148 232 99
214 206 24
127 214 102
33 223 65
171 201 203
37 240 188
217 113 122
188 188 108
200 202 175
3 184 238
229 247 202
97 239 81
1 201 32
237 91 218
223 21 99
180 1 240
130 10 80
76 206 193
249 144 26
24 254 34
101 223 33
109 233 80
37 21 43
175 178 79
185 226 136
41 28 124
8 3 246
133 184 40
211 33 209
43 99 232
207 178 105
134 167 111
164 121 27
88 67 209
207 167 29
178 115 17
210 51 235
42 207 143
27 244 137
209 156 168
226 227 31
44 180 86
0 146 82
119 230 224
132 97 95
116 248 111
196 6 64
18 46 129
227 228 167
44 216 73
151 15 45
243 109 233
76 47 50
76 220 51
42 38 50
118 203 253
126 24 230
153 127 182
191 160 191
21 30 65
65 9 83
243 64 2
129 101 90
29 31 135
163 147 206
60 56 166
36 186 137
174 235 160
238 45 245
255 6 41
81 39 66
19 7 35
162 28 195
19 78 34
196 191 9
122 152 24
78 169 148
190 59 108
14 235 191
232 105 117
10 187 68
65 203 237
95 196 31
247 48 227
20 73 93
118 224 163
170 225 75
217 68 175
40 139 227
15 194 66
194 64 142
43 79 15
206 148 72
111 168 15
81 15 67
67 184 170
188 1 69
153 88 248
247 28 208
56 183 101
14 138 175
11 135 253
65 142 117
79 13 50
202 194 180
218 234 247
254 204 215
4 151 80
40 72 42
222 7 116
139 93 160
52 3 109
66 49 105
79 218 87
178 171 126
192 239 30
138 2 214
135 93 45
21 83 171
186 83 50
104 249 146
197 197 239
249 78 224
8 76 40
125 205 77
22 64 192
145 215 55
39 193 115
79 57 59
152 189 117
85 219 70
1 233 124
101 208 70
148 161 132
101 226 28
202 65 120
22 137 29
158 219 241
74 167 228
39 121 239
158 66 85
213 140 107
51 212 246
21 167 187
130 196 171
90 96 94
160 37 3
120 38 239
155 138 88
160 191 19
117 233 93
192 99 197
161 209 24
215 57 119
81 33 245
206 205 186
155 41 217
93 43 54
128 50 10
122 43 245
245 237 198
144 6 103
190 73 37
183 234 127
254 76 1
68 134 68
47 167 0
55 156 255
202 132 72
149 150 207
251 133 238
52 100 38
62 98 155
3 113 135
26 30 141
153 248 145
2 207 105
11 164 78
69 142 188
50 247 156
215 99 206
254 174 173
161 25 149
145 4 64
237 184 209
164 127 211
184 28 206
114 160 109
87 45 160
35 210 222
99 30 77
95 30 239
168 221 82
20 13 221
120 55 239
46 43 148
42 32 193
111 92 163
70 229 238
132 132 69
207 117 241
178 88 77
159 28 197
206 104 4
171 113 243
181 110 198
113 207 228
58 171 192
177 130 113
131 83 122
224 236 28
249 215 53
9 195 44
182 24 76
142 8 108
185 126 225
53 187 16
198 78 214
180 237 11
133 27 197
176 183 62
86 112 56
213 153 107
173 205 129
156 61 26
28 217 35
28 98 231
30 157 240
116 167 145
112 111 139
113 65 79
76 171 70
255 184 210
21 144 138
50 163 76
117 73 91
35 104 65
42 179 213
96 23 15
237 137 98
228 146 27
89 43 228
244 25 108
27 143 139
8 79 112
213 120 180
56 243 218
110 10 140
23 91 244
254 232 173
155 145 200
215 120 54
163 115 81
213 210 174
32 206 187
136 201 234
225 94 229
60 156 208
117 171 248
209 77 137
208 208 115
206 80 175
122 58 246
113 205 197
127 168 31
206 12 200
136 91 92
76 180 110
139 225 32
23 34 135
252 41 124
244 83 36
198 36 159
221 147 253
58 45 99
64 116 73
156 120 221
168 210 23
10 69 245
109 247 79
182 192 104
135 57 214
128 5 81
149 187 157
110 225 50
94 193 231
219 195 25
3 227 216
96 31 72
138 124 158
16 15 91
20 90 48
15 3 183
135 163 228
87 23 146
87 96 188
158 251 131
169 2 110
118 223 56
87 79 198
131 79 171
220 154 93
226 244 72
74 1 16
167 130 200
165 87 116
77 221 255
164 147 151
58 235 219
79 58 227
224 11 94
65 72 11
63 170 95
105 0 110
197 192 156
143 139 246
183 60 244
171 133 242
73 91 197
73 159 34
6 228 79
90 0 228
85 48 7
106 105 63
54 101 133
111 224 0
151 154 1
231 181 215
136 157 252
135 109 207
225 253 255
124 229 116
121 148 226
189 216 113
186 254 213
122 123 213
25 37 30
108 97 197
125 183 228
219 55 134
228 218 35
38 196 50
132 115 4
254 96 71
220 25 178
218 22 23
195 223 174
166 8 158
92 44 98
202 59 139
105 103 250
128 154 213
25 135 112
34 100 119
116 211 255
35 138 13
168 249 107
38 4 141
181 182 125
176 103 85
68 104 186
137 12 28
14 242 70
148 112 130
190 7 242
102 181 13
145 147 93
174 3 184
184 221 7
106 77 35
12 162 87
110 118 117
107 144 164
97 99 221
228 128 103
210 198 96
94 217 224
80 157 195
243 249 52
77 75 222
220 178 226
68 157 21
182 24 140
215 64 241
69 208 60
223 83 53
239 90 44
61 19 230
232 243 83
38 15 111
245 75 145
98 63 198
213 49 78
127 9 107
79 47 47
56 116 160
160 77 43
216 148 13
230 86 4
221 164 244
228 83 181
122 235 147
159 21 59
166 154 97
156 219 91
79 196 168
183 159 108
212 46 252
168 165 82
34 77 78
115 63 32
203 30 182
115 126 171
70 200 43
66 166 88
230 78 35
199 21 81
143 233 234
165 155 237
98 246 45
75 170 240
161 154 202
97 9 113
134 201 196
192 113 125
73 234 86
205 29 183
177 220 184
149 106 117
208 217 13
80 37 184
9 224 75
51 116 157
186 191 92
103 230 1
161 75 64
38 215 122
242 220 141
156 155 164
117 200 174
100 220 12
171 179 56
110 49 75
200 124 48
164 211 241
226 176 58
77 146 189
199 43 197
111 232 170
125 3 86
202 73 43
13 234 86
141 116 164
119 73 254
52 243 8
103 126 116
219 120 173
108 174 129
101 94 237
183 169 214
156 1 112
104 181 88
96 231 91
53 20 211
68 66 171
75 141 186
15 85 197
53 232 134
204 126 72
94 12 156
143 120 160
17 37 79
123 202 77
246 70 122
13 114 154
221 59 9
157 141 15
197 186 209
72 132 165
75 91 160
85 40 52
157 126 26
178 78 122
184 102 230
115 227 242
56 115 97
55 11 19
208 159 4
184 170 73
92 86 97
156 69 156
83 60 106
193 130 166
32 165 246
179 165 245
224 70 233
195 195 153
142 202 219
98 41 4
255 81 111
203 112 11
245 243 51
40 43 56
242 176 131
196 232 213
51 232 172
104 189 144
79 13 153
38 191 21
89 184 132
250 101 208
63 239 77
141 203 84
193 191 157
35 239 41
152 130 85
82 29 57
217 193 26
251 58 101
195 240 246
106 149 236
209 41 114
84 47 246
89 60 184
70 188 144
63 165 50
200 0 124
51 189 236
73 127 87
73 202 77
198 55 143
208 147 62
118 158 2
216 10 140
209 189 27
19 109 115
193 66 180
117 220 216
121 235 23
160 226 44
194 101 183
27 208 92
224 8 244
226 141 161
94 103 232
155 105 73
34 245 197
82 29 150
128 133 70
38 12 67
42 224 112
113 243 175
191 185 100
7 198 110
10 106 32
10 181 108
34 53 252
33 76 191
192 246 219
160 183 77
219 243 220
139 167 176
214 29 213
177 211 97
94 132 149
71 37 208
113 219 21
8 1 38
188 129 187
23 216 137
219 23 62
209 18 126
109 195 18
247 177 55
161 29 200
227 224 220
217 36 55
107 76 131
237 222 122
180 43 62
218 96 49
116 166 142
204 8 123
166 25 72
57 229 238
147 84 119
35 139 243
68 137 44
187 129 239
6 146 19
173 184 138
253 27 201
88 43 166
120 24 201
147 137 211
26 111 222
154 228 215
146 28 163
238 208 230
231 190 92
15 150 218
4 69 204
214 88 213
166 119 237
105 96 182
173 221 181
84 109 102
45 7 187
208 96 193
88 81 127
31 7 64
227 243 242
9 112 80
9 47 103
228 144 72
163 189 83
33 217 212
46 153 242
119 84 69
134 95 136
109 56 44
66 153 65
99 208 246
86 133 93
95 241 17
183 52 84
254 184 175
47 158 42
94 181 12
248 122 209
208 15 125
163 247 119
216 23 137
30 87 7
119 2 79
127 179 64
254 208 187
18 29 29
111 232 207
69 69 224
178 212 11
144 96 204
6 243 124
118 58 200
229 190 145
166 48 16
158 89 174
72 215 79
251 230 137
45 0 215
155 122 67
103 60 126
189 6 9
134 240 198
135 69 224
83 45 59
20 90 47
179 161 123
80 197 206
107 82 120
224 248 109
140 64 20
96 92 128
205 97 85
134 102 142
237 166 238
204 118 68
234 66 154
73 206 166
153 161 159
85 94 142
246 90 108
218 138 85
1 13 203
42 236 27
228 122 21
242 19 4
246 173 52
119 16 214
209 42 119
65 49 31
15 64 19
241 41 56
139 99 132
239 57 76
161 61 108
118 101 58
93 5 207
1 111 114
163 29 249
47 95 138
1 150 226
165 65 247
143 96 251
240 171 164
171 56 49
218 39 161
94 191 205
224 207 9
76 227 87
55 68 86
41 15 232
114 224 88
107 208 143
139 250 211
54 48 150
99 32 124
198 233 82
184 201 153
163 72 217
136 110 195
27 70 105
132 234 69
69 249 235
111 224 27
10 180 125
82 203 195
246 201 162
48 140 68
85 204 94
3 34 118
243 34 198
235 115 198
67 127 160
35 220 5
154 101 214
209 97 50
37 59 247
57 128 49
49 138 42
207 174 74
227 139 71
52 112 53
48 201 169
18 42 191
201 103 165
118 176 125
121 120 165
137 46 77
67 186 15
79 138 170
158 236 166
25 217 3
126 140 151
161 58 80
75 146 181
95 190 91
232 95 39
23 48 221
51 0 193
86 84 141
142 77 236
221 205 65
22 143 152
191 26 104
134 75 16
105 220 80
17 101 132
202 0 246
178 16 30
26 137 172
22 230 191
137 228 129
79 135 170
144 126 239
244 192 204
109 204 215
112 163 79
35 173 24
28 201 207
110 252 224
221 243 208
72 111 39
16 130 238
123 22 187
72 7 227
147 173 131
50 17 34
18 86 198
88 192 87
58 185 248
171 82 164
164 32 207
10 77 72
91 122 85
112 9 4
237 36 101
213 176 132
116 110 19
45 103 238
180 239 181
187 68 78
252 46 217
207 5 182
130 241 79
9 203 168
107 79 196
28 229 254
50 193 231
24 212 43
169 149 10
137 209 56
245 50 121
207 136 106
182 222 97
90 58 28
61 91 122
73 157 77
10 51 158
153 148 197
254 38 19
223 66 92
92 146 230
191 60 109
60 16 45
234 229 216
44 232 178
159 128 65
153 141 62
125 200 103
107 231 107
64 207 0
225 120 100
72 126 21
31 36 121
169 18 237
102 59 97
113 91 68
115 180 62
165 116 18
46 236 175
146 14 214
155 210 146
185 37 132
26 184 189
96 161 75
36 202 29
218 193 113
159 37 214
164 81 122
145 68 96
113 37 190
112 190 235
18 76 209
251 199 11
247 31 223
90 50 212
246 65 90
46 92 77
202 211 50
99 242 233
47 156 102
53 183 37
55 122 6
155 63 246
114 127 12
65 58 197
240 178 216
79 43 190
171 209 152
43 60 23
122 174 255
214 16 130
80 85 137
243 12 66
111 162 80
78 115 249
191 154 180
156 121 30
14 197 54
225 247 198
11 242 64
1 12 213
32 151 218
206 146 194
98 208 204
160 254 122
202 168 118
172 49 247
170 238 96
139 89 126
156 186 189
11 133 49
26 138 95
162 108 254
217 74 215
52 140 77
178 230 203
17 140 226
206 158 194
212 6 246
110 207 24
148 188 142
116 42 207
248 206 101
152 82 118
99 92 29
142 241 16
160 129 75
146 9 3
145 131 83
104 50 114
8 87 202
208 222 185
66 56 167
29 219 146
8 111 223
12 136 84
225 81 164
64 243 143
88 57 205
44 236 152
114 147 63
40 114 185
219 180 81
235 126 67
130 162 106
84 75 147
102 213 249
199 50 145
106 192 173
50 62 134
47 110 21
124 232 253
115 96 53
43 44 207
152 87 247
214 75 218
101 77 107
26 54 130
239 87 83
120 9 43
120 219 123
6 26 135
71 132 86
238 70 120
23 55 161
16 194 40
98 109 112
33 20 125
248 116 198
48 151 73
154 189 159
49 144 186
222 135 85
120 245 186
108 226 124
223 41 32
141 201 228
119 226 91
115 109 42
60 118 174
190 213 138
232 1 73
165 116 5
177 152 185
32 144 216
201 103 253
91 10 121
108 99 114
119 100 252
176 202 12
85 64 67
127 148 118
7 162 211
245 160 56
115 65 161
240 221 17
17 168 254
219 56 67
252 84 210
60 28 51
141 141 226
174 159 53
119 186 206
167 92 202
165 199 17
71 160 47
96 184 4
211 110 192
18 196 99
109 207 174
151 182 91
156 216 108
227 178 82
216 112 173
110 202 10
104 155 243
44 160 121
223 248 220
232 154 151
71 196 54
7 194 135
217 249 66
237 90 248
85 0 198
99 17 41
184 114 165
47 198 200
68 181 207
194 191 180
226 136 247
78 185 16
185 227 86
3 64 35
136 105 214
11 13 50
120 239 17
242 173 98
73 30 128
167 85 86
43 81 253
118 89 167
225 159 23
159 238 20
6 164 190
122 107 101
0 209 209
201 33 164
210 12 67
42 46 49
156 222 210
160 222 249
128 66 166
134 71 150
82 209 186
39 150 198
87 209 241
209 229 156
249 44 100
155 233 44
192 217 53
199 81 150
52 0 43
252 95 156
18 209 201
116 253 66
152 242 100
191 131 24
90 61 150
165 63 162
37 197 113
240 61 23
87 188 21
74 250 105
237 111 56
71 137 116
72 89 233
190 175 136
137 196 168
153 156 137
12 250 241
141 30 56
194 68 97
1 150 65
242 145 162
85 175 80
162 104 194
133 5 70
10 46 230
210 39 202
169 8 244
223 245 8
138 92 143
15 20 162
124 146 44
202 252 23
169 47 108
237 73 194
190 108 181
211 144 34
59 225 14
169 142 110
227 65 224
92 151 212
48 39 54
244 99 145
121 241 219
200 165 179
236 136 77
189 127 20
16 231 137
16 118 187
61 238 137
34 5 44
88 133 99
146 224 140
81 99 36
7 182 47
84 33 128
148 228 106
80 55 65
125 21 123
74 73 223
217 242 52
214 14 34
202 246 6
106 88 41
39 99 56
50 112 95
172 194 65
3 34 220
228 109 212
162 199 205
183 225 131
25 149 213
187 234 92
178 102 57
79 90 56
99 85 99
192 168 24
54 97 39
146 125 45
179 22 199
145 241 234
190 37 120
221 7 152
12 50 213
227 134 218
166 128 238
98 60 118
17 8 85
191 107 222
172 142 220
24 173 230
237 22 167
252 91 28
92 209 122
68 142 190
34 244 168
233 25 100
161 151 222
76 7 217
201 132 208
124 141 98
74 198 182
244 73 207
233 204 250
98 239 197
35 31 94
223 58 129
168 68 38
154 219 75
135 137 18
25 165 180
80 207 137
202 233 98
202 6 20
245 92 111
147 45 161
77 175 241
59 140 159
11 61 22
250 48 225
239 91 207
68 65 212
202 226 132
29 222 108
203 194 191
54 222 244
223 140 78
69 197 97
183 93 29
55 109 92
126 181 159
18 133 190
229 194 26
1 48 252
174 26 247
53 204 217
119 189 77
137 109 117
170 170 107
89 136 128
239 210 145
175 114 64
190 197 57
192 226 144
244 10 204
130 143 35
102 191 17
179 12 108
213 62 198
132 77 118
159 134 40
249 124 49
167 181 193
194 43 205
13 254 140
17 34 229
234 63 244
103 239 142
18 58 137
10 249 167
208 118 42
167 172 73
133 108 155
116 133 19
132 48 56
225 163 174
40 97 109
133 248 41
177 118 9
95 215 12
216 187 11
49 197 166
143 205 76
238 112 137
56 8 21
206 244 40
136 153 225
64 170 121
134 243 191
124 57 168
190 30 128
71 127 253
82 77 61
173 249 197
126 128 215
236 221 1
144 141 240
177 80 61
182 216 37
40 73 101
147 29 182
183 91 38
71 119 67
125 42 159
72 117 153
75 7 95
132 40 161
145 2 71
187 158 33
235 226 41
39 210 156
36 53 99
218 49 3
179 95 139
190 90 30
248 78 81
88 27 9
22 184 10
69 146 93
242 72 40
92 246 20
234 27 165
164 164 225
11 5 118
142 161 226
38 187 169
224 8 94
199 203 40
97 240 127
73 143 52
108 230 195
240 87 138
191 88 127
199 173 206
59 105 74
246 65 82
52 234 147
76 78 231
106 17 98
159 61 196
18 105 26
133 48 107
217 170 170
45 239 113
135 32 201
60 158 93
85 242 160
173 156 74
75 247 21
138 73 238
101 159 78
125 150 213
206 239 92
114 86 245
214 232 32
171 148 185
231 193 144
221 84 18
55 60 55
41 112 6
141 95 184
158 197 94
147 123 193
193 255 47
247 235 125
91 242 1
156 210 27
93 191 38
245 105 57
220 71 251
22 202 140
75 174 165
22 21 97
177 180 27
97 37 185
86 130 54
230 24 109
49 253 155
128 57 104
89 224 191
236 57 160
210 250 27
61 203 226
251 32 18
220 165 200
176 254 80
163 66 28
22 39 16
153 7 237
226 163 76
207 249 15
125 21 174
62 153 68
193 214 147
19 227 92
129 49 125
30 186 153
102 141 242
25 69 189
42 215 120
110 253 158
52 152 126
210 85 160
7 46 134
214 27 193
40 239 54
8 54 213
249 163 240
32 21 139
12 250 244
232 161 25
230 159 217
127 132 18
136 3 153
155 160 142
35 96 132
207 225 203
123 77 239
96 145 36
239 122 167
99 176 182
142 58 211
192 35 85
110 227 203
49 118 221
248 85 54
136 172 92
83 165 231
41 28 60
222 159 245
53 82 170
117 218 9
148 64 131
169 160 81
137 4 140
34 150 86
144 137 111
146 62 178
149 244 3
135 77 206
38 75 112
18 221 220
75 226 206
232 73 124
116 173 197
247 98 5
192 152 47
90 211 69
101 4 135
111 241 113
253 249 131
52 57 137
253 171 57
202 124 163
91 188 73
18 29 29
162 41 61
25 41 166
112 68 60
168 219 198
152 176 229
72 103 68
84 254 132
180 21 59
94 76 63
9 252 233
199 245 217
142 83 102
156 230 130
78 76 72
75 159 134
38 86 217
74 238 226
226 204 208
35 116 20
27 40 16
136 200 229
60 190 101
188 228 50
201 147 220
171 239 53
175 180 233
219 146 1
253 177 182
166 206 232
180 121 64
131 133 149
33 150 175
58 36 187
32 64 107
233 129 75
248 35 195
167 156 55
91 188 229
45 245 179
79 121 66
234 97 209
204 13 238
181 206 114
73 247 6
255 234 201
137 125 47
64 182 53
250 148 58
55 166 248
3 68 90
169 254 188
184 242 222
146 77 107
104 211 90
42 243 122
247 3 9
97 110 21
248 115 90
22 204 240
96 41 41
148 67 196
19 55 118
148 105 111
243 92 33
114 86 209
175 135 56
254 21 200
244 4 34
87 39 249
84 169 179
83 5 70
75 133 97
191 231 185
175 225 56
176 222 236
20 214 232
124 120 132
121 250 253
69 244 85
112 128 118
113 103 207
159 195 177
14 140 128
189 138 104
19 148 247
173 190 240
55 12 126
229 172 132
70 130 179
186 170 65
165 19 191
76 81 84
70 241 117
87 138 164
186 35 118
194 91 63
195 24 245
147 11 114
198 182 247
171 128 252
174 250 147
197 247 228
224 80 186
241 39 123
71 219 29
196 197 15
160 193 163
123 225 98
145 224 138
27 242 0
211 151 225
201 162 148
88 64 106
76 113 131
3 120 209
163 244 61
201 201 142
230 153 13
100 136 236
33 150 94
78 197 209
8 152 133
149 152 233
196 85 31
226 72 67
76 52 73
46 105 162
8 233 88
114 193 20
82 110 196
150 100 195
250 9 227
129 7 28
34 144 96
105 142 243
141 61 4
218 79 28
31 43 74
174 100 237
189 40 188
26 158 173
7 156 151
34 152 204
233 215 131
2 228 7
50 170 139
20 99 252
228 234 130
216 90 93
83 73 233
9 75 30
202 185 96
179 162 19
249 187 125
84 158 208
19 189 148
13 95 80
171 204 238
185 4 82
237 69 31
159 172 169
118 195 69
134 34 38
113 212 80
65 114 232
236 67 63
186 236 62
192 98 193
184 222 245
207 119 132
159 212 15
198 119 107
206 164 198
64 250 54
23 117 158
230 10 170
11 162 66
230 174 2
209 18 249
136 76 236
63 205 43
26 136 138
105 79 98
157 224 19
5 191 251
50 52 61
249 113 138
8 201 223
28 158 80
56 153 25
150 57 14
202 50 52
193 102 72
234 202 116
247 203 192
101 191 55
166 158 7
75 172 187
159 66 99
236 5 3
66 52 211
224 222 57
132 123 252
143 35 86
89 45 241
212 195 149
60 195 79
223 7 211
62 167 252
40 167 117
46 123 117
76 42 233
245 125 127
200 159 211
164 173 203
225 209 89
119 18 49
42 6 19
125 233 161
10 225 180
82 144 223
171 184 170
88 122 60
170 253 14
188 192 211
20 192 13
203 21 117
171 80 239
239 104 23
46 67 9
129 11 235
26 136 48
210 145 230
12 238 130
244 144 79
10 204 83
174 11 169
18 4 169
162 206 103
202 167 40
218 132 95
153 221 224
184 59 120
148 101 13
51 112 218
79 130 213
197 99 132
243 164 208
76 119 108
116 176 230
9 72 53
251 135 203
243 64 166
165 208 243
95 240 31
10 98 15
39 43 78
108 110 230
134 245 244
184 63 153
228 78 221
59 166 126
78 31 31
225 122 128
125 248 155
93 180 162
231 57 70
174 83 209
229 247 175
139 180 147
82 42 105
133 24 149
255 18 250
12 34 242
41 228 92
199 127 133
18 103 206
102 178 74
168 58 64
247 245 42
221 243 72
157 162 41
213 222 39
43 0 238
81 43 110
84 192 213
194 146 40
14 12 21
46 119 50
140 60 40
234 51 83
184 10 196
166 209 215
210 72 226
121 151 114
112 12 49
118 134 89
148 10 90
36 6 192
106 43 45
208 32 71
239 131 244
185 212 174
108 254 159
246 37 51
38 213 14
58 27 133
228 17 217
194 218 2
252 227 15
71 190 166
109 254 34
3 71 153
177 51 147
238 208 190
45 37 173
99 243 42
44 255 160
15 183 166
40 130 142
85 174 233
48 76 15
88 162 62
106 102 13
38 47 13
65 187 37
254 9 32
158 100 200
217 67 36
253 23 224
25 43 151
217 45 90
49 185 139
224 16 216
151 71 51
143 207 188
38 86 3
87 90 194
153 131 159
206 14 248
58 254 33
179 200 1
79 105 103
166 185 141
249 206 214
113 228 161
7 108 97
165 179 49
67 210 166
196 72 207
118 195 151
159 180 167
182 31 248
5 122 160
133 186 150
234 22 60
11 224 37
58 161 203
67 39 95
204 10 163
138 95 247
221 73 73
109 32 57
233 75 9
201 165 65
211 192 150
165 180 48
63 17 215
17 107 76
95 167 183
211 228 205
134 206 42
16 104 171
139 162 197
133 31 175
40 11 155
147 205 135
38 105 162
231 125 125
150 54 61
131 37 95
24 89 213
130 157 123
103 87 217
31 196 181
55 27 104
153 240 214
162 124 160
46 92 250
56 182 218
196 73 84
156 60 41
187 165 161
19 86 186
112 176 78
45 186 156
73 97 251
181 137 7
170 168 8
37 29 111
176 20 210
141 96 86
67 29 220
254 211 72
180 78 225
254 33 134
18 24 6
212 148 186
147 168 154
235 179 91
171 250 138
199 111 106
42 209 198
56 44 80
44 160 84
143 162 84
113 93 11
41 20 94
165 67 162
143 222 230
174 170 184
109 82 49
5 138 233
106 160 237
140 29 155
158 153 192
52 127 209
125 15 0
145 147 31
162 14 13
167 9 64
200 99 208
166 129 252
27 8 113
86 145 46
235 68 32
95 62 231
8 224 168
132 6 4
96 232 201
188 59 125
184 127 151
51 132 168
20 197 160
33 179 60
16 142 161
104 153 57
52 223 7
26 154 39
119 124 135
139 7 231
28 115 178
111 168 76
6 207 69
146 140 176
134 110 163
25 70 216
89 43 11
64 96 153
84 115 249
69 18 201
83 14 6
82 91 126
231 67 127
177 202 210
109 225 249
189 241 215
200 1 117
237 223 1
13 96 67
2 21 169
99 193 233
236 195 181
244 34 76
164 125 95
103 82 111
234 70 48
121 56 207
221 112 239
136 128 83
59 244 89
221 121 111
185 51 123
218 112 153
206 69 50
225 126 34
68 176 186
172 144 171
162 156 58
74 22 117
107 12 80
186 81 144
174 146 57
102 118 161
244 160 129
151 143 231
218 213 67
170 206 244
240 105 197
236 160 187
188 49 172
190 225 120
119 119 205
79 212 102
190 244 203
164 177 89
172 163 212
37 97 27
177 250 155
80 33 152
122 149 89
249 96 53
33 152 155
157 202 112
244 14 32
22 171 148
89 227 196
240 225 183
179 25 91
26 161 67
180 152 211
225 241 157
84 22 169
37 87 241
49 170 122
222 190 89
81 32 216
144 63 10
120 168 94
184 88 45
35 66 177
246 138 28
37 20 206
190 66 247
186 63 200
249 155 10
159 24 31
241 4 213
173 54 148
44 128 165
105 2 84
175 34 102
201 204 120
255 10 95
215 4 181
106 72 133
178 171 118
8 138 12
223 88 73
4 234 110
119 220 131
99 74 165
106 240 107
248 94 197
141 100 40
215 164 184
229 106 0
147 253 39
236 234 157
97 245 165
136 106 82
139 231 45
65 196 65
107 50 223
75 97 10
49 182 29
136 57 81
159 198 147
193 249 250
167 181 51
191 0 144
99 69 195
74 22 58
92 199 162
23 18 56
134 188 156
51 243 87
25 47 95
163 77 57
97 107 173
18 216 151
88 104 66
185 220 224
236 170 197
171 112 113
4 66 48
104 201 239
11 192 167
190 135 252
69 71 119
68 111 105
58 246 132
26 145 0
255 43 172
40 238 238
167 22 103
22 172 166
159 78 145
225 93 219
35 65 89
27 212 139
35 49 197
214 182 213
164 214 60
100 138 63
90 174 184
221 179 242
122 137 209
84 14 55
223 170 160
166 142 24
67 65 103
242 245 21
28 229 13
49 69 68
114 172 197
8 91 37
47 93 231
212 95 69
202 137 4
77 82 60
191 180 5
117 16 38
211 166 62
253 181 126
63 204 165
109 225 30
137 32 233
15 228 80
198 248 190
109 65 28
101 6 77
254 195 109
204 114 74
71 193 209
21 52 173
18 112 96
237 162 58
8 139 56
131 132 161
228 69 239
229 155 182
100 176 187
93 135 6
39 131 172
18 159 99
86 248 147
71 177 88
116 189 187
157 24 146
42 254 194
162 71 148
240 90 170
221 154 145
42 79 209
121 159 251
65 17 216
20 178 170
59 144 85
160 119 115
105 29 85
22 67 85
180 137 206
181 75 91
156 8 47
72 228 64
71 8 146
154 74 220
119 155 10
78 108 45
213 176 182
58 206 81
132 203 203
53 67 41
136 207 186
116 161 6
129 87 203
165 95 252
244 157 189
21 141 132
182 145 45
5 221 26
178 155 11
167 190 154
29 148 111
164 161 167
18 151 68
132 107 56
57 154 165
23 121 79
251 163 118
111 17 35
3 214 151
252 127 225
19 253 167
223 189 123
167 66 29
128 0 121
21 6 21
177 251 148
200 85 214
196 178 229
39 100 153
25 135 23
145 79 48
25 229 197
193 114 41
118 146 207
132 104 223
122 61 170
76 183 244
254 169 110
50 78 171
190 170 105
113 227 14
166 61 219
184 1 81
190 219 112
206 46 182
198 1 120
35 154 144
198 100 30
113 130 28
252 67 171
90 95 229
188 255 223
130 39 122
89 192 170
78 86 99
41 58 111
25 216 164
208 131 228
131 89 56
187 119 145
165 135 127
158 67 222
58 25 148
161 0 201
172 244 129
122 76 170
55 193 95
65 0 30
159 44 202
10 228 67
223 7 124
75 150 244
125 62 238
133 203 94
174 157 100
71 198 149
251 141 114
203 87 221
25 32 86
54 78 103
129 188 32
68 9 109
140 110 55
240 128 180
247 247 124
55 11 128
6 225 217
232 87 39
71 196 145
87 135 62
61 230 29
47 230 117
114 255 131
19 217 27
91 33 172
242 182 109
241 125 227
7 32 55
109 227 7
73 202 179
75 52 153
215 90 91
210 131 13
49 51 240
14 19 47
7 22 100
197 47 122
239 129 205
116 28 30
183 238 218
195 134 199
205 100 162
87 169 43
197 129 101
23 133 118
70 228 56
88 143 156
165 132 215
228 157 251
40 178 234
170 190 190
12 57 220
215 95 34
7 243 215
160 213 213
248 112 74
107 139 122
122 134 250
102 39 210
114 118 5
226 20 122
37 205 176
151 218 196
38 30 205
119 98 106
192 44 7
238 32 107
238 42 128
92 57 169
220 133 89
199 29 60
28 13 226
62 166 157
236 224 255
9 79 238
37 5 81
146 117 158
80 34 125
63 116 251
104 74 90
221 228 126
148 180 52
121 37 202
28 246 41
144 117 218
74 0 119
105 130 71
174 88 33
193 52 162
80 113 195
125 228 188
64 71 63
125 169 76
216 58 59
154 195 138
228 186 121
142 131 200
232 122 224
104 127 129
220 148 172
20 213 21
102 220 93
84 89 183
157 134 149
240 122 154
133 210 142
188 70 207
254 156 32
78 222 72
239 127 231
96 77 173
203 193 148
240 19 187
125 94 174
121 68 214
143 44 6
34 193 234
112 148 45
108 239 187
70 183 225
102 157 75
68 0 210
145 52 58
16 13 148
114 18 131
134 209 138
230 41 108
50 122 180
58 173 9
15 223 102
71 91 114
193 145 246
129 216 33
46 61 92
40 77 205
235 84 94
0 175 44
225 8 164
250 228 232
207 63 219
9 163 183
237 176 250
253 63 59
65 179 194
88 188 154
18 208 34
113 180 14
191 115 87
120 200 52
76 59 73
253 66 214
160 199 0
62 148 243
223 18 83
213 165 123
50 185 163
56 138 200
2 151 91
192 197 140
173 189 48
49 188 209
194 150 248
17 221 25
153 215 105
168 14 130
62 62 131
255 151 230
31 88 41
146 113 189
142 112 154
132 118 131
228 214 54
97 231 83
201 10 172
103 88 92
58 236 116
202 47 51
90 129 26
104 170 253
217 116 41
79 218 199
191 147 191
55 92 85
201 55 235
177 131 33
142 137 112
188 109 81
42 75 155
47 207 125
90 223 44
255 39 78
175 80 39
44 157 246
88 8 198
113 189 12
7 185 242
238 53 51
69 139 161
89 28 45
226 81 145
181 164 223
171 12 51
197 217 90
161 24 50
222 193 69
102 30 21
117 209 8
17 179 229
167 162 152
106 164 103
45 120 65
137 176 232
216 23 115
67 121 144
254 73 73
212 70 66
202 175 180
55 114 232
254 99 88
146 196 15
41 246 68
131 145 240
51 177 203
193 171 40
132 171 5
84 81 99
87 107 32
195 52 198
228 186 54
10 175 167
178 188 56
158 73 181
110 237 165
101 231 59
165 254 133
115 243 171
234 109 188
50 173 158
162 185 27
18 77 204
194 132 250
70 235 131
11 129 58
105 202 134
193 29 5
79 174 43
68 193 169
92 129 246
135 177 128
218 208 41
165 102 191
178 52 51
149 60 148
242 171 225
166 17 18
93 64 161
39 184 26
84 64 124
128 198 101
212 188 194
161 81 150
49 58 139
88 166 81
232 239 62
104 132 249
127 19 79
123 8 181
188 198 129
238 174 65
47 6 118
227 197 190
27 210 158
173 91 107
164 21 65
132 115 170
182 46 179
180 198 169
163 221 68
183 14 25
82 55 21
228 57 199
195 16 58
251 87 65
48 80 87
50 240 18
98 189 49
73 117 197
149 248 24
47 236 58
191 156 134
117 5 13
47 245 225
243 170 4
202 100 242
44 20 194
3 203 128
104 222 150
219 111 121
105 114 169
100 55 89
56 136 116
254 115 236
125 180 115
12 201 33
75 13 23
20 179 241
200 164 68
167 90 190
230 241 167
179 64 175
147 59 11
222 252 33
25 79 229
187 182 64
44 58 227
129 164 175
226 201 171
3 176 60
57 195 82
141 100 67
207 15 146
90 191 239
137 125 137
88 175 131
107 42 191
163 77 76
206 192 181
166 84 177
112 182 98
201 168 86
252 138 210
189 89 54
184 173 22
80 90 171
178 112 195
95 219 34
16 245 67
30 49 154
216 67 24
249 52 142
10 163 245
197 242 219
17 215 240
44 18 86
25 128 121
19 175 178
60 182 177
72 20 220
62 155 184
8 185 4
4 109 155
155 19 214
209 93 151
53 34 145
67 188 84
93 80 108
141 90 88
173 217 153
40 18 1
202 113 17
88 97 144
163 136 79
127 66 142
129 238 197
71 202 104
88 187 145
67 85 244
229 95 16
39 6 31
201 246 6
25 28 20
223 124 228
179 145 187
224 248 163
106 60 165
181 182 171
71 157 110
188 227 104
0 176 125
196 3 216
45 103 1
156 150 35
114 225 172
116 7 220
153 58 44
35 172 250
238 61 126
72 239 27
232 78 234
181 32 219
178 8 148
137 254 104
248 211 121
16 159 0
162 240 146
185 167 192
47 42 152
44 39 48
146 158 19
202 249 20
99 235 138
31 137 91
26 242 99
44 152 220
174 240 163
181 162 221
118 175 67
222 138 24
244 26 229
224 187 152
161 221 230
9 79 36
86 159 31
95 8 187
229 146 242
112 221 158
171 219 54
153 116 214
57 255 202
13 207 111
79 179 52
155 223 221
224 70 109
32 190 196
85 219 17
243 22 136
137 110 66
220 105 158
201 178 166
46 110 48
60 0 154
184 179 154
2 103 12
104 251 58
2 232 125
40 175 211
62 107 21
173 230 198
137 230 124
181 83 163
215 129 156
96 103 73
43 85 246
107 192 95
202 35 28
223 139 102
3 65 12
31 10 201
48 13 228
195 131 100
88 59 175
69 123 13
137 139 24
252 174 204
170 168 134
138 40 89
132 69 220
155 39 17
93 54 207
52 18 96
93 249 232
43 177 117
198 15 170
33 144 3
3 28 140
142 139 143
140 23 169
173 215 182
254 112 182
7 28 249
113 83 62
118 4 98
23 117 135
73 89 223
249 190 176
29 146 61
226 192 144
147 119 102
124 142 176
100 37 215
224 112 192
122 38 92
10 236 39
44 248 122
204 62 99
111 89 70
189 202 95
92 95 193
213 146 33
81 229 151
249 120 165
231 220 221
29 86 100
182 95 13
221 94 100
212 164 244
239 212 252
253 44 34
162 155 185
85 127 197
12 37 204
212 134 66
93 29 18
147 107 150
214 127 89
215 109 205
35 6 6
68 207 234
4 219 70
160 124 12
233 146 83
175 171 197
67 11 106
220 213 231
140 60 120
255 148 132
178 5 82
23 75 135
2 35 5
13 123 31
209 136 161
49 197 177
19 48 165
151 13 248
219 18 140
153 234 232
106 215 66
205 8 86
251 201 226
183 223 215
187 205 244
221 133 239
38 43 226
165 230 37
84 146 126
19 192 175
216 55 58
19 71 154
112 220 93
63 63 204
68 19 113
35 210 40
176 71 202
31 184 24
184 56 253
15 91 155
66 11 52
170 183 40
237 151 37
199 215 27
58 207 56
100 73 150
34 128 177
230 56 166
7 126 174
107 133 24
52 254 173
26 234 212
107 93 154
2 53 118
13 126 143
195 148 255
11 42 124
28 58 156
142 175 62
110 239 159
98 134 255
12 112 30
69 144 179
123 218 190
107 221 185
69 40 90
236 192 181
243 70 81
48 94 99
205 197 111
203 48 24
164 137 203
225 237 78
241 223 230
159 223 250
51 65 102
54 122 53
106 255 123
218 30 57
180 129 46
145 121 243
245 92 160
189 223 19
117 211 156
222 126 197
100 228 154
70 105 183
252 149 171
3 238 16
49 88 172
166 189 233
240 118 162
215 162 227
107 163 234
146 117 33
60 5 205
37 113 96
7 37 103
110 225 18
113 218 204
77 81 237
223 14 11
9 82 207
225 128 127
165 38 184
27 17 141
239 65 77
135 70 12
230 204 45
59 239 23
75 207 182
143 212 43
100 184 115
168 145 234
199 197 39
235 130 246
234 249 114
64 46 191
39 53 50
184 136 17
238 164 125
204 225 22
30 119 66
181 122 40
190 16 170
38 216 204
122 77 165
30 32 244
210 5 120
84 248 200
88 150 156
170 12 237
194 172 188
190 76 170
180 243 61
54 68 218
199 101 70
236 40 50
94 252 3
229 168 184
182 20 229
219 206 112
97 80 88
1 155 53
173 38 82
114 109 236
110 143 110
94 191 87
48 72 26
192 207 250
195 201 171
116 203 161
192 166 45
191 135 56
2 178 234
64 28 233
73 154 192
186 135 14
130 31 109
136 86 226
203 188 221
151 136 83
37 139 140
22 193 222
38 166 124
143 180 18
118 178 26
49 177 188
36 166 65
202 172 167
120 184 113
37 95 79
31 135 121
162 117 126
119 69 14
127 10 60
255 223 131
1 62 49
242 110 201
170 77 36
227 213 210
105 134 60
24 117 99
2 167 214
236 212 37
27 169 51
76 101 28
106 32 141
168 82 187
71 168 4
144 184 172
157 171 170
2 93 70
111 81 162
87 85 67
64 168 189
96 219 212
60 110 63
197 52 247
5 87 166
253 241 59
63 41 227
81 108 222
58 242 53
198 206 171
158 193 31
128 12 140
190 111 29
231 3 97
202 168 250
12 178 143
110 208 182
55 246 169
84 50 174
168 123 83
254 232 50
62 49 207
82 252 178
123 35 39
163 98 68
80 177 238
12 16 80
57 6 21
66 209 17
167 243 29
215 46 166
162 45 183
40 179 50
1 200 192
118 36 84
190 127 44
107 62 168
113 201 200
186 164 49
110 1 93
15 217 188
171 159 90
153 253 148
166 168 25
105 82 98
181 127 105
47 42 244
233 56 128
170 171 25
182 33 253
123 132 105
235 134 218
93 237 246
71 18 78
70 156 122
147 74 112
82 70 148
243 210 70
199 200 39
170 135 39
112 252 217
13 89 71
207 15 100
181 186 17
224 195 4
6 225 230
76 253 38
68 134 136
122 156 146
149 127 184
70 29 120
194 149 191
229 212 230
23 139 53
39 64 170
221 211 235
25 112 35
5 94 33
84 231 201
142 5 32
56 71 219
119 228 64
68 195 219
133 45 110
56 193 21
75 29 187
68 103 174
144 65 139
200 180 188
228 38 211
234 110 104
75 57 101
68 174 63
86 215 240
51 63 116
194 183 161
107 207 113
251 208 143
17 162 29
95 104 86
167 101 201
75 211 223
127 20 183
104 158 187
120 124 5
89 140 42
16 74 55
252 53 8
223 164 22
205 223 52
36 42 10
206 224 217
222 139 11
58 29 147
124 192 239
177 195 174
18 141 231
133 54 131
241 177 51
21 247 74
232 55 180
145 79 24
54 220 55
93 245 10
0 106 99
235 55 203
46 235 23
191 209 61
143 253 150
223 164 2
91 59 2
20 95 182
144 77 138
104 35 139
209 199 167
200 230 128
239 195 144
75 99 253
151 1 150
225 22 171
91 2 47
23 147 241
254 234 11
127 90 75
92 39 202
98 40 61
193 130 239
102 207 105
216 54 28
241 46 36
47 11 147
78 182 77
144 65 70
118 141 150
113 38 166
97 59 169
125 158 156
44 109 7
119 96 214
240 59 127
23 212 254
12 48 131
8 35 172
144 211 39
7 71 93
201 91 13
174 73 194
199 3 36
103 168 130
248 104 137
17 140 56
247 92 90
169 28 165
243 255 214
43 64 155
79 211 182
135 224 55
165 115 187
126 65 86
63 75 6
156 165 63
8 233 32
8 112 180
37 21 89
63 105 63
217 156 79
85 185 24
223 159 250
132 33 248
209 61 86
209 80 242
2 31 56
102 159 147
154 172 29
206 13 47
107 112 203
112 253 79
3 30 27
230 173 2
203 157 118
248 58 107
64 75 7
158 150 29
220 207 87
148 114 16
219 164 245
227 125 75
4 62 82
139 198 111
162 86 188
62 162 169
69 14 26
189 135 249
7 24 99
77 123 199
156 139 242
144 157 44
126 115 175
148 183 60
8 180 117
240 129 229
211 153 193
196 184 131
88 217 181
254 161 64
64 157 152
241 151 110
178 226 243
242 29 152
221 209 57
35 48 43
200 249 124
100 154 159
176 26 60
248 1 207
88 84 6
88 18 87
190 233 189
203 217 84
77 33 183
156 173 95
6 96 230
21 159 83
120 22 50
213 14 85
115 138 172
146 226 227
83 89 31
55 132 76
50 20 80
147 134 158
90 190 155
74 221 69
145 67 237
40 150 167
5 218 56
229 173 106
84 175 27
125 185 95
125 214 14
30 192 216
65 70 48
22 36 2
40 0 227
161 144 11
55 36 211
33 17 199
198 76 41
233 238 214
191 103 126
109 88 197
219 84 245
230 120 49
238 19 55
211 219 240
75 64 216
216 12 145
22 236 237
42 151 181
1 64 35
228 183 234
34 27 164
124 0 42
134 217 189
22 106 237
122 245 133
20 241 240
35 205 247
87 155 200
188 129 116
194 164 93
29 43 208
17 92 203
58 229 148
68 91 164
136 115 233
205 112 97
179 190 68
69 11 164
11 20 123
130 128 237
183 64 103
104 240 205
65 180 207
240 116 196
238 103 173
37 79 192
18 20 64
131 233 6
101 195 225
121 182 248
113 0 138
12 244 194
203 41 144
1 120 140
190 30 78
90 84 40
70 160 44
17 135 81
205 5 158
149 135 148
4 26 237
80 186 7
110 76 72
113 86 39
138 8 42
229 17 83
196 177 190
101 133 195
217 65 144
106 220 20
8 122 240
205 74 103
173 54 45
27 247 179
109 63 254
41 101 4
81 75 151
148 121 36
216 36 150
143 136 250
250 21 96
113 153 67
190 231 0
58 254 112
33 97 224
21 155 225
36 255 241
0 88 51
181 138 88
26 243 182
60 212 149
198 177 141
92 225 14
36 239 223
193 79 241
67 118 102
201 117 66
210 35 201
225 1 232
58 203 2
83 102 150
246 187 168
70 209 117
22 18 169
253 59 174
65 207 158
239 255 24
156 28 68
23 99 169
156 90 247
37 7 195
170 167 51
91 236 74
112 237 248
160 104 219
12 96 140
181 131 39
30 5 85
119 160 155
138 204 44
52 13 90
83 195 27
94 117 63
236 75 228
226 53 13
91 2 162
252 151 92
170 138 119
224 41 99
5 7 13
139 21 44
78 37 180
246 170 84
235 183 139
146 177 148
187 237 221
153 202 230
241 178 150
248 8 85
23 77 169
74 149 128
25 162 149
203 186 222
136 11 72
55 129 120
153 234 95
99 69 10
20 217 208
211 236 165
89 153 13
47 204 223
20 51 156
218 116 155
231 58 237
57 237 50
160 160 210
77 197 170
145 171 99
206 216 74
49 244 72
228 14 235
3 209 193
157 108 217
104 172 128
147 152 217
30 194 110
128 119 82
121 151 123
163 4 90
203 117 13
62 125 100
40 126 110
239 225 216
100 176 254
221 165 32
59 80 19
218 110 241
30 151 219
189 205 124
100 81 87
158 171 46
212 166 25
141 191 101
183 230 158
112 16 121
63 34 182
120 27 70
77 2 32
250 9 217
159 83 36
210 26 230
13 9 163
150 134 65
94 179 157
110 181 164
107 195 179
153 143 209
172 121 230
142 0 14
232 81 21
135 83 140
197 112 124
77 119 190
22 203 101
229 54 19
43 232 194
86 96 169
134 41 187
240 231 211
58 217 156
126 69 137
169 99 149
204 174 193
4 12 196
24 158 60
97 105 145
158 196 245
157 134 20
59 115 84
64 70 229
201 255 52
183 109 109
185 51 198
215 212 148
57 240 32
109 230 172
133 236 175
241 148 61
110 238 254
215 231 6
251 167 145
120 88 38
40 91 56
51 158 64
181 92 40
2 165 55
38 161 49
234 217 138
196 141 164
76 26 31
70 34 173
3 199 39
182 3 93
200 125 127
150 94 153
199 226 129
179 230 195
52 190 244
75 245 233
233 59 131
83 241 230
214 211 168
228 251 106
106 45 45
121 9 112
188 148 104
129 119 68
45 127 169
41 1 22
204 209 122
182 148 252
82 162 136
71 12 148
97 172 164
54 10 215
242 123 220
220 233 253
14 205 108
97 2 230
108 89 208
165 113 254
172 225 114
101 165 255
97 123 129
103 17 201
93 87 190
46 76 49
222 250 48
23 187 243
52 39 52
179 124 199
117 23 89
192 9 139
226 67 70
246 168 255
179 182 146
144 247 183
74 36 15
84 205 213
109 87 179
51 47 202
17 54 248
160 139 237
121 126 5
153 97 178
1 251 187
19 189 129
32 50 2
223 152 127
93 35 93
9 14 20
121 160 141
106 98 220
206 119 59
60 141 166
157 214 247
162 83 172
145 26 36
130 160 155
37 134 94
168 231 135
213 226 189
85 171 13
15 72 218
217 163 234
19 175 230
243 219 72
188 142 120
102 19 228
49 80 218
46 207 181
7 33 178
11 243 217
78 50 255
36 89 105
115 72 68
85 255 50
166 169 120
106 78 110
130 45 2
157 83 169
151 154 60
228 81 177
145 14 152
103 84 203
104 232 107
69 63 57
123 184 90
201 107 174
61 49 78
87 193 216
35 217 78
160 42 182
103 173 76
81 18 67
91 200 67
110 36 48
20 33 239
235 225 54
193 88 111
162 100 123
109 3 29
109 221 152
228 39 110
231 113 65
171 222 38
31 178 90
69 48 1
59 62 28
100 174 169
103 201 82
76 170 218
39 88 183
139 12 112
165 40 179
208 50 133
82 186 168
90 4 146
80 192 139
234 32 52
89 79 91
130 204 129
132 194 96
228 29 57
100 184 145
79 95 13
133 78 77
214 185 44
52 160 140
25 107 140
197 55 234
43 161 42
139 17 111
249 50 247
65 24 38
154 64 80
36 144 233
178 218 83
128 252 3
181 198 214
159 156 78
160 37 55
172 164 92
40 174 139
15 229 13
239 133 105
45 45 59
215 113 159
214 101 205
5 197 133
16 25 163
216 61 241
209 170 51
82 103 130
40 159 253
205 140 1
24 234 248
205 164 156
145 49 121
28 11 94
90 172 202
218 182 68
236 160 40
20 58 135
60 177 22
47 217 164
234 169 121
118 216 102
191 75 109
94 231 145
155 234 168
52 88 201
222 187 173
74 93 74
34 116 198
207 231 145
31 199 81
92 192 113
47 58 11
123 45 61
109 131 234
119 80 246
17 167 84
222 20 171
245 105 209
10 199 223
127 168 125
60 163 26
246 38 94
246 158 18
21 15 10
83 13 85
183 140 220
59 106 151
65 6 1
153 167 191
176 18 229
193 239 102
1 40 163
31 237 32
82 237 166
139 152 98
30 192 192
50 112 13
229 17 159
108 146 211
12 90 242
120 251 66
9 241 101
33 200 92
120 85 15
159 110 83
58 201 114
179 101 32
49 178 135
19 30 39
38 191 112
16 183 99
152 109 243
224 168 126
182 127 125
145 162 69
148 105 112
153 172 45
44 67 89
235 132 142
70 89 153
239 255 253
165 28 110
36 25 60
172 206 20
127 150 28
230 125 69
213 86 138
11 234 78
209 120 252
149 146 131
246 251 12
205 203 192
111 30 238
210 21 247
182 226 113
164 6 87
88 180 10
20 242 216
96 211 116
127 114 170
114 112 11
215 173 84
163 62 3
136 43 224
41 172 13
183 86 45
40 73 83
29 131 192
30 105 69
30 157 25
234 207 185
250 197 26
47 35 90
244 229 168
199 108 3
58 68 161
42 1 51
202 187 180
110 229 105
109 40 252
223 60 88
39 251 175
175 244 142
204 174 179
157 20 86
203 207 73
0 57 195
119 9 26
33 187 158
44 54 198
7 221 254
135 86 248
5 3 49
202 132 16
3 216 203
246 187 111
237 70 41
98 99 24
99 241 176
199 79 207
67 246 55
192 113 158
95 112 11
121 124 6
111 103 60
53 38 224
88 204 137
155 22 104
3 75 4
175 131 90
159 18 138
181 246 202
121 141 27
138 173 225
197 81 59
22 240 111
210 254 107
36 108 204
141 130 95
248 236 45
81 216 45
88 141 190
106 194 114
122 60 214
204 157 42
50 218 136
179 74 81
131 218 42
145 91 74
86 117 47
125 147 72
133 154 106
159 73 208
145 157 99
93 27 113
150 186 53
114 244 212
74 195 97
210 232 6
37 131 115
152 49 128
241 34 180
201 76 75
57 20 229
147 44 136
144 173 89
111 165 75
64 226 196
233 28 228
75 111 246
178 200 40
26 55 151
33 55 180
19 116 249
87 141 198
189 8 21
70 181 198
29 84 103
57 154 210
54 51 225
28 178 217
85 18 142
26 83 239
70 81 144
123 60 219
10 153 182
174 35 192
43 104 168
119 230 229
179 96 214
69 183 144
217 181 253
222 94 76
106 100 92
222 80 113
145 125 190
42 221 35
91 20 4
173 184 0
169 206 212
113 169 85
12 158 208
98 47 229
97 224 87
194 106 209
167 144 57
192 176 133
255 13 200
114 20 165
91 242 107
74 162 220
55 222 159
241 166 205
125 50 48
184 2 66
38 39 102
67 183 75
56 108 172
175 23 189
58 0 150
103 108 249
208 194 206
18 55 210
98 66 170
80 177 82
71 128 151
67 232 109
105 5 169
188 169 189
43 96 24
78 83 90
204 22 248
141 8 81
217 109 122
24 38 85
33 163 13
96 142 105
58 168 142
78 80 13
94 145 78
68 4 56
20 247 247
17 122 12
141 229 198
142 87 29
201 74 65
23 158 61
128 129 27
231 13 241
14 62 123
66 96 30
221 128 44
196 185 37
47 69 136
65 186 161
160 153 146
191 35 195
216 173 155
234 34 141
239 19 35
189 208 180
102 119 246
72 71 233
149 31 69
118 32 52
211 134 104
164 52 109
166 246 4
73 96 69
111 57 77
63 113 85
36 186 124
118 60 37
104 41 199
141 57 158
209 67 140
87 166 156
61 64 197
251 50 161
137 124 214
109 201 15
12 26 36
167 145 145
159 171 250
16 59 9
228 118 84
165 250 231
88 1 93
24 72 54
100 88 18
168 227 168
27 72 231
29 104 136
249 60 101
250 214 137
130 89 20
46 178 232
107 58 199
88 153 206
11 83 11
182 251 125
233 128 133
29 195 32
106 216 47
36 106 209
153 31 252
101 168 238
114 120 208
146 104 236
194 123 109
241 190 239
242 71 164
193 202 192
229 243 109
149 116 158
242 110 81
207 204 23
179 252 210
142 121 242
168 230 217
77 192 133
254 20 52
10 19 88
47 148 83
108 99 122
69 89 105
148 201 250
82 168 138
66 164 62
221 187 62
22 78 152
53 128 203
198 209 233
170 158 216
28 191 13
243 25 133
108 136 125
39 197 34
150 98 248
3 236 161
186 39 139
202 131 38
165 61 63
71 142 176
87 94 68
71 227 223
95 135 63
164 247 129
50 72 102
75 38 26
144 147 77
221 250 243
182 80 14
23 125 252
108 14 192
106 36 197
135 231 239
89 214 95
127 148 159
160 141 171
123 82 94
70 193 2
98 199 217
231 198 67
254 88 4
73 183 68
162 55 138
229 132 213
104 153 112
82 229 214
168 64 41
75 126 122
145 89 81
236 221 52
56 254 235
130 95 130
119 249 248
154 146 170
249 215 167
235 25 23
141 225 47
163 128 117
168 17 183
224 190 2
78 174 69
249 7 10
183 251 112
225 100 113
43 149 106
125 119 235
195 183 190
173 221 108
113 54 176
209 184 103
2 231 63
43 7 121
210 114 148
28 169 81
182 244 124
251 216 207
163 253 157
97 173 112
253 45 129
85 123 80
33 106 113
184 229 52
248 143 67
218 140 176
117 150 209
165 61 78
226 248 86
110 186 51
119 194 76
234 128 148
224 11 209
152 82 251
128 45 210
11 144 254
122 123 169
158 18 119
158 175 185
240 137 70
129 13 126
237 11 42
56 215 127
67 136 61
24 43 255
217 173 28
245 177 9
18 220 15
42 36 43
248 224 75
138 102 13
120 234 86
154 125 184
0 98 53
141 45 184
115 113 61
155 70 249
179 121 197
70 183 197
102 3 11
15 254 149
222 253 227
50 198 113
25 45 236
2 51 23
121 126 161
204 138 240
75 110 34
45 195 210
251 15 209
124 81 123
7 54 37
223 68 213
60 16 56
6 132 200
175 251 31
197 210 56
241 104 210
68 150 133
158 137 222
195 4 255
131 138 68
14 101 7
31 117 205
250 233 133
85 6 213
90 220 89
93 58 40
137 79 191
194 96 49
24 20 172
103 88 21
123 2 80
226 96 249
38 236 40
102 169 141
72 207 242
192 196 41
171 205 208
20 113 63
133 237 213
103 239 234
14 86 13
13 30 192
252 75 124
220 192 146
115 27 2
186 24 149
132 53 162
140 32 2
104 235 202
178 177 23
111 97 72
22 89 130
65 151 57
154 230 167
163 250 226
219 105 180
205 88 247
252 245 15
120 174 117
212 93 207
156 183 2
63 75 102
108 251 158
151 211 48
124 176 161
186 76 59
186 170 47
248 223 39
15 109 125
151 72 155
6 90 90
200 105 205
76 51 189
29 142 118
1 192 177
34 56 141
10 18 253
16 8 162
45 161 253
138 84 136
26 242 61
7 203 47
144 251 240
43 137 70
40 243 228
143 121 143
240 37 57
175 242 135
231 32 45
243 174 217
179 71 134
20 113 236
10 68 24
17 40 132
39 248 244
148 63 80
254 122 180
127 36 64
101 169 168
139 192 83
232 147 54
245 81 24
103 231 126
174 175 150
217 90 80
22 175 134
20 142 209
111 168 208
58 15 52
112 102 72
236 64 204
238 192 164
117 222 191
243 154 252
129 96 91
199 167 216
239 37 59
121 10 202
17 244 248
10 40 156
2 116 45
137 146 17
56 93 68
3 2 12
209 142 211
97 168 240
104 101 107
181 207 244
16 122 244
40 112 253
61 189 143
46 56 57
128 209 12
87 241 232
242 237 77
22 53 216
27 221 73
55 117 108
61 178 174
66 86 229
144 64 129
185 98 109
130 40 102
5 230 247
24 180 147
20 217 172
53 117 83
150 14 89
126 242 188
51 44 108
144 54 145
67 63 181
70 243 86
234 200 254
12 71 82
43 71 154
237 92 155
146 232 74
235 149 115
242 20 207
67 203 102
77 52 25
137 21 173
229 110 217
245 110 3
27 91 4
219 132 221
107 43 251
168 226 217
13 64 73
244 175 176
230 248 30
175 25 157
79 86 106
240 91 28
252 70 63
77 122 179
69 219 83
177 144 196
6 148 173
200 243 103
104 141 165
36 81 235
112 6 89
155 160 27
14 244 148
17 28 246
167 75 11
211 181 73
31 57 174
196 124 68
46 96 105
152 10 61
43 209 148
87 146 241
39 114 44
104 37 68
246 156 64
192 40 183
143 123 127
89 183 232
125 198 4
76 114 112
4 173 169
21 48 92
121 216 103
79 122 63
3 126 34
59 74 54
3 34 171
246 37 82
131 120 211
206 124 199
128 98 168
3 58 234
12 54 203
243 128 163
131 94 123
227 69 246
182 149 249
125 197 77
191 14 39
143 10 13
175 213 209
47 176 52
47 246 101
42 122 158
58 99 100
199 34 147
204 230 174
154 115 191
182 11 208
85 91 71
209 157 48
105 18 151
164 147 71
50 72 234
25 224 223
243 250 240
197 87 235
49 137 147
45 114 84
0 127 171
114 116 65
247 220 174
161 37 81
91 90 244
239 159 246
59 12 249
170 196 102
16 227 159
231 48 182
204 13 131
227 80 147
94 142 170
89 69 203
211 227 214
79 116 165
1 231 42
89 50 129
236 122 233
81 9 141
1 90 37
146 139 183
58 104 114
148 85 183
124 176 7
60 44 31
151 131 247
209 220 30
248 161 56
175 48 114
92 112 222
56 207 49
188 147 49
113 178 203
94 179 244
151 144 166
214 4 121
159 15 27
224 221 93
35 2 209
222 218 123
132 160 49
215 206 60
90 9 217
179 116 10
197 232 2
194 142 3
8 140 132
48 250 182
150 5 8
84 87 140
226 205 171
117 209 211
28 15 221
211 65 6
239 1 94
124 173 8
206 109 168
163 248 104
105 179 29
16 160 130
14 81 113
136 125 84
204 181 23
213 99 208
40 132 198
156 113 203
83 145 126
37 94 202
70 191 8
136 249 29
33 141 18
22 157 173
137 205 149
45 80 232
221 44 120
252 152 237
168 163 40
81 89 121
162 103 27
133 172 137
11 153 92
142 120 61
157 180 115
82 21 114
244 223 50
3 2 144
13 215 158
150 194 198
175 110 56
238 176 139
235 6 222
48 245 17
46 149 53
151 43 0
71 136 68
136 136 111
230 231 1
125 186 237
51 193 154
72 204 235
64 202 17
103 66 223
46 8 215
1 1 89
232 154 175
128 146 248
177 179 165
156 133 176
187 49 92
199 249 65
237 37 4
6 238 171
12 164 77
34 217 131
62 162 160
100 5 169
81 237 251
43 216 222
94 213 182
150 97 53
88 215 66
223 200 194
138 53 79
245 129 111
124 83 97
91 152 197
180 141 134
249 114 49
53 250 101
235 36 37
8 177 244
163 92 111
110 19 24
19 165 205
159 29 207
98 140 231
210 238 129
162 195 206
236 209 85
202 202 121
152 34 147
93 169 218
35 113 244
148 138 233
211 84 1
184 118 12
148 17 218
72 63 19
240 64 74
244 143 147
146 29 210
130 131 43
145 18 147
240 2 232
83 238 219
123 232 175
190 107 195
177 3 12
63 241 20
194 13 70
118 85 102
68 125 101
30 203 194
42 50 47
92 124 146
53 167 168
222 3 41
255 138 217
136 71 253
54 162 86
171 49 156
135 216 77
184 217 248
62 80 39
198 117 151
161 84 164
236 204 79
253 65 180
227 76 49
38 120 129
131 202 3
186 3 144
53 204 88
97 35 75
168 51 221
10 14 222
36 67 128
52 96 177
32 4 183
244 1 227
21 134 194
213 48 143
169 155 54
252 50 55
108 207 97
114 235 223
144 165 32
67 231 132
163 18 229
80 191 164
131 154 133
10 116 14
244 142 81
246 145 93
124 14 62
65 220 143
39 117 160
63 137 249
37 154 140
56 75 70
36 184 208
56 204 94
146 245 91
136 144 79
217 140 12
211 195 38
231 54 216
245 206 84
232 151 28
71 179 131
152 111 36
249 2 0
188 76 62
213 246 55
197 183 91
9 38 100
77 43 188
205 103 118
209 4 229
178 150 194
176 21 62
83 250 43
241 104 171
234 171 84
72 51 21
223 156 102
149 64 74
201 36 21
44 116 252
127 246 112
30 204 101
33 130 117
94 25 204
46 140 9
106 252 112
161 83 111
243 235 236
130 189 92
147 76 106
218 95 100
61 36 240
242 104 168
202 47 250
9 42 146
163 224 138
228 31 216
101 43 160
176 152 161
68 122 251
40 33 60
167 34 77
14 104 34
90 43 130
93 55 17
255 210 79
229 192 167
85 83 221
155 130 34
45 121 57
2 13 73
189 157 202
247 172 25
174 211 57
77 106 96
159 55 102
114 46 105
30 136 121
94 63 200
176 33 133
173 95 209
248 103 219
64 13 3
60 23 215
135 33 136
110 253 233
17 193 74
95 147 187
213 214 31
253 13 159
152 134 16
20 118 8
89 240 22
63 184 57
92 186 38
184 80 48
104 8 38
232 252 169
174 53 49
135 99 145
190 124 20
77 23 246
19 219 60
85 166 231
145 223 193
161 211 106
100 18 30
110 165 45
99 106 226
128 162 141
85 230 57
103 126 181
228 0 56
211 73 182
10 16 129
197 95 232
48 49 34
16 177 120
224 105 27
89 71 101
207 112 124
100 84 120
11 153 45
60 217 212
49 89 238
24 12 17
6 10 70
186 104 222
195 152 151
133 233 62
127 118 120
3 186 239
251 134 142
214 244 77
30 106 10
44 141 201
132 47 130
46 105 21
224 242 241
217 99 191
92 167 95
247 96 133
164 19 110
2 74 108
34 233 3
150 240 8
245 15 112
48 94 29
202 69 94
158 135 55
234 48 133
55 31 47
127 172 110
116 227 113
133 23 45
63 198 205
114 36 34
60 237 205
53 90 4
27 244 237
61 215 33
240 49 61
29 21 99
21 213 77
95 32 165
211 250 141
249 208 198
225 111 208
108 113 201
87 60 102
6 41 12
180 220 191
167 0 141
113 174 128
148 93 213
179 20 108
164 167 222
35 179 197
83 150 145
145 222 20
142 204 23
230 132 190
243 170 168
181 70 166
103 247 63
221 125 5
119 154 7
21 217 197
229 135 229
68 159 180
156 201 4
95 0 133
98 254 30
42 59 201
212 253 167
149 225 213
178 21 127
22 225 172
113 94 251
128 47 121
61 59 106
52 246 25
197 238 37
214 170 235
220 129 116
135 197 249
245 113 81
7 220 159
83 43 90
248 213 51
0 48 44
67 215 187
79 80 42
90 209 186
100 247 206
149 0 240
221 14 125
250 222 223
248 133 4
139 76 90
44 86 33
14 73 95
251 220 242
39 48 73
220 72 95
67 64 37
82 181 208
177 31 3
64 214 49
140 144 205
89 180 38
16 156 229
26 8 190
166 24 61
169 214 63
198 125 211
35 212 202
29 104 245
111 42 249
224 160 63
83 161 23
109 68 16
31 73 136
20 193 69
73 36 85
54 18 245
182 252 251
27 131 189
94 160 2
35 203 77
54 105 13
217 205 239
134 209 176
219 93 192
70 211 238
78 15 21
23 208 162
119 60 102
227 102 4
5 44 49
128 222 46
155 227 168
82 22 159
26 152 246
239 162 36
133 197 223
83 200 0
63 35 50
106 16 6
222 222 153
138 117 23
7 90 129
33 104 240
161 234 215
54 188 58
89 23 0
36 203 252
249 1 231
88 231 204
174 175 222
161 7 102
179 189 65
41 53 162
5 100 37
116 75 164
207 43 209
189 192 213
10 220 7
45 230 19
87 136 42
119 1 226
77 107 230
237 146 178
141 232 228
161 160 252
159 244 40
110 239 39
10 29 255
157 61 206
41 13 105
121 62 39
158 4 135
159 207 252
201 94 216
84 201 205
242 225 162
206 169 7
117 99 238
150 189 31
62 203 24
26 83 171
8 39 156
8 164 156
106 147 169
168 61 86
117 159 13
221 192 242
109 235 9
96 111 41
157 70 34
118 117 238
112 91 6
64 128 65
187 255 130
120 227 54
178 248 230
78 10 165
222 97 197
228 146 109
129 179 45
22 95 225
87 229 104
7 58 94
113 197 209
97 215 10
211 244 169
153 125 182
185 56 25
86 99 70
102 11 74
65 45 221
76 100 228
129 135 96
246 18 214
196 218 3
24 221 202
91 22 134
13 171 89
135 126 125
222 148 60
11 102 175
164 172 38
225 32 113
65 95 32
235 35 223
254 171 27
243 67 53
108 224 141
93 117 202
34 210 52
209 102 209
2 171 201
146 50 39
165 177 249
30 159 73
57 130 106
253 174 110
218 250 83
177 221 221
103 88 95
94 95 76
150 183 224
181 192 65
153 208 95
249 187 224
249 250 127
136 87 23
145 182 86
205 80 9
126 151 190
105 34 99
169 16 206
213 102 220
249 202 180
44 97 92
117 38 4
196 125 245
28 90 94
113 65 208
220 164 218
254 146 70
65 158 141
201 31 91
241 132 172
28 12 121
83 211 47
184 226 119
148 228 119
3 15 24
230 40 69
141 105 54
141 174 174
128 131 162
101 123 157
180 66 210
157 130 51
144 67 42
175 83 227
185 145 163
232 137 39
167 169 149
222 253 222
122 24 15
189 145 87
36 135 120
140 41 121
52 7 186
216 129 88
160 7 162
174 247 123
90 226 132
51 124 70
251 71 169
247 44 205
103 128 204
219 38 134
104 163 186
37 35 197
61 91 99
151 36 222
195 182 201
136 157 8
87 254 114
24 141 180
51 55 103
86 146 213
208 245 186
73 51 238
101 125 228
77 223 56
95 12 123
18 111 123
74 79 118
110 58 61
177 146 173
186 9 246
134 231 69
89 154 30
13 160 112
55 179 53
222 81 254
38 93 54
167 228 72
91 31 160
87 201 6
27 47 38
125 101 6
181 10 108
18 134 92
3 158 160
249 129 141
165 154 39
251 203 161
169 118 239
173 188 48
69 0 64
123 112 93
92 157 30
231 212 128
67 134 63
8 51 70
29 25 168
168 139 90
83 30 69
54 103 198
79 253 38
245 234 145
193 245 44
56 103 219
160 51 137
200 27 0
73 104 5
66 69 239
45 86 189
197 147 49
31 73 172
220 67 229
33 248 140
46 57 139
35 86 218
224 139 181
155 63 78
178 235 243
68 163 217
194 67 10
141 101 51
240 36 225
248 245 226
128 37 21
32 70 45
25 37 109
167 242 127
167 13 154
233 182 168
169 240 11
51 10 89
163 103 6
244 58 151
100 12 94
164 184 159
251 118 184
168 197 30
83 109 17
162 76 138
201 193 75
162 11 175
158 102 84
125 106 112
153 88 153
119 202 245
88 73 16
189 96 28
29 237 103
84 46 244
204 153 63
141 74 110
192 185 35
210 108 198
63 234 56
109 130 228
45 248 51
160 248 88
188 45 193
26 205 159
240 1 69
144 97 107
108 94 245
52 168 239
165 87 171
120 31 169
246 196 57
69 181 26
142 204 227
15 118 127
32 71 150
251 178 69
195 70 125
104 188 18
88 220 237
166 144 248
204 55 10
59 114 139
54 203 137
58 231 164
36 117 7
19 116 1
5 114 208
66 160 240
117 165 200
100 143 225
78 106 3
163 145 143
221 47 240
149 206 30
178 155 223
36 238 248
78 222 79
197 15 100
219 39 232
252 9 97
158 18 173
38 59 136
37 212 158
102 106 237
250 134 145
25 64 210
155 203 233
111 183 189
157 114 18
88 108 55
132 240 227
64 167 247
223 5 87
86 173 196
68 152 177
163 5 79
181 126 44
255 135 108
40 58 171
135 162 201
121 21 173
5 62 119
52 13 210
30 204 36
169 145 118
155 228 155
172 199 174
128 255 144
224 39 115
136 222 178
25 38 187
254 46 174
216 217 227
55 61 107
167 13 69
217 252 155
11 1 213
98 160 209
89 222 205
217 126 226
159 203 95
199 151 251
186 154 29
224 78 20
255 126 202
126 19 14
103 109 105
201 166 160
140 93 222
194 36 124
103 183 22
116 95 129
175 105 119
161 88 39
207 11 200
4 243 240
84 122 155
48 55 100
105 147 15
65 243 80
208 106 168
142 48 78
168 23 6
52 222 229
94 129 112
217 107 219
249 154 63
255 130 48
204 228 41
244 117 114
101 203 76
113 77 228
53 143 221
68 55 144
226 56 146
58 15 177
65 109 137
229 166 79
83 117 208
5 39 186
173 0 48
218 188 192
117 154 224
157 91 114
102 253 100
93 150 231
2 120 209
141 181 165
54 100 81
13 249 240
236 4 20
152 138 145
105 105 158
237 146 115
66 45 74
132 110 235
118 237 147
134 197 236
235 255 235
116 14 120
161 69 22
54 246 20
44 248 107
216 202 243
82 49 39
91 99 154
17 87 146
252 204 130
125 205 144
36 89 63
207 250 176
117 121 83
18 137 46
230 132 102
29 243 174
253 135 226
250 156 217
238 101 16
42 74 63
86 207 215
30 201 221
219 242 205
84 183 40
54 191 9
227 202 227
192 178 147
44 127 247
156 253 67
169 108 219
127 216 13
119 252 133
95 244 147
70 220 151
68 115 251
40 204 74
143 55 250
231 160 188
56 161 123
204 212 139
224 67 56
248 182 157
253 59 156
228 70 165
249 36 117
195 142 94
171 231 154
172 107 237
154 126 215
15 101 194
178 77 81
248 154 4
183 173 9
6 70 27
69 19 227
246 108 249
107 96 128
110 63 88
20 247 41
103 173 53
70 2 50
39 227 239
46 216 196
13 192 190
124 144 36
96 115 33
198 125 233
183 22 139
238 184 215
57 106 166
44 14 121
163 110 78
76 104 146
162 91 76
46 126 13
171 79 153
188 1 194
72 246 124
179 117 29
48 30 217
215 161 188
82 7 226
145 93 221
204 63 166
252 121 157
234 185 36
181 27 49
180 191 201
42 180 5
160 178 55
142 235 157
229 190 242
141 107 211
160 87 121
41 92 149
251 226 126
65 197 156
253 9 29
53 166 23
62 97 4
104 204 73
118 240 206
33 62 155
13 137 196
117 106 149
47 235 221
64 187 203
98 175 73
228 247 81
194 45 95
207 94 105
1 233 148
255 117 2
102 247 189
162 169 126
17 112 21
208 18 174
35 50 155
126 74 54
145 119 42
15 168 18
208 147 142
91 185 129
154 60 83
203 84 103
128 205 233
97 203 231
154 170 139
88 137 79
146 192 192
213 47 237
210 25 188
199 77 246
18 72 61
228 133 163
97 115 212
24 204 198
219 172 63
97 213 240
90 207 94
72 191 136
79 3 156
122 223 65
21 71 13
134 206 187
180 63 171
177 53 33
136 230 25
95 128 232
41 222 197
147 46 126
123 13 221
185 62 172
35 150 85
38 80 56
30 164 172
59 43 88
188 147 51
239 180 60
243 98 196
46 16 19
177 157 91
8 30 95
32 135 1
57 106 247
15 51 245
205 180 236
54 77 56
39 44 132
140 234 67
96 205 23
141 135 124
50 139 242
84 188 48
234 28 56
140 145 122
27 94 234
108 174 177
6 186 133
77 71 16
247 147 39
18 1 170
84 149 19
113 205 24
55 247 12
136 107 44
161 134 36
108 51 46
177 227 233
94 244 148
203 147 77
139 52 198
213 72 91
188 203 94
10 212 130
212 204 86
202 152 46
119 161 49
34 174 254
126 143 216
25 141 174
226 21 38
245 215 72
133 109 105
246 209 239
104 248 61
16 43 91
23 91 34
127 133 146
248 228 157
16 7 154
32 67 58
42 95 223
148 191 9
14 242 215
147 227 41
77 38 222
132 135 247
86 100 37
241 68 128
160 85 230
90 11 50
85 109 134
23 50 86
228 152 224
238 145 143
68 27 170
93 108 125
95 229 249
37 34 48
69 204 240
71 215 35
157 5 22
39 37 78
97 76 12
55 16 47
155 140 248
238 106 56
255 220 98
4 49 187
112 130 154
230 2 4
134 223 212
7 96 180
100 98 187
77 218 235
109 249 101
225 111 218
15 112 166
161 219 178
152 88 94
61 223 196
117 216 207
137 183 167
106 212 43
197 60 216
25 195 137
26 168 216
39 65 196
87 0 82
199 232 131
7 226 132
227 241 80
198 200 110
187 140 199
118 127 185
5 172 208
133 51 98
244 122 81
116 52 32
198 238 98
140 151 134
94 31 55
41 75 121
55 124 20
159 118 201
176 6 219
12 50 153
244 16 131
82 56 1
251 205 124
202 184 204
86 243 107
31 90 141
232 245 243
27 157 82
227 63 208
23 207 75
63 235 108
230 151 26
181 76 199
153 81 220
249 18 218
62 58 220
123 115 27
99 95 60
219 53 112
8 155 115
166 209 163
9 98 133
170 143 0
52 80 60
232 228 18
43 165 46
244 27 167
239 214 215
243 2 134
3 7 46
46 51 160
176 124 28
168 248 125
107 40 51
113 234 64
1 40 129
209 80 8
136 250 241
108 188 128
234 221 167
182 152 238
140 99 52
38 65 254
249 199 92
220 159 128
92 156 131
86 136 39
249 148 232
136 173 124
191 35 137
14 99 165
96 235 229
217 44 40
156 75 182
20 143 132
189 151 16
182 3 43
76 72 255
244 230 8
196 105 201
2 26 222
65 11 152
13 161 55
245 140 6
207 120 237
199 68 127
127 38 174
99 53 72
201 15 102
89 219 165
233 75 145
57 34 255
240 240 120
209 78 151
113 132 241
199 102 191
112 100 114
88 157 11
102 37 255
51 87 156
205 80 25
122 113 164
91 245 155
225 19 62
19 114 92
248 15 209
203 251 25
130 160 64
167 181 180
73 222 229
218 144 106
192 68 179
25 96 162
88 50 251
33 125 216
88 67 94
45 156 27
167 152 153
115 14 252
215 117 121
226 26 220
38 249 57
205 34 249
102 38 196
105 174 12
194 139 119
83 224 207
54 87 20
47 248 91
107 178 67
223 246 163
202 68 85
218 208 98
232 33 189
112 39 200
95 76 5
245 41 2
239 59 99
14 21 154
96 223 159
227 174 71
215 157 212
62 212 176
154 255 22
208 184 159
155 141 160
196 18 99
150 83 244
116 58 182
115 166 62
59 87 59
63 165 115
16 109 68
95 188 50
238 202 64
221 215 197
255 158 65
113 192 45
48 111 232
229 224 47
212 209 150
232 105 91
90 215 72
67 46 2
181 172 60
50 220 180
91 225 220
94 117 236
178 90 35
69 242 91
8 22 249
52 187 174
72 253 86
107 254 246
17 44 128
52 138 66
21 192 236
2 217 0
106 57 192
242 45 140
13 213 57
216 111 199
102 73 57
181 200 86
253 74 194
64 230 209
138 130 167
81 45 2
191 30 111
140 132 174
168 252 48
221 46 45
77 232 249
140 244 38
3 101 82
53 196 123
9 79 122
164 11 184
182 216 56
216 73 30
218 27 84
161 223 118
37 81 175
247 71 186
144 191 131
202 119 139
73 32 32
164 154 197
125 110 98
230 135 125
88 2 94
88 184 31
245 249 143
14 159 246
141 185 180
153 10 66
248 161 62
100 220 25
172 121 12
141 249 215
211 191 165
222 137 27
221 52 99
104 98 191
14 210 162
101 119 2
192 5 150
68 212 196
79 9 84
70 206 51
122 213 240
71 76 18
67 179 216
96 193 60
18 88 187
174 116 205
19 62 198
21 202 246
169 208 35
138 255 139
121 121 45
191 214 142
15 104 148
43 118 87
71 105 208
124 239 228
123 133 35
185 146 234
98 214 83
161 237 137
130 38 43
225 188 100
57 38 110
163 68 229
8 97 59
0 6 99
241 249 25
222 43 77
152 103 20
133 106 194
207 159 223
22 146 196
203 78 4
104 18 161
118 247 150
14 75 241
192 31 211
233 238 249
58 121 22
250 62 243
204 164 210
121 152 215
109 221 233
59 157 67
234 189 50
203 220 97
167 167 13
88 135 7
65 115 181
157 24 229
52 40 242
182 230 143
253 172 170
99 44 7
249 118 60
104 37 250
90 230 83
215 24 148
141 157 9
166 241 253
177 99 87
104 94 236
249 66 191
236 242 134
50 102 78
135 10 62
193 147 167
147 238 50
105 87 143
219 190 21
199 85 149
172 7 168
247 133 100
25 214 161
187 146 187
23 46 73
245 127 158
148 147 47
43 76 115
86 36 62
229 71 166
156 36 72
152 37 209
45 123 137
216 238 195
36 103 161
17 65 180
164 49 249
55 3 180
207 234 74
109 31 22
221 99 152
109 67 232
103 249 43
161 177 82
210 82 108
158 189 215
185 115 52
183 225 133
23 249 0
56 240 231
65 161 102
12 135 43
192 234 205
232 202 74
126 100 219
244 23 75
237 165 38
49 146 95
79 82 39
18 235 22
78 152 7
70 20 252
227 206 140
90 105 104
34 112 224
174 145 135
49 185 153
33 13 18
240 152 192
87 222 229
105 96 206
247 19 107
194 165 196
188 70 67
15 63 132
11 54 251
190 227 3
19 137 205
141 213 83
59 188 146
53 118 215
233 69 4
77 215 84
208 63 203
75 239 39
51 137 57
75 85 199
13 117 33
3 181 81
79 57 0
12 28 131
187 227 109
28 42 230
70 160 51
89 234 133
14 102 131
93 230 92
96 29 193
49 149 210
114 167 60
17 231 81
27 7 252
252 246 171
186 194 71
233 241 19
156 5 134
224 253 220
120 214 2
82 162 38
207 86 214
250 141 128
254 216 81
142 51 169
110 156 3
57 25 70
216 34 130
157 141 90
25 77 175
21 5 22
43 254 124
208 247 135
87 100 192
62 5 152
75 59 115
223 38 145
136 122 47
219 60 45
151 243 174
226 169 123
28 162 159
222 2 192
180 147 214
158 32 164
163 90 166
136 104 47
223 190 96
91 241 108
212 21 232
17 7 226
66 40 205
73 208 106
244 154 24
198 88 138
100 255 208
33 38 91
174 130 65
232 203 237
62 142 117
45 72 219
46 242 244
176 93 84
235 146 58
116 225 169
118 2 77
29 25 138
205 47 124
108 138 12
145 47 248
45 61 69
34 229 229
98 21 183
130 192 160
69 49 123
251 19 237
216 217 71
133 50 218
188 195 14
180 212 5
13 141 104
208 208 48
160 13 217
179 226 108
244 47 187
175 25 167
190 8 162
4 57 217
211 67 50
229 139 218
237 119 14
7 81 85
63 200 255
166 32 233
26 145 146
227 122 204
236 151 81
195 174 86
217 96 78
15 178 234
243 194 181
82 50 51
207 228 53
125 153 123
223 214 222
178 218 116
146 242 196
146 146 247
12 181 67
57 227 253
242 126 209
255 125 180
87 12 29
115 3 44
150 174 5
66 85 8
194 103 115
104 209 132
83 205 200
33 155 242
240 120 222
48 244 198
45 123 101
237 99 164
32 93 9
161 8 80
127 8 212
227 125 49
212 75 144
229 70 218
77 186 74
112 67 239
98 198 194
74 81 46
214 4 132
194 248 190
36 146 238
137 6 112
105 12 234
69 219 225
89 61 32
109 138 219
121 8 85
33 96 162
36 72 159
156 250 167
110 154 46
8 74 255
167 184 56
125 175 47
20 219 38
124 151 135
86 59 222
95 88 212
227 194 87
88 200 107
226 34 168
8 238 125
48 2 252
202 84 1
221 123 244
97 143 84
116 65 73
67 210 244
196 254 118
110 169 45
132 199 1
193 44 210
176 114 11
68 162 18
103 62 110
212 124 155
237 245 41
67 58 174
115 79 200
91 19 1
21 248 19
246 191 170
92 64 156
31 23 109
155 94 70
9 207 237
158 239 168
23 179 59
109 201 249
87 182 220
132 63 3
57 25 209
238 235 134
12 92 138
195 83 46
21 94 53
138 111 26
163 163 154
3 11 109
211 252 110
180 201 142
9 132 103
209 97 225
109 222 94
149 170 110
226 154 176
139 53 115
139 0 170
215 179 10
208 245 64
98 212 165
150 245 51
93 241 34
110 125 152
162 11 81
152 198 77
242 114 158
27 152 226
240 63 179
194 251 187
191 128 212
198 246 115
106 158 101
153 197 168
123 118 74
66 248 54
143 165 161
235 10 208
179 214 229
110 216 127
98 123 207
227 160 215
254 53 255
91 129 84
50 144 87
160 237 39
251 174 130
75 246 53
112 180 128
35 20 81
86 197 254
237 127 130
157 188 168
79 232 185
241 60 240
49 2 120
230 76 99
169 57 67
101 163 180
218 173 13
87 234 85
1 104 51
40 169 185
126 61 77
193 223 209
99 171 255
125 169 17
250 157 39
45 168 97
50 68 57
61 134 22
20 201 63
68 236 102
4 130 14
235 198 16
160 153 3
123 53 42
19 4 186
253 238 3
14 87 230
78 201 22
127 67 21
33 162 202
102 105 135
174 98 200
136 77 215
181 46 179
130 169 170
179 134 217
225 192 127
237 131 4
23 235 183
127 46 221
50 0 124
250 147 150
70 16 59
156 143 30
142 58 117
54 39 58
153 4 110
17 169 188
152 71 187
34 118 208
192 217 99
139 47 166
62 129 92
115 175 206
231 113 226
248 16 59
38 96 133
196 214 27
254 175 190
173 169 26
231 21 251
175 99 200
36 149 16
193 173 1
6 204 162
226 152 143
232 17 160
245 88 234
234 243 167
222 147 153
137 45 124
33 30 233
140 229 70
90 167 34
49 10 165
211 96 100
92 168 97
142 59 183
54 114 147
62 77 231
245 172 107
152 65 3
248 228 241
237 13 241
117 17 78
206 255 77
249 230 106
168 152 227
10 87 60
78 117 90
202 211 110
33 74 211
174 150 45
177 99 127
165 145 179
81 152 13
46 240 27
209 117 161
59 56 253
80 110 125
143 160 175
193 190 199
1 85 216
105 153 175
92 3 194
115 112 242
133 145 111
94 168 244
153 1 138
93 140 132
148 145 133
141 192 150
243 181 64
93 221 131
205 221 130
28 160 213
57 217 25
119 208 50
121 159 230
231 108 250
126 189 167
68 180 230
90 26 130
157 50 115
226 166 194
65 197 212
38 34 225
199 19 227
170 210 214
11 121 76
245 116 221
107 151 128
122 134 82
137 131 222
224 62 223
175 96 187
4 162 152
31 21 84
62 74 103
193 164 44
171 154 91
148 253 229
193 178 155
18 36 175
69 55 5
83 205 143
213 101 155
90 231 247
118 133 196
203 77 217
180 198 59
92 179 197
238 241 145
167 36 181
250 170 187
8 102 196
246 104 18
33 187 137
96 145 63
156 80 11
181 53 80
152 182 250
251 185 210
237 1 11
27 219 222
10 172 32
15 181 9
249 85 94
232 120 176
238 67 81
86 31 15
154 236 66
167 57 251
44 138 236
214 51 31
244 23 116
110 140 49
89 237 57
218 196 208
203 169 71
182 184 200
44 232 127
59 51 250
112 99 59
243 62 231
111 100 40
150 75 14
105 149 216
77 171 183
198 234 252
170 127 236
246 125 22
255 72 183
39 177 116
205 135 232
132 204 8
203 151 52
200 126 208
245 204 9
91 58 71
188 9 98
177 142 215
103 44 124
111 220 109
70 132 147
69 236 158
109 212 237
194 209 118
116 114 246
254 8 55
90 133 222
17 61 27
35 220 193
211 208 56
162 67 16
2 136 125
143 233 255
186 38 173
154 103 95
143 225 59
113 64 253
178 7 60
106 49 105
211 80 95
129 152 222
16 149 121
47 122 99
102 124 114
96 49 13
108 143 206
18 111 146
216 30 82
62 187 90
174 89 218
72 199 19
99 24 146
134 121 76
191 88 62
41 160 35
72 60 21
46 50 129
173 85 34
164 191 1
64 226 161
232 253 141
3 5 9
34 87 123
211 22 191
226 192 137
250 16 34
122 56 31
216 64 207
21 88 216
41 10 100
33 171 215
238 0 101
197 193 107
117 48 113
170 7 141
217 142 120
201 132 83
45 253 217
184 110 70
134 176 114
198 39 177
143 8 51
5 157 105
231 252 187
240 213 26
4 37 6
174 217 13
118 61 121
141 3 185
220 71 192
152 64 166
58 157 1
216 121 217
2 245 42
251 57 30
142 151 253
195 142 106
151 103 184
126 212 224
6 115 54
107 250 252
92 54 58
210 158 138
180 251 106
237 70 182
59 60 39
108 41 187
143 120 74
116 108 2
180 141 19
20 183 197
228 204 150
173 67 71
156 1 106
41 231 187
131 189 70
163 212 236
196 16 34
172 224 176
162 113 150
243 237 20
180 110 129
5 226 81
249 31 20
211 61 101
218 70 138
48 163 122
20 76 201
193 146 11
139 33 146
13 73 37
68 185 119
89 127 86
213 239 19
70 119 254
90 158 27
124 89 227
11 97 220
229 57 22
128 155 47
98 123 50
90 50 53
159 161 180
52 1 95
154 177 49
29 162 13
94 55 23
185 8 142
161 117 65
31 164 215
2 129 14
145 45 34
142 169 45
196 141 236
55 10 161
84 209 232
176 239 91
165 99 126
176 186 233
1 157 208
109 176 228
184 246 78
141 197 103
208 138 29
207 137 250
223 95 159
95 251 60
164 91 41
92 182 112
77 149 234
178 155 5
137 192 114
18 217 89
183 247 75
240 100 99
162 227 187
178 58 64
74 15 160
222 103 184
120 113 186
45 136 124
70 59 77
156 73 230
160 72 65
127 126 60
206 230 117
6 132 48
85 81 210
0 149 249
153 205 244
168 130 34
37 150 41
58 95 17
160 168 98
204 181 71
82 69 158
130 229 78
1 68 89
175 118 37
116 23 50
99 0 68
55 52 31
109 70 19
176 128 52
45 20 174
92 163 180
37 142 164
167 74 70
205 100 40
38 176 247
93 94 55
163 222 241
5 153 102
244 149 124
145 201 4
122 1 47
163 13 227
7 96 106
163 236 59
85 189 53
143 241 179
77 133 187
136 87 5
207 195 91
9 61 93
33 225 46
101 137 185
182 208 108
64 121 116
245 180 192
13 121 13
4 165 74
37 154 11
66 212 27
96 109 73
130 241 211
29 245 82
65 39 124
243 200 154
166 33 16
219 97 252
223 207 36
238 95 56
2 56 70
0 245 156
34 158 81
241 52 114
184 217 167
26 123 247
182 80 11
79 67 21
63 75 168
43 30 79
109 188 5
228 200 59
214 37 86
86 138 162
169 195 66
4 16 156
71 25 191
21 250 159
52 194 132
236 227 183
37 255 209
184 154 253
103 215 53
137 51 165
213 225 203
172 19 104
66 245 54
60 236 89
106 2 37
134 192 43
41 111 161
38 193 130
204 187 45
217 17 210
157 192 191
26 221 112
108 171 244
137 73 226
3 221 60
61 3 44
72 126 67
174 178 33
239 181 101
212 250 90
144 111 212
172 55 104
245 179 224
234 41 215
169 5 69
179 234 87
241 21 16
102 75 231
180 160 186
8 150 66
173 168 229
146 178 60
56 222 44
221 92 49
7 187 22
41 57 126
28 65 16
156 144 95
216 196 32
20 185 125
201 210 196
202 212 105
176 88 172
81 103 179
245 142 22
205 179 191
124 217 73
90 87 206
142 206 174
97 232 218
191 216 205
121 76 77
213 98 21
120 51 130
218 26 143
140 187 181
209 180 246
67 245 115
43 155 71
97 92 217
53 14 83
139 12 57
228 201 225
175 218 6
31 52 224
178 16 25
186 197 168
240 224 151
71 229 95
143 165 113
39 19 195
196 169 9
121 40 4
49 63 204
121 63 159
207 62 244
250 82 237
70 202 76
248 36 165
61 171 58
162 175 212
232 153 174
152 235 21
148 89 31
78 213 66
56 34 135
254 89 79
208 30 162
111 236 179
142 208 222
133 182 85
101 64 151
82 12 179
169 17 239
199 89 241
188 196 89
32 64 181
11 130 173
171 99 204
65 34 244
137 162 32
14 205 74
104 254 60
10 105 136
186 243 166
30 253 245
2 22 48
63 5 101
226 141 68
193 217 26
181 175 209
215 163 78
27 126 141
142 51 74
222 120 210
211 77 169
1 229 251
108 130 56
233 176 250
176 202 36
180 242 100
90 195 162
231 69 7
83 110 108
154 111 65
106 252 17
230 246 81
158 63 113
88 92 209
99 68 202
11 81 242
245 69 108
67 156 51
192 243 253
207 131 74
114 163 205
116 219 82
177 35 7
123 32 138
33 225 123
112 159 59
174 219 49
72 160 181
26 231 147
130 93 178
231 218 62
63 74 145
32 175 196
100 103 192
254 16 182
24 170 174
36 109 40
24 239 156
20 60 41
118 151 56
229 26 53
226 12 242
118 220 104
226 1 218
172 18 173
11 229 63
59 131 13
67 194 248
124 197 82
221 145 212
5 179 241
233 7 147
129 204 58
160 61 175
218 66 73
129 126 70
90 225 2
250 231 105
179 52 70
50 28 45
162 174 16
184 124 195
122 49 186
209 30 174
26 19 255
114 85 159
213 202 229
39 5 195
98 205 115
57 24 112
71 30 204
99 141 226
225 230 222
227 196 231
116 241 209
6 11 93
25 197 126
19 108 200
73 52 255
28 144 175
36 9 160
250 18 84
119 186 216
101 170 114
51 197 8
66 157 106
218 138 31
139 189 113
178 95 78
10 164 154
132 185 125
53 3 128
160 250 18
184 251 213
41 108 59
146 46 139
43 36 117
210 134 138
124 247 175
197 134 33
1 188 245
118 15 46
178 207 32
240 101 244
39 117 87
146 92 162
188 44 221
196 146 50
196 176 27
246 232 144
18 9 183
131 179 172
6 27 75
171 142 185
61 163 222
112 234 116
138 72 129
22 144 140
188 132 119
171 196 23
89 136 167
50 92 227
25 206 25
6 36 6
66 50 127
33 77 97
210 127 82
50 35 77
208 81 144
8 87 17
179 249 84
246 248 131
170 247 104
0 114 38
246 224 181
28 167 96
228 78 216
244 76 81
7 39 92
214 25 130
147 109 45
204 84 179
110 152 11
118 163 109
114 45 92
249 117 73
16 24 246
102 38 133
216 96 156
28 158 80
127 50 172
153 83 237
70 109 144
127 232 124
36 243 153
125 90 149
125 1 128
194 237 188
153 97 173
81 201 195
37 170 97
230 170 216
169 130 223
128 241 245
176 55 199
102 17 51
9 26 207
88 38 211
130 112 48
29 197 23
146 69 99
187 237 194
148 249 28
63 172 87
255 180 247
115 200 144
38 199 235
83 41 168
119 149 20
121 75 88
57 128 126
37 175 152
221 165 111
2 193 237
114 28 0
19 230 23
219 231 20
97 126 121
95 170 76
23 228 222
101 154 190
112 197 182
107 10 115
148 237 181
244 207 14
92 185 145
154 235 76
216 175 179
138 227 57
236 149 164
132 156 14
161 43 49
120 132 118
21 130 7
9 250 197
163 41 19
236 100 166
180 98 21
148 76 210
138 243 122
239 6 224
67 104 35
196 244 14
224 31 115
212 2 185
97 29 26
216 105 153
175 95 33
147 88 6
212 225 183
163 214 103
146 114 204
142 112 188
96 89 155
15 187 132
34 105 44
48 198 71
220 31 161
100 121 118
130 154 211
13 105 226
11 105 93
60 10 155
139 234 254
135 100 57
46 151 175
190 33 37
204 84 73
95 12 101
161 76 59
47 56 219
211 129 92
50 252 68
97 50 70
233 232 110
178 7 70
72 185 220
202 235 126
96 246 215
219 254 105
35 124 106
12 187 115
37 236 230
48 214 217
102 120 46
232 12 43
171 123 5
234 126 194
73 21 167
91 215 183
148 31 134
234 8 79
218 148 35
38 111 186
209 12 59
161 153 57
228 184 36
152 173 193
168 140 132
8 247 115
190 120 57
195 107 228
217 39 72
109 120 114
140 129 213
127 197 38
27 112 159
5 47 112
16 82 168
49 181 125
18 4 134
17 56 169
160 252 224
231 229 1
150 98 215
6 204 32
28 25 49
154 38 91
195 251 16
20 161 27
171 39 35
40 0 26
226 184 195
162 184 66
202 116 18
40 16 7
228 11 143
192 113 200
120 159 155
22 140 17
243 90 71
176 173 72
18 198 149
134 15 78
213 9 104
148 198 137
157 55 96
202 72 7
55 186 143
224 118 175
213 108 64
50 166 172
150 91 236
51 179 203
231 176 223
56 247 75
37 56 29
133 219 99
6 94 214
84 65 250
188 219 40
153 86 252
244 105 115
137 237 117
148 72 55
48 15 103
183 36 146
226 36 205
138 218 112
255 20 53
33 41 213
45 112 172
45 240 198
250 222 146
203 116 28
84 108 185
89 186 88
82 28 157
96 75 73
132 187 164
14 195 73
240 73 175
166 223 57
69 185 238
149 219 224
101 127 114
57 141 249
118 252 20
42 165 226
150 224 186
107 28 220
235 205 103
25 30 97
39 129 150
47 18 82
54 71 204
20 240 6
124 243 10
28 9 176
97 208 141
75 219 25
85 37 42
59 104 207
157 233 117
199 107 252
31 158 88
105 182 207
254 75 239
160 244 140
133 62 232
20 208 229
166 163 68
38 78 72
184 76 155
56 56 138
73 89 158
48 86 34
43 32 11
43 105 22
63 241 218
186 114 27
156 232 40
234 120 29
205 103 202
62 208 6
75 181 46
35 163 62
52 176 172
127 188 43
125 67 84
234 74 98
109 126 156
173 233 144
116 108 3
55 217 225
206 3 167
177 70 54
79 97 26
205 145 64
70 33 176
20 42 22
112 156 238
156 173 233
102 1 179
157 138 173
227 15 94
179 11 91
41 67 186
19 27 91
79 201 73
59 13 242
131 46 93
11 74 128
141 162 17
164 89 181
16 224 178
219 244 38
15 150 210
132 234 186
174 18 180
253 127 93
15 123 255
174 128 191
123 4 117
254 100 28
143 238 2
54 122 175
78 180 137
45 255 138
136 130 20
156 76 242
226 160 224
59 170 200
158 207 156
96 236 166
21 60 243
106 45 2
132 224 15
69 175 68
143 193 93
247 160 111
209 90 60
84 245 221
29 203 160
3 156 197
71 34 47
198 6 186
173 31 45
135 189 131
97 252 195
100 216 56
33 30 66
81 82 188
35 33 24
106 186 49
123 71 42
151 181 234
65 233 203
132 5 91
29 248 69
52 41 128
112 47 207
252 67 225
197 233 127
96 103 127
247 224 223
236 1 60
74 28 151
7 144 236
91 232 33
100 72 89
206 93 102
42 147 157
74 127 127
94 54 118
2 209 131
184 117 58
183 182 5
128 83 171
101 47 142
8 1 235
55 137 173
237 45 83
251 239 9
40 71 214
122 181 195
121 217 119
224 47 138
57 27 254
158 31 143
7 178 33
16 41 78
120 245 240
199 182 128
112 18 97
27 114 75
92 135 168
84 151 2
96 171 72
73 239 101
160 177 122
91 51 181
27 161 200
135 211 243
63 126 140
35 194 199
24 15 110
74 92 39
220 142 242
151 53 125
156 223 193
18 98 13
242 97 5
200 206 112
103 174 189
171 176 105
82 234 62
9 254 125
137 229 228
171 156 229
25 208 228
177 187 247
239 245 37
95 10 37
147 217 97
210 234 140
95 79 201
11 217 70
31 179 19
185 124 184
5 191 56
75 23 25
230 44 19
155 173 189
86 24 145
3 168 201
17 88 171
191 165 105
199 43 231
61 53 252
216 7 197
77 221 14
42 207 239
213 250 241
81 54 80
73 33 33
23 100 180
11 156 233
236 117 241
240 139 172
85 204 158
30 54 241
156 200 150
254 126 168
100 16 232
33 14 148
244 246 215
201 106 131
218 0 185
178 113 175
247 158 0
245 184 203
25 18 5
254 96 78
1 112 235
9 41 235
17 138 226
77 148 13
4 67 244
229 46 100
26 84 57
187 139 104
112 22 100
56 193 138
57 129 38
183 27 138
155 57 123
10 102 116
34 142 188
19 122 92
134 66 88
102 37 178
69 158 145
1 130 82
37 230 139
237 96 173
185 10 220
71 59 180
176 137 71
97 234 129
68 255 53
7 193 15
153 81 246
210 137 95
168 46 56
128 138 115
142 55 40
190 76 63
170 110 71
84 125 136
20 69 11
102 180 167
108 232 233
133 246 114
16 21 34
12 124 207
233 95 195
208 59 19
102 89 119
171 220 123
241 28 233
196 42 164
80 53 184
225 55 68
176 6 218
183 188 5
94 119 46
106 89 252
24 246 170
208 41 124
240 43 159
169 233 91
209 25 149
242 212 80
41 253 90
182 101 135
55 171 77
87 208 228
152 21 30
140 55 85
63 240 148
19 163 165
151 175 50
110 84 13
21 30 21
250 234 106
115 70 64
116 178 124
157 215 211
160 123 255
79 228 60
161 34 110
84 64 219
109 163 79
11 127 100
236 1 64
65 7 174
190 76 56
180 11 80
205 53 209
26 201 134
26 210 212
57 215 190
128 213 62
11 185 43
6 41 197
85 11 34
214 216 251
181 181 42
54 157 172
140 95 41
225 142 46
17 28 173
105 83 22
251 95 56
2 102 131
212 85 190
200 101 46
94 127 195
204 255 135
25 15 138
252 183 87
188 202 172
222 105 203
75 201 237
253 86 76
161 175 75
239 194 11
160 254 78
38 201 148
6 176 234
209 85 185
127 169 215
169 45 37
187 231 62
111 98 123
43 214 216
116 146 140
82 38 180
145 4 143
179 44 11
43 18 19
111 195 177
116 19 219
50 173 33
162 44 151
146 16 84
98 209 87
40 23 144
234 100 36
82 162 99
122 150 219
114 210 122
96 223 170
187 49 131
215 128 97
76 122 145
184 238 181
64 133 156
41 138 85
186 10 55
170 191 31
128 254 192
206 55 201
145 172 40
173 205 68
250 150 55
166 69 132
152 81 21
30 193 192
168 98 151
86 149 15
79 94 155
194 151 212
27 167 3
246 38 120
218 83 157
35 233 137
136 166 36
1 2 102
84 195 211
155 155 24
54 79 39
55 45 170
244 87 202
165 115 89
168 10 22
41 204 182
245 27 244
97 43 195
63 56 186
230 215 224
59 94 190
120 149 247
209 215 3
179 28 240
108 244 96
196 122 172
202 111 4
243 208 75
34 125 47
114 55 217
52 97 149
104 97 28
106 132 143
198 225 228
231 11 54
100 104 205
64 147 111
204 192 21
213 110 240
249 36 203
133 180 202
222 125 95
232 185 210
169 228 45
154 209 56
145 108 119
25 207 30
131 252 174
66 52 66
101 134 215
151 125 210
59 179 59
163 1 94
253 43 230
48 168 58
192 232 131
96 203 58
148 43 153
82 20 228
166 86 42
97 180 191
159 187 23
54 80 48
51 232 111
97 226 30
60 15 3
248 151 134
238 72 194
129 70 23
254 218 115
127 160 130
33 226 121
164 164 109
51 190 67
153 155 176
94 233 223
6 23 136
67 250 91
96 154 142
139 79 253
101 137 192
178 87 135
186 132 247
111 247 143
112 6 4
110 130 58
250 235 10
215 0 205
112 220 47
84 11 23
161 64 71
93 253 188
182 157 96
23 103 98
36 124 255
32 11 11
132 158 163
72 61 202
30 93 102
234 165 250
31 125 69
235 120 42
28 50 67
139 214 171
64 84 14
224 242 139
183 224 168
94 162 135
52 56 166
87 17 131
7 48 150
169 81 117
48 142 90
239 135 232
197 55 43
150 62 49
100 154 144
195 231 149
8 216 35
20 36 162
211 235 66
158 40 47
30 226 223
156 42 130
207 158 69
218 165 201
15 227 250
6 77 53
105 14 29
187 190 159
58 142 153
33 129 202
64 181 39
123 228 44
207 225 215
54 117 214
63 240 97
160 100 234
77 114 127
30 89 123
171 62 80
179 135 18
184 184 168
58 225 217
85 165 194
241 233 135
8 225 61
212 124 182
144 215 210
161 208 120
68 173 247
2 0 128
134 5 30
99 179 180
151 50 196
221 169 42
69 118 62
229 111 159
74 42 28
255 21 202
13 10 76
251 114 206
30 251 50
0 188 197
94 112 237
254 50 220
100 207 71
50 153 106
121 63 41
252 105 107
33 152 164
163 3 41
7 217 50
118 224 3
12 5 134
232 6 48
111 115 229
194 85 181
237 1 184
72 220 137
11 4 233
143 116 33
20 3 51
20 162 81
133 213 181
102 99 87
8 106 91
223 207 22
2 38 212
7 5 206
117 208 57
58 121 224
150 25 235
250 162 85
135 13 2
168 234 141
98 55 121
191 159 125
255 20 111
114 2 184
96 31 41
180 10 250
54 45 113
70 209 178
207 71 33
144 250 83
179 121 248
160 34 27
49 251 29
62 99 92
216 219 180
17 78 48
48 15 194
16 22 77
151 234 236
219 98 71
85 222 106
141 238 179
214 244 12
93 143 100
167 40 101
208 133 167
161 51 18
47 137 211
122 155 254
9 13 212
112 212 87
159 27 105
190 147 106
18 53 95
50 168 160
250 114 20
254 90 214
158 6 33
147 254 21
45 249 247
176 78 182
112 73 57
79 251 76
33 185 0
36 157 75
46 43 11
48 55 40
115 149 150
146 247 113
10 246 34
36 66 222
118 216 214
132 142 107
65 227 18
204 65 170
108 214 162
125 17 31
120 21 33
222 51 131
122 21 200
50 58 251
252 135 196
100 169 147
246 96 125
38 252 129
126 99 204
182 155 33
6 239 238
187 94 185
135 122 83
176 94 160
151 134 60
88 218 63
243 196 245
28 176 153
150 224 60
72 54 252
211 3 128
80 195 121
192 151 70
117 172 59
227 115 46
189 216 76
224 228 116
99 129 231
204 96 36
137 24 160
91 221 89
204 167 141
5 30 41
252 236 178
210 193 92
137 250 122
195 218 117
6 243 211
56 39 217
80 199 227
150 167 143
175 31 5
230 95 177
216 114 159
38 151 41
36 243 232
209 35 73
63 25 115
31 249 220
90 207 198
0 226 184
43 77 209
53 181 158
116 124 40
192 14 174
194 212 252
12 97 136
21 183 224
106 186 225
185 160 194
173 39 28
43 167 151
53 57 100
44 11 59
213 43 2
124 7 201
232 197 43
162 42 30
97 218 193
95 48 49
234 10 231
157 212 44
24 195 88
119 211 187
48 250 33
247 26 225
239 183 53
63 249 188
253 176 226
201 154 108
205 161 221
229 76 24
97 67 151
225 104 228
90 79 104
59 46 24
143 83 164
5 229 129
5 204 202
124 68 75
239 92 114
72 220 3
247 115 188
184 203 198
78 178 133
102 232 23
227 31 229
190 157 228
121 15 194
12 126 206
98 69 35
201 246 82
106 191 169
142 125 9
211 84 163
162 166 12
249 178 234
91 38 110
133 134 191
183 247 41
180 142 134
183 12 133
60 69 187
82 117 30
74 188 106
201 70 252
114 228 170
220 6 90
226 149 175
214 196 176
181 130 42
92 255 179
33 147 144
87 145 101
67 216 211
170 19 228
93 193 132
147 147 43
213 126 211
53 8 244
109 58 248
11 123 242
170 204 14
39 254 119
143 247 17
123 141 54
217 116 19
44 29 47
105 38 57
132 79 128
152 134 11
62 228 198
95 227 159
19 41 200
116 207 95
5 122 228
2 36 26
22 199 250
190 37 139
47 61 218
171 166 31
124 16 134
137 237 222
55 160 178
193 196 231
169 253 211
210 165 107
229 50 205
149 117 224
128 232 86
226 192 75
176 177 188
205 212 201
119 195 104
53 155 119
116 8 134
91 194 214
65 118 151
122 48 249
162 179 24
145 165 149
58 66 49
121 116 32
152 17 152
196 156 77
210 5 237
81 125 1
156 44 64
60 142 97
142 143 224
153 15 228
19 189 151
51 91 131
210 25 147
235 10 60
94 177 145
36 54 170
247 106 128
208 23 251
52 86 161
48 89 88
109 224 196
47 101 72
200 45 4
14 176 172
21 68 61
61 191 172
154 138 92
221 70 167
242 246 209
254 152 57
13 93 198
178 218 93
223 131 98
27 67 42
196 249 233
147 77 136
207 140 205
139 11 171
136 189 163
75 60 236
168 221 80
43 206 87
6 76 104
28 201 128
22 216 149
152 175 171
200 128 10
137 145 148
234 102 178
229 237 128
160 211 23
139 4 194
144 41 58
35 27 50
131 59 31
156 131 159
110 105 98
53 179 35
151 2 242
37 206 75
245 152 252
129 139 161
229 233 73
245 146 233
95 143 218
192 248 204
104 196 35
155 246 74
53 124 178
141 76 229
98 139 88
143 247 198
17 34 69
248 75 216
156 54 16
254 159 246
166 160 215
59 156 199
118 153 119
163 134 81
47 58 103
142 9 233
31 18 68
213 249 63
255 235 161
62 229 111
178 149 5
71 253 33
98 66 55
232 211 78
139 101 82
28 111 125
97 185 250
124 10 63
116 79 55
237 47 31
31 235 237
184 9 20
111 25 193
123 207 168
130 50 207
185 193 224
113 75 82
79 194 142
191 158 154
154 213 16
189 31 236
51 250 222
68 182 152
226 42 157
39 157 48
47 84 8
62 14 118
17 255 137
15 236 60
220 167 238
163 190 66
29 167 95
238 95 37
189 179 76
202 176 187
72 211 91
27 220 201
63 24 218
84 78 44
251 77 53
20 135 55
205 119 96
23 221 248
65 30 48
45 51 181
170 115 140
152 83 67
109 134 186
193 75 227
97 101 2
120 198 173
230 12 184
247 152 12
54 212 112
60 86 50
113 41 39
13 138 201
102 243 39
143 12 205
134 49 202
224 125 18
82 154 46
95 103 120
181 135 60
164 34 155
229 61 121
162 212 15
187 193 59
139 201 129
165 208 18
52 96 249
226 72 133
121 153 21
136 86 176
0 121 125
218 90 31
12 95 112
124 157 139
34 140 8
99 121 175
40 167 30
122 76 72
206 27 147
242 6 5
184 75 211
212 198 194
132 238 103
167 56 3
74 221 201
203 185 205
68 30 59
32 246 92
28 13 232
195 115 35
202 209 207
18 9 177
71 134 187
205 34 248
254 182 98
166 160 116
18 193 92
244 242 248
125 140 27
85 138 165
63 113 92
82 153 28
148 97 77
243 27 199
208 53 153
180 200 57
0 168 218
70 200 245
166 103 62
45 59 205
219 177 212
164 191 244
222 95 163
15 19 134
221 237 142
191 111 169
111 236 175
83 180 17
23 60 9
225 32 232
76 195 31
191 151 77
227 148 94
92 207 219
21 129 197
230 113 54
131 145 71
166 218 204
73 56 141
48 245 32
104 94 187
220 223 60
90 144 81
189 217 117
64 171 141
214 152 236
90 60 42
140 126 121
98 176 15
31 219 182
162 40 181
26 8 58
103 111 78
86 144 127
7 39 82
116 207 249
240 129 227
26 245 104
89 21 79
174 36 109
125 196 250
116 100 171
135 144 4
143 221 192
0 167 171
114 228 76
236 225 191
106 105 72
17 43 102
68 123 161
22 161 70
150 187 57
55 205 201
127 207 176
141 161 179
36 9 191
161 102 9
244 21 121
201 104 12
129 92 255
45 18 168
193 160 116
180 78 240
207 147 158
245 29 65
114 72 55
212 212 132
101 107 169
206 167 60
105 161 242
130 28 206
220 37 208
145 73 78
249 12 164
131 186 195
218 95 212
13 242 55
190 175 200
18 193 13
18 157 231
138 15 229
3 24 198
54 33 248
211 165 117
240 21 255
127 93 143
224 169 99
86 131 110
15 141 229
44 242 2
224 220 250
130 195 111
52 59 99
160 74 34
164 65 178
22 209 236
248 24 59
145 79 42
103 196 21
104 203 218
212 249 65
143 66 55
100 28 93
133 131 198
146 199 201
61 146 30
5 249 78
70 228 65
199 117 37
68 193 108
235 215 11
248 104 173
115 127 160
102 184 76
107 57 253
159 105 221
51 152 8
213 91 13
228 66 150
100 207 172
225 116 161
1 228 8
11 198 17
10 56 169
35 65 54
145 86 22
19 60 57
71 95 97
27 142 248
149 112 97
211 97 138
53 145 162
191 173 193
238 52 210
38 52 179
248 1 162
145 149 95
16 24 173
25 246 151
153 230 99
218 118 133
108 120 28
199 230 103
255 34 150
111 159 252
100 10 131
227 202 65
155 16 195
158 202 240
61 254 100
58 250 33
192 42 254
163 251 168
85 179 54
74 128 8
103 247 247
18 165 87
156 2 75
211 243 78
86 0 64
116 75 201
87 65 220
129 75 57
95 168 124
205 23 212
170 201 169
195 220 66
40 64 20
63 144 133
156 56 194
113 209 175
233 176 110
105 43 164
129 100 201
60 139 120
241 227 64
114 186 248
82 19 186
98 200 125
172 84 178
77 84 144
175 32 201
162 198 33
72 88 49
242 245 162
228 124 36
218 156 191
243 65 65
136 133 21
236 157 131
240 148 5
227 207 109
57 24 139
63 65 205
20 255 46
167 188 152
7 209 46
93 25 108
252 92 131
39 146 8
246 115 38
69 68 220
237 98 245
71 87 148
117 138 109
91 100 68
180 17 72
219 219 222
35 76 200
23 233 134
133 47 178
122 144 127
39 35 120
28 144 220
245 164 9
24 142 134
44 102 115
68 13 26
160 145 102
58 95 10
74 0 34
183 40 237
195 110 197
105 53 52
98 185 201
152 142 251
88 230 212
88 165 18
32 32 140
35 29 3
237 247 94
28 127 241
129 127 233
170 159 216
187 98 153
130 193 208
112 28 38
167 227 28
181 92 80
91 163 6
149 230 203
86 194 111
189 207 16
128 0 125
64 249 236
127 236 170
159 104 26
23 121 121
168 78 175
213 89 141
24 241 190
66 193 96
32 53 234
213 168 139
86 75 239
101 248 220
142 226 86
12 147 78
193 72 114
59 219 115
76 32 90
221 212 134
20 206 253
220 131 2
105 254 35
218 212 36
99 167 99
22 244 242
200 109 235
159 229 111
37 204 93
184 169 80
214 39 162
201 47 186
132 151 252
56 210 61
206 253 75
27 232 242
41 126 188
222 10 146
210 39 241
4 65 252
31 157 41
217 19 195
101 15 196
127 181 140
126 39 166
253 106 252
138 8 248
171 206 162
185 38 36
155 71 181
150 47 15
136 198 94
124 111 133
193 127 190
71 244 241
116 69 172
39 80 68
209 217 113
204 86 166
43 0 27
33 4 38
75 40 80
196 0 225
11 230 3
166 241 159
165 0 145
14 74 208
128 15 218
50 77 184
244 44 76
237 84 72
96 78 111
176 200 166
147 3 246
114 38 93
138 57 231
231 142 132
141 208 63
178 244 221
35 106 230
7 149 234
85 148 111
155 239 6
216 233 198
199 9 18
11 158 79
173 146 162
54 121 33
79 68 70
216 106 218
85 226 59
177 194 225
40 102 108
160 198 17
138 64 163
163 101 229
80 4 194
227 156 87
1 117 160
92 136 1
160 173 31
249 197 124
72 85 210
83 18 0
251 69 94
8 207 56
109 76 31
50 184 197
193 160 162
97 243 206
220 146 216
236 236 203
105 249 186
232 117 57
16 25 47
89 219 173
212 73 124
112 250 26
132 40 250
68 254 30
12 206 236
12 65 115
120 114 85
28 162 247
38 227 134
54 192 177
235 58 136
0 36 116
0 120 201
34 156 130
102 237 34
218 46 90
52 158 190
83 89 101
87 126 29
21 122 184
111 140 142
33 88 54
77 35 125
162 166 227
76 217 41
20 64 70
185 6 56
154 171 118
209 129 43
75 58 254
7 110 247
241 91 246
227 221 110
25 171 255
20 150 40
46 18 48
194 34 3
22 130 242
145 248 147
194 87 42
242 70 159
80 141 115
43 209 218
39 56 135
229 138 178
188 52 227
118 92 198
159 255 77
217 144 230
244 87 41
213 102 140
42 54 157
25 254 123
3 93 112
252 173 32
65 130 68
103 114 194
151 87 175
21 157 113
215 53 116
120 148 38
91 22 76
0 19 182
221 117 187
65 209 167
49 178 103
167 164 55
233 65 5
176 227 160
33 166 198
115 2 228
40 54 202
41 137 221
255 235 241
196 217 172
2 35 137
193 1 94
137 127 143
248 84 13
105 71 222
209 128 152
228 33 68
45 102 60
167 242 32
178 49 174
214 253 123
93 115 234
132 241 226
16 242 130
49 51 230
234 58 65
11 114 91
216 215 68
83 21 125
232 45 211
135 124 105
92 254 222
52 206 154
124 164 174
42 204 0
126 151 212
50 63 37
215 142 194
49 15 41
81 153 249
76 75 91
232 230 135
18 88 179
153 64 255
96 57 99
125 217 7
69 176 237
244 15 194
76 143 26
151 24 97
183 214 35
209 246 3
14 60 245
233 62 169
184 178 162
13 1 213
85 8 202
194 217 13
207 98 182
50 13 4
160 184 41
14 207 25
158 62 247
110 195 245
154 103 73
136 71 140
77 132 87
89 93 107
75 116 185
23 23 172
135 221 137
171 205 191
216 165 1
99 136 22
164 121 226
200 93 216
122 154 130
147 8 36
13 86 19
115 202 13
149 248 87
20 161 137
218 30 182
167 42 89
205 77 159
105 65 177
134 116 111
27 124 153
3 214 221
211 131 147
128 24 23
224 253 74
242 122 85
158 43 60
213 44 0
41 195 118
218 73 71
54 66 182
147 57 33
231 89 165
56 89 188
136 63 168
71 74 129
42 71 53
236 43 192
245 83 220
166 85 240
23 66 196
209 166 134
223 191 129
2 38 92
1 234 73
138 93 193
210 44 241
144 80 125
136 86 250
36 1 175
187 220 150
190 165 201
24 211 124
113 148 220
37 224 60
217 74 190
148 95 208
110 215 180
34 55 158
19 186 95
40 28 249
55 9 113
119 162 216
86 12 125
91 197 215
181 21 242
18 27 189
181 194 109
106 147 94
169 175 227
83 37 15
172 202 86
192 252 83
96 118 237
140 252 4
69 90 154
210 179 67
69 214 90
251 228 187
90 82 27
181 0 12
54 201 81
246 79 39
93 172 95
182 10 116
121 13 90
146 209 39
211 88 96
115 40 93
22 180 54
65 31 180
9 15 114
205 184 225
56 63 176
224 175 77
155 247 200
39 32 190
19 14 115
96 242 78
23 111 202
193 107 212
4 185 178
95 51 155
18 115 219
247 197 185
172 129 53
9 125 49
63 145 146
97 226 188
225 247 32
67 216 196
196 249 161
105 27 141
128 18 196
70 31 254
246 225 48
209 245 190
13 68 93
100 225 229
237 235 237
226 136 45
106 201 234
97 33 173
225 149 96
84 59 51
244 91 24
197 149 167
131 192 192
24 235 149
250 38 99
29 49 114
184 131 75
204 32 83
1 101 213
7 200 111
3 13 214
132 43 175
191 254 25
106 146 148
144 3 243
172 32 236
66 195 5
101 50 103
173 100 41
250 228 210
222 205 69
141 33 16
78 3 118
109 168 60
79 252 227
236 36 41
14 74 85
5 120 83
198 9 151
125 206 238
223 154 83
132 117 15
72 194 234
139 45 116
109 55 185
204 245 54
173 225 100
252 179 96
189 4 193
223 45 227
224 189 85
134 169 152
114 246 42
219 133 66
66 74 165
37 34 72
225 10 42
82 91 65
116 74 193
119 125 245
34 183 20
94 47 169
81 168 242
12 37 212
52 233 212
205 105 107
248 251 161
230 201 207
38 202 139
242 222 16
184 246 147
102 197 254
9 228 177
110 8 205
187 95 2
63 117 4
187 248 139
250 69 86
47 168 127
97 165 239
60 93 96
32 19 162
215 25 254
212 70 207
113 118 94
53 113 184
120 95 187
17 18 172
252 66 204
158 100 177
203 167 57
155 211 58
44 0 51
22 55 58
72 202 16
182 168 221
46 47 164
37 65 210
151 13 74
130 36 193
177 206 199
250 225 67
151 85 242
31 134 100
246 235 118
38 130 149
221 5 134
236 57 130
133 186 244
175 221 7
169 222 40
220 172 7
169 173 204
174 20 56
65 43 178
135 195 141
102 91 120
177 211 235
155 126 172
245 162 21
77 172 190
165 232 18
216 172 119
152 231 14
168 79 20
63 142 100
37 221 101
22 97 94
206 254 152
21 185 202
78 158 5
55 118 176
75 240 115
58 10 47
224 39 245
92 189 57
85 184 174
37 179 126
86 222 148
222 253 240
42 76 211
248 62 242
162 107 145
200 8 223
89 213 176
230 148 186
139 96 98
184 109 6
74 178 0
254 19 128
45 173 152
103 58 187
244 119 91
253 252 145
4 69 239
229 128 205
124 69 238
194 231 1
135 155 175
68 246 232
57 176 136
237 187 240
171 127 178
186 22 18
135 23 193
84 61 121
87 180 28
135 41 210
84 222 239
90 223 120
80 74 125
151 220 12
244 127 87
149 217 173
141 40 187
182 15 191
148 163 182
59 21 22
142 239 92
50 198 122
189 240 188
43 244 157
186 159 189
78 57 89
168 71 228
139 208 145
240 175 79
152 11 229
88 145 12
61 131 172
22 237 36
214 54 96
228 121 122
244 215 101
217 182 186
93 63 1
89 228 210
51 114 9
139 181 66
213 85 210
155 5 110
238 206 48
172 12 149
35 44 33
15 233 131
226 204 198
11 233 110
37 124 1
103 233 32
220 33 211
37 226 162
23 80 62
60 147 162
224 0 155
130 67 203
237 44 148
88 96 205
178 167 66
44 36 168
122 179 172
227 67 215
109 134 11
227 173 4
64 155 29
210 26 72
92 18 251
211 174 244
82 136 208
217 155 208
100 19 28
138 231 240
215 229 229
55 169 37
220 10 197
10 194 18
230 195 173
224 28 119
199 65 42
149 182 239
66 51 173
41 255 70
121 139 98
188 177 50
40 56 199
245 108 96
53 172 215
9 164 14
153 20 182
108 177 90
33 73 145
217 239 26
178 98 37
118 51 97
4 205 172
196 115 186
132 243 147
203 206 20
125 66 1
178 34 55
44 154 86
201 68 182
173 200 131
226 130 60
49 244 85
28 128 96
54 100 130
191 15 36
37 166 117
157 107 9
248 42 239
226 33 93
45 12 115
139 243 252
16 215 249
107 71 8
79 119 187
135 159 248
231 11 87
35 36 57
228 235 37
108 243 52
152 104 212
209 197 129
177 234 156
231 175 36
182 46 40
78 123 238
241 222 133
156 138 225
4 231 122
55 238 185
95 211 74
96 165 8
8 138 45
134 211 130
28 70 197
255 138 93
134 247 230
163 103 95
215 34 143
50 59 32
2 177 40
218 190 204
114 193 99
166 249 4
194 128 103
39 227 80
16 121 240
100 228 204
152 195 178
85 154 184
201 152 88
52 75 212
175 8 249
236 199 169
167 209 122
239 205 20
245 244 24
245 192 162
223 107 19
23 161 199
197 59 223
221 99 137
107 223 93
195 174 194
86 218 17
162 122 62
236 246 10
27 186 28
236 123 196
178 89 76
195 142 26
20 66 244
187 182 83
226 95 206
196 54 31
147 8 227
30 230 203
2 192 245
24 28 53
254 0 145
143 220 3
219 125 119
235 52 65
15 220 195
243 39 41
252 201 57
178 218 95
231 231 168
123 223 79
137 173 49
220 0 142
28 51 19
188 54 74
13 58 95
233 194 45
216 70 17
147 169 131
38 39 244
102 157 181
11 227 165
19 38 0
39 62 251
58 26 179
52 160 63
77 153 127
193 183 133
232 16 249
205 109 236
205 132 6
77 188 22
89 61 148
74 172 156
239 62 162
181 136 203
207 152 37
122 133 180
102 0 4
175 248 159
190 192 104
26 124 179
19 194 167
83 160 11
201 198 179
24 142 225
118 64 5
112 249 11
155 125 249
100 131 201
127 9 89
85 85 13
1 89 74
59 242 103
188 10 90
133 22 224
41 101 54
14 24 201
151 93 124
142 77 157
33 90 86
26 149 156
32 38 246
131 163 71
214 49 24
17 36 171
241 128 49
159 223 149
125 18 232
100 155 104
201 18 65
24 57 232
147 76 197
44 68 111
196 143 94
230 255 174
243 204 225
163 171 72
225 68 161
102 8 29
221 118 88
237 209 138
190 45 179
247 68 230
93 162 198
99 96 168
236 77 167
36 253 224
80 110 45
111 187 101
207 55 53
65 85 250
204 53 203
122 69 122
69 129 77
93 125 209
127 30 115
213 176 149
149 164 62
88 237 153
241 240 45
27 213 198
141 168 157
125 102 61
60 61 120
107 138 117
214 203 131
94 70 20
133 115 111
200 24 40
189 183 61
143 242 41
110 23 168
141 19 125
188 111 125
127 218 248
32 246 116
99 160 71
70 77 201
211 198 105
57 123 35
80 224 182
130 138 138
13 204 26
38 112 146
119 14 75
237 67 111
22 215 23
167 148 86
77 65 107
9 43 247
237 254 2
212 242 134
244 169 146
114 176 77
29 36 69
121 238 86
18 194 236
1 133 171
201 70 89
140 42 99
23 152 39
16 33 53
162 123 245
221 48 227
119 219 196
32 181 241
239 100 170
134 25 178
62 159 72
210 27 155
97 165 213
122 110 171
9 219 242
123 249 19
189 194 161
201 147 123
207 232 240
127 159 111
231 180 15
41 98 135
155 153 63
62 75 200
230 211 67
249 48 158
74 155 192
147 26 2
18 42 180
180 155 239
115 48 94
204 71 3
12 86 2
123 94 253
72 212 145
71 115 207
158 134 227
132 27 64
227 137 25
213 143 136
225 137 241
104 86 80
36 218 218
109 83 10
235 117 163
28 10 44
187 138 152
186 154 84
82 103 93
22 158 6
109 220 226
205 73 11
189 107 246
43 104 88
191 75 140
72 153 220
151 44 49
233 64 101
217 186 254
155 243 215
83 49 16
222 123 226
113 241 218
230 186 45
107 125 17
60 136 235
210 161 78
71 75 227
218 175 228
30 90 249
36 70 79
65 233 144
108 134 187
189 71 113
120 11 33
35 144 111
166 223 84
67 112 149
56 169 23
149 232 250
67 184 125
177 204 168
11 107 169
143 206 230
212 212 174
41 36 103
112 23 111
196 85 71
205 224 143
21 225 0
69 144 68
171 116 138
230 204 124
185 45 10
235 139 44
234 77 211
137 253 39
7 78 253
46 212 129
120 230 55
208 243 166
145 155 31
99 166 74
44 168 188
117 206 59
231 242 188
112 217 35
184 157 212
212 54 148
73 76 5
228 105 212
182 22 230
34 100 212
14 205 223
0 0 223
17 52 197
178 30 26
71 229 223
154 136 50
107 43 145
192 113 250
165 227 117
195 167 86
141 206 171
34 41 73
40 174 18
250 197 6
140 168 91
147 141 250
71 114 245
212 212 38
21 26 166
238 17 179
103 160 95
233 222 24
34 185 218
189 159 255
183 255 237
105 222 176
27 64 240
191 203 150
120 24 71
131 192 250
126 30 57
161 173 128
165 248 203
0 245 79
157 232 252
24 100 14
247 70 96
53 247 221
98 156 194
241 172 59
169 201 0
109 93 165
165 198 90
214 51 190
113 24 205
192 216 72
185 227 224
182 89 147
4 36 236
35 25 82
216 48 179
138 174 99
211 118 165
166 55 147
249 252 106
176 192 73
121 233 53
219 19 190
55 183 60
147 16 206
65 240 134
161 254 127
174 232 192
209 31 139
211 180 57
245 158 72
112 103 107
29 193 70
119 31 163
30 22 157
107 188 221
171 164 13
206 162 180
136 206 105
8 95 218
158 115 216
2 231 138
214 206 163
250 205 211
104 27 174
171 91 167
179 169 31
200 240 31
42 24 91
213 191 207
105 72 177
141 2 158
51 139 200
6 82 44
183 209 38
236 83 189
139 117 162
133 93 26
244 24 53
247 228 157
5 227 187
157 172 45
45 193 120
141 191 80
181 119 132
76 78 117
225 35 172
99 22 5
143 69 35
199 177 94
224 135 13
33 190 209
22 29 158
22 226 166
161 50 200
225 183 78
159 110 237
179 72 39
2 25 85
249 34 59
82 43 52
50 99 110
208 78 62
29 170 115
198 33 191
30 113 214
17 153 65
237 192 18
14 224 202
112 109 134
191 111 167
61 101 117
233 79 251
6 85 24
92 46 213
208 10 15
237 6 39
239 43 170
132 67 122
63 255 245
144 72 177
158 200 157
161 34 137
201 15 3
112 93 32
193 21 79
57 178 154
67 114 110
172 150 148
255 153 20
104 58 54
44 221 51
116 209 48
163 126 137
162 1 197
22 180 45
249 66 3
29 29 207
62 125 220
224 154 130
195 32 118
138 94 104
114 32 13
169 162 52
215 100 79
168 194 201
248 236 190
126 77 182
126 202 107
131 21 136
34 106 216
188 232 82
53 147 198
80 246 77
154 196 135
83 253 3
169 252 159
126 148 75
141 107 64
22 212 39
171 33 80
189 43 230
173 213 0
165 27 88
191 231 185
76 155 124
192 231 82
148 190 92
169 169 167
2 215 188
98 104 54
63 197 146
203 26 189
9 104 24
116 62 191
213 75 165
244 204 173
235 114 221
150 144 138
147 150 143
189 104 240
178 29 167
217 189 191
1 119 37
252 48 237
251 206 150
105 56 60
229 43 245
124 18 149
123 92 101
22 84 63
41 5 171
124 48 44
207 16 224
185 137 113
23 59 241
159 2 236
91 114 131
35 126 250
81 137 31
105 17 91
251 233 151
50 47 180
108 61 141
15 174 65
202 161 226
142 155 148
134 146 112
56 101 180
54 189 14
155 213 107
133 148 244
253 142 108
152 206 9
242 55 150
218 94 174
107 14 123
103 132 250
40 206 142
242 30 188
208 147 30
110 139 229
210 82 145
218 191 97
204 55 15
171 232 133
65 220 203
30 57 6
114 232 53
125 29 161
71 114 52
96 8 151
206 226 45
18 168 174
33 85 117
170 2 154
160 51 242
139 45 41
215 205 190
59 30 31
196 163 48
139 117 34
196 240 173
223 88 17
177 72 156
140 213 195
231 126 91
38 11 130
143 170 212
241 164 114
114 182 50
187 56 172
37 144 67
146 112 234
112 253 134
121 9 137
23 34 35
114 1 33
245 184 123
113 248 52
28 8 26
118 52 189
32 228 217
161 184 70
201 81 212
231 131 30
183 158 184
40 180 129
191 33 99
150 105 14
6 194 95
169 43 38
197 155 216
71 122 162
15 155 102
19 192 101
159 86 172
188 57 0
210 96 17
89 81 243
99 135 145
38 43 222
135 177 1
152 103 214
55 127 13
229 80 139
29 62 65
245 105 53
83 122 125
172 85 250
103 143 221
171 39 173
17 123 68
246 238 217
169 63 110
118 221 225
5 143 110
226 77 132
182 179 23
35 59 253
50 76 161
35 37 61
185 43 89
76 116 194
140 183 224
108 138 158
35 174 93
19 110 249
52 190 220
196 145 160
82 89 145
135 182 46
186 207 73
35 190 148
212 123 48
73 40 184
252 207 91
169 117 213
27 106 94
225 140 105
216 95 138
161 98 33
30 140 167
94 73 250
186 242 215
189 72 113
231 87 39
106 27 19
41 81 47
50 160 2
255 122 252
216 167 122
198 142 159
191 46 15
110 48 47
211 143 201
48 52 176
162 9 18
24 111 111
247 211 99
61 163 124
47 202 107
39 193 1
61 80 196
32 188 54
98 50 239
19 178 179
146 109 242
174 61 246
25 180 70
216 27 133
65 132 255
25 12 123
46 139 107
219 27 76
224 161 220
19 41 174
48 26 215
34 124 233
77 238 179
188 23 57
135 233 178
159 206 194
239 19 43
138 197 29
143 250 211
50 1 154
24 128 182
196 183 41
172 178 202
7 31 40
104 180 139
162 240 161
3 218 59
61 228 163
0 245 93
119 74 46
6 137 32
52 112 20
48 63 148
197 192 80
179 214 185
86 192 52
0 100 32
43 23 138
97 187 4
211 94 20
109 85 54
124 39 231
215 83 63
207 134 95
164 142 33
128 151 12
24 52 246
204 137 159
24 111 22
182 0 176
2 118 6
159 114 14
176 139 237
112 89 123
199 82 214
56 42 140
34 26 57
124 154 91
55 196 193
176 185 192
58 174 44
37 120 27
35 26 228
116 128 106
205 222 126
72 102 34
41 156 87
140 229 241
89 108 99
115 85 90
75 26 98
185 226 229
101 45 148
55 71 4
235 210 22
2 183 242
8 42 247
166 65 239
140 5 187
94 122 45
159 58 113
140 21 28
156 154 243
202 242 39
176 71 64
201 140 113
121 77 235
206 65 62
6 13 251
116 148 66
182 194 249
115 173 108
5 13 185
155 67 69
88 107 206
192 205 44
119 228 214
64 11 183
130 202 234
67 65 81
215 166 4
118 246 112
103 26 226
23 158 253
210 136 66
81 0 94
36 78 79
231 116 165
181 208 205
46 121 101
2 24 204
187 167 175
56 87 166
143 20 131
47 24 23
161 194 83
171 108 113
139 44 47
86 51 4
170 46 47
120 146 110
138 55 108
105 0 210
188 149 110
173 7 133
177 44 136
34 66 92
211 52 251
120 57 13
151 46 178
61 113 142
95 57 253
77 15 168
175 183 22
113 100 123
253 134 147
53 179 210
158 48 24
232 37 144
177 126 201
44 81 14
160 133 15
75 33 95
51 134 31
42 70 182
254 240 139
56 86 89
167 195 199
172 218 126
48 155 5
58 179 126
222 98 132
117 123 90
213 192 237
130 201 40
148 187 82
8 84 104
145 94 8
15 13 198
214 59 45
133 118 134
185 221 17
112 32 57
103 208 178
230 200 101
228 58 33
71 4 63
150 161 84
114 198 12
11 214 235
159 69 73
216 89 226
165 181 171
245 39 62
87 1 80
39 210 226
164 156 112
235 156 4
164 119 41
181 12 126
4 240 102
184 16 120
13 76 86
244 225 134
30 215 179
77 58 212
229 43 186
40 10 58
124 137 23
177 3 34
1 196 156
133 239 227
42 242 74
42 54 215
129 6 146
167 77 59
203 41 253
213 86 223
150 68 167
231 118 187
134 244 60
21 211 51
25 124 212
171 34 86
138 220 42
13 72 37
12 131 137
155 217 78
95 175 193
105 36 74
91 220 86
243 189 183
169 242 152
74 45 184
180 179 86
248 21 124
81 139 176
133 1 34
76 227 106
77 82 62
198 41 182
253 181 117
39 200 93
71 181 220
37 71 130
171 24 164
107 37 251
42 207 180
167 174 55
210 215 181
187 122 196
187 45 142
237 25 118
86 188 130
39 154 81
17 115 64
60 147 221
241 172 98
78 6 126
136 244 136
212 36 135
92 109 250
91 67 96
221 197 51
255 93 163
67 26 189
50 253 101
172 57 4
104 186 40
166 61 244
97 73 241
75 119 107
18 173 130
154 251 37
44 128 229
96 48 121
140 214 41
83 31 180
171 73 170
119 143 95
18 19 1
84 238 206
100 68 221
46 37 125
46 68 8
122 197 115
96 207 140
251 63 231
239 136 81
64 233 93
12 84 242
118 208 12
123 23 72
193 27 93
98 143 247
93 131 200
65 135 47
16 164 100
18 81 101
65 254 195
25 123 11
233 223 35
106 202 250
68 14 181
138 183 73
232 138 77
50 176 146
29 13 206
141 248 222
122 249 196
125 58 53
150 107 138
144 157 60
153 90 54
152 254 141
16 206 206
79 151 31
78 1 33
86 80 101
251 13 49
133 48 190
118 217 35
21 254 176
50 224 86
146 196 180
116 146 41
26 92 133
61 108 233
89 144 3
170 219 154
172 72 4
142 152 103
148 99 231
102 251 138
11 202 163
39 71 52
65 90 209
203 218 211
131 234 82
200 3 188
222 170 44
161 18 59
91 218 68
206 151 207
79 197 71
219 78 85
19 244 98
95 97 25
45 89 247
155 147 254
98 228 125
44 178 110
174 35 53
25 247 207
143 145 207
140 128 104
238 12 59
17 39 34
118 191 50
28 172 141
192 5 164
87 243 75
103 45 70
111 245 131
47 69 130
40 41 113
190 90 81
166 4 193
190 99 148
141 191 14
64 207 1
191 240 211
31 103 111
50 143 138
191 74 206
176 92 199
211 254 249
67 134 9
218 59 34
231 229 244
171 233 79
41 91 157
196 65 188
163 24 16
160 204 208
87 32 28
14 87 251
21 146 174
77 110 226
147 168 149
185 52 173
200 253 226
219 178 173
22 212 191
242 25 59
88 96 110
229 177 108
234 30 199
113 124 202
222 99 7
241 40 236
154 68 232
56 86 245
149 233 48
15 158 194
143 236 32
33 72 17
0 123 69
245 87 192
49 14 74
254 87 141
38 76 18
121 233 57
107 212 138
37 132 91
50 55 197
125 32 15
28 84 4
48 67 208
210 229 138
255 40 127
165 97 61
96 168 147
115 185 21
138 124 198
7 7 35
193 49 29
237 19 161
23 209 158
32 183 7
77 30 54
153 228 229
30 187 159
26 38 139
199 41 37
106 209 214
176 202 32
186 89 53
224 116 168
189 48 129
143 72 56
5 77 150
83 144 127
162 129 206
49 12 234
151 57 80
30 131 137
119 56 148
109 12 193
145 196 17
223 145 159
43 100 188
151 7 20
14 56 137
42 241 247
68 236 111
66 201 223
81 236 72
43 231 43
165 105 172
61 236 41
212 142 181
239 123 46
116 250 150
3 13 156
249 7 220
51 175 57
177 221 174
73 13 30
13 197 39
44 98 93
246 176 12
124 108 17
75 253 209
141 207 125
31 204 107
178 177 197
209 215 253
90 230 47
223 95 124
145 169 178
50 244 143
22 249 157
47 0 234
16 13 177
234 25 3
152 183 32
217 180 229
62 144 122
195 167 121
45 231 120
95 98 1
116 240 63
246 65 205
11 214 34
196 163 189
94 188 7
124 8 189
141 0 14
84 210 244
57 39 53
190 140 237
136 167 59
95 76 98
42 252 143
88 194 101
118 121 197
48 156 219
194 223 64
108 172 44
73 49 114
105 139 137
203 109 198
220 200 129
36 60 233
157 73 199
105 109 74
86 156 101
237 238 35
93 27 66
225 192 71
241 99 247
175 228 44
59 144 17
213 39 55
184 57 255
75 70 170
72 25 143
137 196 138
89 211 58
104 107 140
151 247 66
37 197 126
167 141 128
86 210 27
247 88 46
207 66 28
114 98 7
185 149 206
225 147 24
120 200 123
252 42 29
108 145 143
173 159 73
60 167 76
0 204 201
155 80 78
138 210 156
39 220 155
95 136 254
127 160 234
84 77 89
91 199 60
147 119 246
229 189 220
208 54 187
18 214 62
101 104 201
255 142 246
226 197 52
165 142 144
87 213 40
59 12 247
100 159 148
164 97 75
167 108 116
252 73 255
183 186 169
177 96 242
104 107 151
105 169 219
22 45 92
169 171 246
229 61 223
171 84 35
203 160 47
224 39 45
237 239 155
151 12 130
9 194 225
250 27 138
85 38 25
15 147 175
163 200 1
225 56 214
157 119 101
64 222 240
86 79 181
199 101 171
47 42 118
118 67 189
42 163 198
198 145 19
201 17 30
22 65 78
161 218 5
239 131 82
8 140 208
91 91 51
68 16 15
62 5 13
237 73 30
150 21 44
127 198 160
45 184 105
218 39 216
14 12 101
16 42 63
12 189 215
212 155 154
98 105 212
47 255 210
227 20 86
10 244 55
203 112 187
73 47 121
196 45 204
124 191 13
107 8 34
197 49 45
31 86 231
193 130 204
74 210 45
89 92 186
88 143 149
226 156 224
60 17 179
151 144 229
39 199 67
217 102 157
75 34 106
5 133 93
131 1 184
177 199 247
16 70 220
56 140 95
207 0 75
158 127 203
215 106 239
137 75 2
245 129 227
153 230 35
46 70 134
3 114 52
90 217 138
130 140 56
191 209 7
57 49 251
127 158 194
221 14 129
101 67 184
247 198 157
132 180 118
245 255 87
127 180 92
0 238 217
209 187 14
244 75 242
57 202 65
125 109 21
44 3 58
103 68 51
8 180 241
201 66 193
7 233 100
121 194 14
186 246 52
212 88 127
85 215 50
211 27 214
162 75 225
251 198 105
150 247 170
2 159 212
213 213 200
184 149 230
122 244 5
226 198 69
212 174 132
18 183 91
38 16 52
210 5 139
104 17 224
61 255 54
217 86 178
73 252 249
247 37 156
95 60 109
237 209 118
214 226 129
98 12 249
11 29 118
74 209 72
253 40 28
25 69 146
38 61 36
192 186 218
125 110 26
70 43 40
96 77 98
131 144 119
180 99 61
124 48 216
176 101 94
10 165 125
185 36 93
4 172 132
35 148 166
26 173 41
228 50 177
80 20 4
129 12 6
218 124 17
39 8 73
236 131 220
181 56 154
226 96 141
212 142 150
26 121 67
44 251 84
183 227 83
183 76 103
235 173 61
219 89 3
61 236 113
21 213 221
217 152 222
27 234 132
111 246 220
168 30 35
54 182 224
253 217 210
216 97 4
63 69 221
234 61 122
169 107 31
148 101 169
193 147 134
229 93 102
215 174 144
104 78 203
173 95 50
84 168 54
66 123 0
13 201 194
143 46 159
254 30 154
34 5 162
40 124 189
176 214 99
178 0 82
200 207 235
220 150 88
149 182 156
235 218 54
197 88 43
152 5 244
189 136 113
238 91 165
155 235 228
243 71 40
249 163 160
70 3 100
200 37 187
203 57 154
143 102 127
202 72 87
189 253 77
194 252 247
153 0 15
212 202 11
179 72 196
92 117 48
98 43 33
253 11 50
165 99 112
15 31 189
123 168 245
191 123 11
25 168 9
140 235 171
69 211 57
206 152 45
181 99 189
220 130 30
204 76 220
49 11 230
33 184 213
102 78 72
127 55 42
161 154 202
44 142 13
104 49 180
25 12 69
106 5 126
192 59 190
83 143 234
138 176 113
215 32 83
205 24 63
174 85 138
44 73 197
239 59 32
68 185 219
78 107 21
69 199 233
162 217 112
138 50 247
118 248 88
166 115 59
40 66 58
171 199 217
163 149 71
231 72 172
251 140 88
236 132 36
149 220 190
5 190 227
237 96 182
41 236 144
113 47 100
136 128 184
68 88 137
56 154 221
48 81 218
221 33 194
130 64 129
163 67 236
37 212 27
170 179 85
116 140 116
245 173 101
243 235 9
154 103 92
115 205 38
176 243 91
185 105 247
244 122 47
62 75 217
196 227 58
224 57 218
246 82 77
136 65 202
193 36 75
0 190 185
144 17 46
22 174 45
173 197 69
153 113 37
74 110 142
95 95 108
85 241 63
4 47 149
86 11 248
102 83 90
2 80 244
120 45 136
221 35 249
34 113 235
119 233 230
80 19 250
235 136 81
204 171 245
182 136 170
161 244 83
159 221 212
255 189 83
24 249 198
25 104 177
153 110 94
91 183 183
33 171 197
13 66 165
83 196 154
138 86 242
40 241 192
49 213 26
246 169 74
121 142 40
252 135 147
142 137 127
206 218 234
232 121 38
91 221 145
42 171 222
77 70 152
194 221 180
84 125 79
167 31 60
209 58 157
106 254 236
181 7 196
10 4 76
146 192 179
211 117 186
219 103 171
7 237 152
229 21 107
82 188 27
134 97 166
107 221 99
187 195 59
214 89 109
91 86 30
191 182 42
96 22 123
103 198 165
212 30 62
137 162 199
102 186 27
151 120 213
91 123 43
117 166 146
88 6 221
217 156 133
119 30 11
55 181 245
119 55 79
3 243 173
155 117 84
157 214 96
21 170 186
38 3 40
2 122 60
80 141 40
126 98 23
128 27 9
219 253 174
211 134 227
59 205 120
172 45 28
100 255 223
180 213 67
195 250 104
29 101 85
176 249 61
194 202 35
201 93 5
134 126 49
198 97 165
198 95 132
134 152 171
108 230 198
59 164 34
132 174 233
93 214 51
244 76 19
110 217 195
223 181 203
96 235 90
29 190 6
2 6 123
240 71 195
194 81 183
13 31 107
91 11 187
122 160 70
95 234 196
6 210 105
96 250 1
153 173 189
78 36 255
204 249 180
228 101 182
203 152 102
230 204 139
60 37 107
238 28 78
150 250 226
58 204 143
107 72 220
168 196 90
169 85 181
10 191 143
146 37 185
204 191 28
249 174 246
223 203 158
13 102 232
183 134 134
112 63 87
208 142 104
26 79 178
164 11 91
153 120 188
40 91 73
254 239 59
233 190 81
139 175 150
55 201 129
182 218 136
73 178 71
17 33 123
175 87 148
110 147 87
81 29 190
70 74 195
187 219 7
253 254 186
200 80 200
162 77 33
123 37 106
85 249 123
169 4 49
39 201 179
51 56 226
224 99 36
0 77 14
62 87 238
55 178 143
242 121 85
48 89 162
84 5 25
64 105 92
52 13 133
22 68 109
16 61 127
250 100 182
241 157 224
218 150 187
252 122 206
180 177 56
220 207 158
162 103 141
44 212 227
147 245 104
20 181 183
57 247 93
218 19 67
213 242 216
95 44 204
79 83 232
82 234 207
232 115 32
43 27 110
233 184 127
233 208 55
99 8 171
97 58 131
126 20 175
160 158 101
211 135 62
90 87 250
69 159 255
253 51 44
214 36 201
1 249 88
18 60 7
190 146 110
157 245 126
61 160 23
241 142 159
251 61 93
63 192 106
245 162 220
210 237 147
243 98 236
194 131 225
156 205 178
205 15 121
204 124 160
10 255 238
219 40 71
195 36 91
222 199 65
196 82 125
216 198 58
111 83 109
119 35 168
90 184 203
24 235 31
34 170 125
209 145 147
252 160 140
85 11 238
217 154 153
168 98 240
233 77 52
74 239 199
139 222 98
157 105 80
215 143 64
162 191 175
144 29 186
76 234 18
240 120 2
166 51 70
89 63 77
58 79 222
194 74 48
0 28 137
52 70 56
95 132 221
171 251 242
63 161 157
221 216 204
255 209 46
178 162 188
213 114 42
138 225 159
141 94 247
66 137 30
51 161 156
23 57 171
85 93 12
154 237 22
217 127 242
235 167 57
106 178 162
115 147 208
250 212 21
215 107 150
247 45 223
161 41 102
209 33 222
90 36 89
124 33 187
27 226 40
124 186 122
111 229 183
76 126 198
156 71 99
115 40 192
204 79 60
50 90 196
221 14 154
114 186 121
36 170 212
7 23 115
55 190 144
99 35 82
14 72 168
181 253 74
148 224 162
57 191 187
61 243 22
147 158 58
50 141 71
200 3 50
8 30 6
98 105 141
200 144 17
125 153 64
30 240 67
184 33 240
26 165 56
192 206 124
49 124 244
49 7 216
151 186 147
119 233 216
12 18 241
83 24 154
93 78 199
216 65 16
233 213 107
47 27 227
163 103 24
142 223 179
39 96 22
151 61 63
40 174 136
200 10 186
153 6 169
26 6 39
111 99 169
21 248 195
239 47 207
132 48 133
116 135 149
209 110 237
165 5 231
168 235 132
78 100 56
133 214 218
76 150 153
18 78 87
76 17 207
57 190 190
45 62 141
79 231 199
247 139 130
40 65 30
196 215 224
251 115 217
164 222 198
99 88 147
112 132 187
160 114 214
179 228 139
134 217 97
247 45 140
4 103 255
153 65 210
131 104 113
112 192 249
0 141 164
4 142 5
143 11 78
146 215 191
19 3 69
38 0 231
38 169 117
129 103 89
105 201 31
88 33 11
45 223 156
33 107 246
179 10 194
30 193 147
239 155 238
35 34 144
17 141 46
205 57 197
59 240 180
81 24 206
37 21 118
250 61 53
102 241 198
138 46 68
208 103 108
16 41 250
186 81 255
204 47 18
209 150 60
103 57 136
117 216 158
234 157 25
106 42 189
35 110 99
182 113 123
218 122 30
13 97 253
59 109 210
158 233 53
218 242 76
121 123 139
102 59 198
162 160 224
97 115 94
44 24 28
233 209 151
40 83 158
121 100 50
137 115 125
173 67 6
84 33 165
40 53 165
236 68 51
28 19 118
30 81 245
127 68 94
102 103 222
164 200 14
115 191 52
5 128 185
224 2 228
251 175 184
85 150 253
16 84 202
5 48 78
241 73 251
127 199 124
88 240 224
97 210 150
16 137 142
44 249 220
12 217 200
108 241 113
18 110 161
96 183 70
84 108 85
185 151 38
221 245 216
110 3 14
59 34 80
121 207 70
36 11 76
183 89 112
25 150 194
122 254 212
114 48 0
96 89 68
18 29 152
170 223 103
219 220 251
235 224 242
212 71 154
137 140 236
99 208 229
113 254 253
210 123 111
253 92 41
181 85 112
162 49 171
22 11 181
213 163 195
143 117 117
10 82 2
157 173 221
212 88 4
170 69 140
26 244 18
252 64 87
176 145 44
19 167 238
17 23 123
58 63 103
85 85 103
83 134 163
42 2 227
2 231 196
194 121 76
120 181 66
209 160 185
246 141 166
18 137 200
201 109 210
189 142 27
106 129 211
84 74 119
28 64 244
199 53 170
108 51 12
49 133 130
177 218 240
5 165 44
203 139 226
169 119 183
71 225 101
211 137 78
21 252 80
108 119 6
238 251 95
29 106 174
197 187 2
88 155 253
60 185 26
28 159 241
247 234 120
47 133 71
5 199 19
117 27 21
115 239 19
252 127 186
128 53 122
178 187 67
146 39 130
143 242 124
107 24 139
107 6 125
221 61 150
31 179 34
6 121 150
49 0 163
174 44 205
21 253 205
54 71 186
121 67 214
23 124 243
207 202 33
31 2 142
15 186 181
18 205 93
157 34 66
109 79 8
23 143 3
199 15 216
105 103 224
183 109 72
255 57 38
255 21 125
220 217 38
181 212 44
65 178 0
211 11 207
169 244 11
174 38 111
50 90 74
56 156 228
254 233 234
169 154 73
188 20 210
49 28 93
129 224 202
100 63 30
55 20 195
173 124 73
114 176 109
158 37 249
236 129 167
186 153 168
105 12 250
53 183 186
194 219 121
224 239 42
139 162 130
34 67 1
240 30 61
107 118 151
155 211 68
190 26 66
160 247 248
238 192 67
100 108 183
140 9 215
1 235 38
246 235 94
38 81 92
175 92 234
152 143 187
120 251 199
202 88 161
75 129 136
202 110 245
57 216 76
201 72 147
245 113 171
103 201 148
232 165 233
17 34 195
235 48 89
67 177 238
213 173 147
116 75 198
120 61 140
158 63 200
239 22 104
211 70 145
14 173 226
202 183 110
135 202 84
124 240 193
246 195 218
183 134 65
225 37 117
195 169 189
4 250 116
19 21 24
233 89 62
246 19 156
145 32 32
8 98 182
254 90 143
35 114 131
225 95 110
170 145 96
237 78 153
45 98 13
119 171 147
23 22 88
177 232 31
116 110 3
81 211 165
61 244 55
171 91 194
152 162 125
203 19 13
255 21 140
78 204 197
185 101 57
190 145 115
16 154 165
138 0 13
115 12 253
117 170 209
83 69 156
107 227 227
157 6 137
107 99 142
125 49 105
196 194 3
184 158 20
169 81 72
69 64 121
105 201 70
185 124 139
179 240 71
18 157 149
190 230 11
103 110 90
130 12 203
203 235 80
232 182 111
151 21 54
219 99 226
45 169 27
90 23 129
152 202 9
2 182 207
240 207 185
40 247 206
73 2 101
54 70 180
102 18 27
234 235 19
48 84 74
144 219 7
58 23 151
11 17 144
182 233 3
6 84 193
247 133 42
115 90 120
96 193 26
158 46 1
109 177 244
144 54 62
25 74 209
54 75 225
86 56 171
75 171 37
152 179 155
146 126 221
134 219 172
217 235 168
164 201 164
38 35 108
21 26 157
130 106 113
12 234 230
127 154 183
60 173 131
182 73 84
86 166 171
217 200 94
194 120 76
164 130 206
34 179 131
57 241 13
119 165 136
161 56 9
117 101 53
117 182 117
22 65 159
196 174 138
117 226 147
196 210 114
177 150 205
50 252 27
6 52 134
123 215 27
29 137 156
154 47 36
190 114 123
218 166 250
187 228 55
67 225 123
51 220 147
216 216 142
82 13 70
109 16 189
242 216 223
152 206 119
254 88 1
22 139 54
191 90 164
58 102 203
96 102 226
86 244 221
254 182 43
116 16 142
172 37 228
72 22 106
136 94 206
45 46 159
195 249 123
140 252 10
84 109 219
35 88 81
18 43 174
196 138 83
62 116 209
18 125 200
81 86 229
182 16 39
224 80 188
239 157 227
168 108 49
222 178 255
229 53 208
203 40 24
148 98 118
68 158 120
24 239 53
167 24 83
221 19 132
247 148 51
240 24 187
47 72 164
117 176 79
245 209 83
77 105 4
179 67 31
121 205 80
241 203 90
207 129 248
117 175 14
100 225 109
36 224 197
132 15 209
169 111 4
139 26 244
163 216 12
110 74 78
162 181 222
82 221 76
23 29 132
106 203 213
166 213 69
107 213 175
225 151 89
229 221 166
17 220 239
251 21 83
34 0 7
24 194 229
37 252 153
74 120 51
9 183 87
128 90 46
255 150 150
211 13 22
124 15 229
254 68 218
2 41 216
17 154 90
66 247 140
175 179 160
123 28 87
143 33 2
62 10 85
94 18 215
34 6 18
176 21 241
216 146 171
243 78 221
62 24 242
0 145 222
50 234 95
56 163 2
84 185 121
12 235 101
237 236 103
199 243 158
131 197 171
247 200 232
214 171 108
122 135 166
138 32 69
79 126 99
222 182 166
161 85 32
28 232 158
89 158 155
20 83 201
171 201 34
63 8 143
172 85 61
18 211 184
76 16 162
83 226 182
74 72 44
198 228 134
227 248 7
182 243 95
117 97 234
132 88 8
178 236 221
36 8 21
131 221 118
158 131 29
85 110 220
41 219 52
88 42 26
125 231 202
190 143 123
2 243 156
18 166 173
133 164 22
116 130 16
196 176 124
124 82 249
18 12 239
176 92 255
120 111 175
170 198 84
199 241 35
113 102 117
109 217 160
54 164 247
146 186 93
198 77 27
176 184 164
147 150 175
68 183 7
27 36 219
45 1 106
87 0 148
124 153 152
131 149 37
97 172 172
191 57 91
123 189 46
36 164 25
4 175 110
187 170 52
5 255 28
101 242 124
115 64 202
196 143 212
66 146 226
28 52 80
54 40 161
131 0 79
61 19 202
48 124 6
128 96 191
15 160 98
203 167 61
4 249 158
126 108 11
72 54 220
117 203 84
167 59 193
114 66 63
12 12 117
57 234 2
39 76 77
21 232 217
144 99 65
245 109 160
211 30 97
44 232 222
56 165 107
216 76 43
114 254 207
23 221 190
42 194 55
112 178 201
89 18 178
182 51 145
207 187 181
91 120 136
250 195 178
231 23 37
44 221 63
23 110 172
64 138 171
111 136 54
28 211 20
224 130 148
19 136 55
206 210 247
108 22 183
26 189 139
94 129 25
180 100 205
197 35 97
28 79 197
24 147 66
253 237 19
172 208 236
224 146 4
247 175 178
252 71 140
101 55 215
113 102 208
172 191 95
75 163 226
145 248 5
47 42 43
86 242 80
180 216 198
14 193 121
125 232 17
213 145 120
184 169 216
252 237 248
64 206 6
97 219 51
96 149 17
154 206 121
26 15 94
206 63 50
240 46 232
109 244 209
27 238 164
212 63 48
223 98 53
163 39 112
239 249 156
143 252 54
72 35 5
212 227 4
146 174 35
134 152 167
177 73 152
37 18 129
121 247 106
5 210 83
0 204 63
210 136 95
56 29 8
130 27 34
46 47 86
105 254 141
10 193 37
236 222 120
14 185 57
54 39 199
51 136 138
112 5 182
16 116 24
84 89 82
74 42 189
151 195 75
67 229 196
137 79 127
165 1 89
110 147 216
255 96 197
174 150 7
118 243 87
22 236 55
225 254 92
57 151 241
244 234 116
227 104 170
200 149 18
233 238 2
19 255 17
96 207 2
176 121 154
90 248 68
224 54 147
66 137 81
247 112 93
204 61 239
72 198 134
131 33 96
244 230 239
218 160 102
19 97 208
82 72 121
66 63 3
240 80 62
137 83 192
185 216 209
99 140 1
218 69 24
44 130 64
155 163 60
207 60 151
141 5 48
119 132 211
143 144 127
18 58 95
185 153 113
77 50 122
43 197 244
190 247 182
42 50 129
98 168 47
128 110 199
71 119 22
30 82 127
232 32 206
216 44 72
100 57 139
65 224 154
26 37 161
162 162 210
234 15 145
9 76 159
214 141 102
47 120 150
86 16 7
16 223 215
36 25 180
231 136 205
106 177 254
221 173 121
132 24 231
92 66 131
154 55 223
165 39 216
251 201 248
19 236 100
5 146 198
244 20 17
83 233 230
61 26 183
184 168 100
20 113 223
66 255 104
101 253 220
249 128 90
167 224 114
23 209 230
105 231 56
99 72 86
234 125 38
180 239 73
250 135 121
15 80 3
72 107 28
43 166 235
212 180 97
230 129 1
73 161 233
224 254 185
41 204 115
164 64 6
207 152 192
172 196 70
155 56 12
140 101 153
142 164 182
154 242 150
82 113 15
237 57 59
255 154 243
130 239 187
229 133 160
151 138 45
92 63 181
85 220 99
217 170 103
37 86 161
113 173 158
90 240 244
20 246 1
26 204 211
197 125 173
144 59 63
171 74 139
11 98 89
143 74 115
181 28 110
0 23 57
239 149 97
120 162 183
20 47 252
101 104 167
123 198 161
91 203 183
177 97 43
205 3 17
71 27 27
61 40 138
249 208 66
152 216 193
223 34 64
111 227 214
178 209 248
177 108 167
105 122 28
87 104 39
79 247 60
39 99 61
248 60 107
159 17 35
160 236 113
200 241 85
9 119 224
117 168 87
46 40 138
242 97 53
135 116 169
0 211 78
172 168 174
236 66 247
40 50 157
121 119 164
119 222 210
199 174 73
119 149 134
168 143 97
113 102 132
241 186 247
199 219 17
183 237 198
135 227 64
171 207 161
215 37 237
240 14 27
253 94 133
95 65 71
172 118 121
62 89 111
88 255 226
143 151 66
185 73 198
9 162 30
207 77 240
223 172 132
238 173 199
80 44 29
88 120 15
139 22 22
57 130 178
166 35 228
135 138 39
9 61 104
197 82 187
236 74 48
32 232 209
49 223 10
152 137 184
30 148 40
230 111 209
80 140 134
21 208 3
55 167 188
136 71 129
92 32 80
97 116 157
25 194 170
85 244 31
74 124 109
240 79 14
227 78 84
199 184 132
24 184 217
111 198 232
159 152 117
3 238 115
215 255 0
50 18 155
239 185 197
163 34 133
193 75 176
168 192 217
175 135 100
88 135 172
11 22 250
179 101 31
217 115 23
211 151 241
25 213 22
7 216 100
82 179 102
129 86 23
37 82 241
132 164 87
108 57 10
121 23 105
161 59 95
49 101 36
151 154 188
178 173 117
65 235 228
130 246 98
229 90 113
172 39 101
254 62 144
44 231 211
72 149 6
71 19 73
34 125 225
12 189 211
247 23 29
194 172 153
126 213 63
52 51 10
227 251 88
57 82 219
80 24 224
177 186 196
123 69 161
224 182 14
23 54 138
65 80 133
23 168 186
196 114 126
147 191 253
83 112 239
3 242 90
125 9 10
108 195 148
21 207 230
80 14 55
114 58 131
206 16 95
6 3 37
10 4 166
17 63 204
246 200 255
22 234 255
80 79 53
174 15 183
48 31 155
170 45 62
65 193 67
141 84 186
33 30 133
115 4 101
208 13 136
7 31 176
14 55 208
180 165 55
155 65 37
153 124 170
22 206 12
96 145 151
33 35 105
16 101 0
248 244 218
157 130 95
110 34 200
102 183 239
148 214 180
15 90 241
224 67 214
189 204 112
157 127 167
0 206 8
183 210 140
189 156 152
253 130 212
158 166 223
12 132 42
219 138 165
34 204 224
49 110 50
167 220 189
239 111 75
189 166 237
2 77 167
114 47 73
171 52 135
221 89 13
207 65 225
31 132 204
218 53 120
174 36 174
21 72 145
194 250 25
93 69 46
31 196 57
46 37 16
20 50 119
249 116 126
93 25 205
52 90 183
63 38 149
236 126 42
34 233 138
152 148 242
35 218 106
85 223 96
103 66 135
226 230 94
109 206 148
156 136 180
190 136 235
207 133 167
20 82 134
189 38 118
143 203 99
130 102 171
12 66 163
0 28 199
217 3 76
126 42 129
243 209 108
161 3 75
130 17 242
112 106 94
54 212 115
93 20 166
168 166 183
168 11 227
85 217 20
97 210 87
6 251 186
72 182 193
178 117 30
82 42 28
164 147 173
217 133 129
96 77 54
244 28 161
104 191 10
255 1 21
244 159 242
176 174 210
29 247 250
170 70 155
91 169 28
26 0 62
114 61 60
219 85 67
77 6 195
253 44 214
49 57 16
182 12 75
112 49 103
181 92 167
7 32 32
237 163 38
118 174 56
63 69 134
69 204 124
92 183 163
48 31 237
22 195 35
247 80 53
72 8 50
0 28 225
224 148 2
114 67 127
168 228 27
29 245 12
14 175 239
238 138 25
189 208 180
41 14 17
43 240 81
133 147 222
9 62 143
72 21 39
120 56 66
30 42 213
69 59 107
121 52 187
110 5 143
92 75 165
70 159 82
178 191 181
55 29 81
104 90 68
55 247 70
146 186 149
158 185 71
216 234 83
53 192 53
47 29 238
218 250 230
12 47 224
48 222 23
133 58 144
13 249 7
246 233 113
205 166 152
247 108 254
23 224 38
72 202 131
53 209 22
67 116 146
151 4 211
9 222 132
108 172 31
73 138 164
157 243 93
122 178 161
134 216 39
237 209 145
177 190 207
159 93 156
195 199 150
76 234 66
9 25 172
125 100 230
109 104 2
85 203 102
177 167 178
234 3 80
56 112 1
218 255 227
29 210 48
35 223 172
137 214 209
126 152 248
148 5 214
87 144 190
53 70 117
8 228 96
141 60 136
57 249 101
122 91 154
246 35 102
132 232 114
243 173 2
77 72 129
229 216 102
251 192 76
187 240 172
40 175 87
226 167 29
165 119 57
55 115 12
52 75 164
197 39 82
123 29 30
159 98 225
102 178 46
188 77 80
234 112 48
113 244 104
111 252 241
16 9 138
130 21 252
234 167 79
227 27 30
197 38 25
20 215 142
254 32 44
6 130 220
178 168 32
222 146 253
3 152 141
68 31 193
118 78 96
149 243 87
239 11 47
67 114 219
238 20 217
165 49 115
211 134 12
201 195 62
57 81 112
215 141 254
248 165 242
80 146 195
144 85 95
60 26 118
42 133 102
80 195 94
18 35 80
116 14 19
81 5 150
51 237 10
122 240 43
40 87 85
94 48 98
69 177 244
146 0 96
11 137 154
65 217 176
202 186 178
12 65 134
244 127 196
12 204 245
183 29 201
141 22 65
11 96 95
89 46 47
23 148 97
27 129 168
131 83 5
160 66 64
216 199 252
240 141 183
228 235 147
132 146 140
48 175 65
87 130 94
65 155 132
88 32 48
95 103 87
255 183 69
161 163 82
46 131 74
152 175 122
117 144 117
9 152 92
16 165 56
183 210 11
71 253 100
128 39 199
135 24 49
60 251 209
208 253 224
217 15 87
208 219 96
17 218 236
169 141 91
238 131 43
233 183 169
19 228 210
223 54 239
38 57 84
130 137 98
162 166 140
95 152 219
191 86 169
119 97 74
150 81 155
244 223 106
198 104 144
8 201 210
86 66 255
81 119 132
123 34 156
179 169 121
136 30 220
94 118 61
138 112 76
218 131 44
65 111 201
88 233 214
96 43 154
38 249 255
239 123 105
144 197 40
167 221 140
165 183 224
105 65 216
48 113 45
187 96 148
92 10 149
79 205 85
19 210 129
10 173 34
166 216 192
205 192 12
244 74 137
121 99 138
143 71 4
55 56 159
30 78 156
74 152 14
139 90 159
65 227 57
63 146 137
60 219 28
168 26 15
180 183 168
19 173 19
185 247 168
96 88 211
237 7 100
23 103 230
153 19 192
89 193 185
161 152 76
9 205 205
9 0 213
1 34 244
14 102 121
36 177 35
144 144 130
212 75 128
25 191 120
11 133 227
166 172 146
248 20 120
76 123 140
235 48 207
14 123 78
239 252 79
60 223 233
239 169 16
65 73 106
221 0 28
84 149 93
67 48 161
197 206 224
168 220 113
48 45 170
32 162 11
56 38 168
5 246 92
208 214 14
104 69 186
79 151 211
223 253 152
64 194 74
100 209 55
110 228 17
161 242 246
161 208 106
166 223 67
212 183 237
225 107 108
204 137 23
23 230 182
246 154 22
110 120 161
80 245 26
121 209 177
104 199 148
143 218 210
36 30 154
107 117 205
87 61 198
138 6 57
152 119 143
168 235 132
92 97 102
161 157 158
244 168 98
65 152 90
196 122 104
246 49 202
140 93 211
118 116 238
171 47 69
88 45 170
34 126 252
125 127 55
41 250 240
168 50 19
0 23 33
173 34 133
80 101 175
226 80 163
228 215 109
60 36 59
90 49 71
149 117 134
146 215 114
53 124 135
28 154 35
208 110 133
119 146 162
216 211 48
109 64 35
34 199 237
149 209 78
220 13 41
202 25 206
114 197 209
129 106 39
142 104 212
74 178 75
246 253 88
62 15 192
204 126 107
146 182 153
241 223 124
241 141 119
201 253 227
50 156 208
218 64 70
41 43 242
39 145 185
184 77 6
162 144 98
91 157 10
169 79 238
225 49 106
27 129 182
217 95 129
49 89 197
56 71 68
90 12 93
46 153 57
49 216 28
77 229 156
147 239 39
245 187 37
183 198 186
95 118 191
31 204 154
9 199 144
251 161 49
179 70 215
46 227 151
153 218 92
115 4 30
179 18 197
154 216 112
245 121 193
22 204 173
244 120 83
130 213 59
184 122 241
94 169 81
233 27 192
110 216 6
146 227 143
201 51 239
143 36 245
150 191 121
115 254 180
197 160 165
235 117 9
89 93 60
91 74 72
140 241 165
48 175 149
239 152 74
119 42 26
75 28 55
0 12 226
215 92 184
62 173 234
34 166 86
149 11 155
29 3 103
3 166 11
93 82 74
129 186 222
72 47 56
247 171 140
241 239 130
241 189 8
126 253 155
181 229 66
233 113 38
137 61 127
206 175 237
159 72 107
210 171 150
53 5 204
82 60 213
239 78 109
59 159 177
242 210 102
235 174 40
178 178 203
129 27 114
141 171 215
143 53 148
58 86 141
213 130 51
122 213 155
53 136 88
85 224 180
42 243 165
206 81 252
52 251 50
12 167 221
185 22 131
117 136 135
2 135 75
69 165 214
112 201 53
40 164 73
125 31 69
129 54 238
127 111 4
64 85 88
198 36 194
148 246 173
142 200 148
74 110 214
201 3 210
171 220 250
44 35 72
96 158 243
223 30 133
48 170 49
45 98 255
100 223 29
108 151 122
129 228 137
32 67 128
122 169 212
154 204 75
225 198 168
38 96 50
93 77 163
4 161 181
162 161 199
122 16 192
146 214 244
40 20 56
223 21 227
200 220 37
178 235 252
182 210 155
242 22 166
95 55 54
213 102 212
231 107 134
170 157 196
1 44 103
186 72 206
60 186 190
4 19 207
44 49 40
211 96 150
105 89 53
213 210 62
143 47 145
246 47 131
120 103 73
116 98 55
121 110 117
97 202 152
153 62 64
202 211 221
59 57 213
226 41 204
37 242 114
223 119 184
225 180 91
28 220 198
54 39 249
64 203 176
23 50 162
223 230 244
24 98 138
93 212 138
179 124 234
64 226 90
73 73 45
185 114 100
191 192 156
150 227 68
24 105 150
17 201 196
161 191 131
42 228 221
156 167 32
100 210 192
98 8 96
181 87 163
72 47 170
225 240 146
170 167 227
53 189 22
85 36 48
217 139 175
110 201 171
202 4 36
48 42 202
48 83 77
59 239 93
52 183 19
11 13 164
55 238 138
104 116 52
65 187 101
18 154 232
23 18 11
16 61 130
99 195 110
170 91 164
214 55 11
21 235 198
218 158 54
63 216 123
68 235 3
50 140 236
241 89 141
42 40 130
106 225 238
23 112 204
248 116 253
45 103 125
213 2 189
165 17 11
15 60 91
189 221 203
237 161 223
113 248 30
149 139 44
117 196 155
143 244 193
239 52 117
9 78 247
234 80 52
167 205 18
133 1 37
185 76 241
237 4 186
30 96 176
126 38 10
68 24 181
216 116 43
16 248 177
37 154 85
241 74 8
245 9 175
183 89 124
196 102 248
106 80 152
16 213 12
117 15 74
2 106 84
77 164 181
18 129 197
94 115 255
126 55 41
62 61 64
142 38 201
104 171 242
72 152 181
131 157 130
161 99 132
138 142 134
29 2 113
90 165 191
159 193 123
209 92 167
146 204 189
171 172 208
89 41 224
170 210 23
9 241 77
235 81 226
59 173 105
52 203 214
121 17 241
165 51 116
162 79 200
202 210 139
139 171 10
7 86 56
109 17 0
35 195 141
179 93 23
116 5 21
236 5 102
245 42 21
184 217 129
108 66 58
99 134 203
52 189 221
200 129 122
161 30 104
149 223 242
127 4 17
43 111 149
222 56 220
105 195 3
55 194 222
20 32 48
234 2 220
93 145 78
119 17 116
50 36 110
132 197 238
194 129 80
125 80 195
111 58 134
164 57 95
211 2 32
90 249 11
117 232 22
164 113 61
180 234 151
207 24 26
171 233 242
60 140 253
227 65 61
233 164 252
173 187 76
184 204 29
97 187 205
74 89 177
176 134 246
168 100 190
119 42 69
144 197 90
40 37 93
215 165 38
24 84 168
56 66 100
113 81 83
47 179 225
128 175 53
207 35 192
98 253 121
168 229 244
3 231 243
27 78 89
235 132 180
29 174 60
204 9 99
59 134 66
42 48 216
42 104 21
100 138 56
162 138 78
132 215 25
15 81 120
147 235 153
105 250 95
210 85 67
2 189 30
7 22 149
156 25 221
27 240 34
240 72 49
148 54 232
67 82 57
129 116 84
207 220 39
113 195 253
142 12 114
191 56 83
44 63 15
111 120 239
150 117 127
209 35 162
131 71 78
103 85 85
36 123 191
176 111 132
57 230 41
173 176 93
183 252 217
11 204 223
114 147 182
216 57 24
240 106 36
123 212 23
97 111 26
172 107 176
155 247 211
223 69 125
232 18 160
214 119 101
201 161 57
95 72 44
179 51 250
144 237 169
3 3 200
79 87 25
152 138 238
89 26 126
224 151 66
42 187 118
24 61 245
47 78 55
243 95 181
225 254 137
20 119 114
6 162 38
225 192 117
173 206 75
45 243 25
119 189 184
155 26 56
159 29 82
95 229 198
65 239 198
137 178 7
132 181 144
118 136 55
10 134 13
95 52 225
8 39 136
174 46 138
82 158 134
80 26 149
250 153 203
128 199 134
135 139 140
73 77 229
40 137 10
75 200 181
13 26 108
59 162 219
251 155 60
6 239 23
182 110 239
144 235 172
255 45 100
45 2 158
76 132 108
219 207 44
21 145 95
225 190 5
133 179 199
244 190 149
150 221 86
220 33 37
225 44 227
182 170 175
113 196 31
164 105 70
211 215 220
36 223 153
69 78 47
231 94 137
129 242 28
89 218 61
14 240 66
241 154 208
101 129 208
110 158 33
121 74 92
68 105 230
166 157 83
103 31 189
145 232 5
112 184 0
160 52 16
67 83 242
153 225 24
183 190 105
174 226 213
205 55 81
254 239 18
231 98 252
111 62 51
38 143 208
232 115 179
222 208 52
151 248 101
47 19 102
132 23 2
183 243 121
190 243 11
30 194 109
179 32 201
186 88 145
238 120 111
204 240 159
182 219 166
4 63 113
137 214 31
205 108 88
100 90 174
88 9 56
75 120 205
245 108 133
33 241 173
62 242 42
158 244 219
164 177 111
64 208 74
92 252 165
77 26 144
197 44 61
25 157 157
13 120 163
87 119 202
52 147 71
31 44 59
22 22 73
39 122 109
75 13 198
28 255 116
231 17 17
150 195 130
2 6 231
101 87 63
118 117 198
172 166 29
0 156 205
99 147 158
127 14 239
238 254 200
86 35 119
228 61 128
223 226 39
173 93 176
54 15 110
172 10 153
234 223 48
167 176 146
47 105 24
67 159 56
218 138 240
170 156 204
146 125 86
85 209 40
68 36 216
254 5 171
176 95 127
62 220 229
14 120 116
5 194 81
96 209 236
23 235 164
178 229 136
55 121 179
58 18 25
44 244 137
107 228 138
119 249 156
136 224 139
5 134 241
48 58 138
61 214 232
139 16 153
239 102 182
148 105 164
206 231 46
160 119 237
105 8 141
157 218 111
157 231 95
149 231 6
239 221 12
49 93 91
85 50 165
121 169 163
158 180 43
234 211 182
80 83 219
167 88 107
53 55 71
219 19 2
212 72 8
245 183 242
46 169 223
117 21 164
122 152 173
91 31 195
163 159 153
86 43 170
181 7 196
40 14 105
145 91 234
31 135 16
2 102 224
110 110 254
69 39 251
106 151 222
58 162 35
253 92 177
3 18 162
0 79 137
227 171 215
104 245 41
44 117 23
144 49 152
20 138 151
4 25 88
17 85 152
198 17 63
46 91 244
150 153 116
140 105 152
185 119 117
47 12 230
164 22 68
8 56 218
11 210 138
219 190 156
168 130 212
242 173 93
166 177 74
41 131 130
84 240 135
197 116 80
62 220 101
39 138 174
25 104 205
56 37 195
43 212 232
216 173 29
14 39 219
99 167 198
195 126 79
152 184 124
128 109 31
13 90 44
150 28 54
202 222 53
99 25 98
101 38 11
51 20 97
70 82 119
148 107 201
192 67 29
139 154 216
171 236 207
231 150 178
242 174 40
19 231 61
54 45 181
38 67 43
239 36 58
0 104 10
228 82 177
185 50 26
173 92 45
165 3 155
87 231 48
212 145 108
250 103 53
119 3 228
118 36 197
236 50 51
44 221 12
67 162 179
147 144 106
217 29 176
213 71 137
121 1 215
5 154 168
116 83 221
83 234 251
93 176 167
144 196 210
213 143 67
238 28 218
126 107 223
106 19 66
157 115 105
72 69 210
139 80 103
114 156 177
151 123 170
92 112 9
246 52 183
7 75 202
107 87 39
206 196 112
30 116 108
97 137 229
178 244 14
30 176 16
36 5 211
214 159 7
86 4 79
94 153 12
76 61 56
21 186 134
22 221 39
226 89 53
109 29 247
249 218 86
177 91 171
97 132 119
60 107 111
92 8 134
58 84 219
127 139 205
47 104 225
3 130 113
40 155 149
107 52 3
99 208 229
209 120 81
27 191 38
97 216 200
168 41 27
37 128 10
208 108 13
30 152 162
140 39 28
128 36 5
148 84 156
37 179 254
58 19 202
158 132 164
113 195 116
13 3 247
62 93 107
140 44 201
81 207 40
164 106 19
209 136 81
5 65 101
183 8 87
57 98 54
244 28 120
126 174 213
217 63 149
89 176 26
249 79 253
54 31 165
197 12 69
165 15 150
79 80 29
67 237 100
193 25 108
78 49 88
93 39 91
72 228 13
107 147 153
226 227 171
24 226 187
93 76 22
117 105 204
115 230 107
134 113 229
111 215 236
117 210 31
156 203 204
41 42 35
186 5 6
105 34 161
133 60 163
134 4 46
113 75 213
159 72 237
119 206 231
152 212 189
186 16 84
133 160 132
54 185 41
146 187 85
67 2 115
88 213 158
209 99 192
62 170 148
186 38 147
54 152 92
74 62 58
121 54 87
182 163 95
170 144 213
98 169 255
111 245 176
80 61 8
79 90 4
225 243 71
244 184 243
242 66 14
127 185 43
54 49 104
193 118 151
28 143 59
181 161 116
173 79 160
116 36 107
72 66 226
54 52 84
201 181 2
215 114 18
60 186 156
231 240 83
92 157 124
57 19 118
69 24 169
217 184 249
27 170 131
172 156 123
50 78 5
116 105 224
184 253 241
17 45 201
123 82 149
88 156 85
87 7 156
60 82 254
27 112 96
217 5 40
119 62 207
94 249 88
59 71 33
102 120 238
31 33 167
173 148 225
40 165 115
18 139 174
134 37 24
228 223 64
169 73 90
216 13 157
208 6 247
183 200 235
200 115 154
214 126 51
23 95 247
139 114 102
113 128 53
79 148 136
51 131 128
226 123 82
40 65 181
208 122 216
26 240 183
200 52 119
138 186 211
227 251 171
168 148 147
66 45 76
83 21 65
226 157 186
177 84 25
253 157 222
239 238 10
199 138 112
19 72 20
201 241 179
201 156 164
64 210 50
144 116 253
170 64 48
203 42 185
184 206 245
122 130 81
11 89 51
119 58 3
64 191 8
183 129 73
69 71 106
2 186 11
1 213 226
249 98 251
110 76 255
170 26 71
210 111 196
30 35 169
222 197 230
151 127 50
159 236 94
38 163 101
13 247 147
127 22 67
127 239 105
76 242 250
194 25 155
114 215 209
83 59 30
153 152 140
221 197 205
84 198 95
195 240 238
50 204 105
128 249 217
198 124 202
68 15 163
124 56 9
208 120 1
43 227 174
245 125 50
180 40 18
52 122 213
16 138 194
87 156 160
175 143 200
186 236 111
106 86 190
4 171 48
30 68 226
122 211 137
240 243 189
81 254 15
57 171 163
240 21 113
126 6 202
159 103 180
85 122 146
64 181 162
90 144 22
215 34 194
63 240 110
175 224 197
187 93 69
69 98 146
25 28 27
74 243 17
137 95 123
179 138 254
75 244 136
131 77 101
147 57 221
79 139 155
134 122 92
129 206 81
94 157 134
237 174 79
84 87 31
126 160 210
246 254 24
98 97 99
231 87 13
146 187 159
195 98 18
99 151 16
103 82 245
210 83 144
58 145 57
21 215 208
212 226 255
49 224 175
168 75 95
147 66 135
110 211 44
6 165 178
60 84 101
217 47 158
206 155 107
115 21 60
255 183 222
1 221 2
106 241 14
180 80 219
176 172 108
133 94 20
3 235 125
26 47 45
91 79 55
103 190 174
248 146 129
48 47 158
122 207 17
147 255 51
131 106 46
179 173 202
105 248 159
101 132 78
249 83 58
230 61 172
128 253 163
140 176 142
63 220 151
64 249 221
54 86 14
144 196 82
247 184 104
143 114 47
212 59 237
7 112 194
231 14 233
147 208 39
159 99 45
218 101 210
35 208 36
106 240 110
28 157 219
106 165 126
104 95 43
201 241 19
62 189 236
194 125 41
172 78 199
27 254 100
244 77 3
145 30 217
35 160 150
152 123 79
11 96 103
58 84 79
142 40 26
166 134 232
118 31 213
65 85 75
179 248 224
67 154 82
100 73 231
54 120 138
131 118 245
100 154 23
119 41 117
126 27 12
35 218 79
89 117 162
217 6 190
208 45 47
105 172 66
228 138 27
222 163 238
18 9 84
111 87 251
143 134 239
5 103 164
240 120 106
102 213 1
143 205 237
63 77 49
7 221 104
211 23 21
168 175 65
246 97 202
167 218 249
102 80 3
37 214 9
218 143 18
46 138 164
31 1 215
245 240 248
70 127 152
63 88 50
227 61 214
214 47 16
191 44 182
250 56 61
139 159 26
234 218 230
45 35 84
199 48 16
8 16 220
57 4 207
45 39 73
6 159 201
97 250 107
43 215 70
238 105 189
28 89 68
248 110 35
195 182 76
110 220 97
91 184 129
237 156 4
254 32 64
123 150 114
52 120 223
78 203 237
254 193 47
128 75 219
157 24 191
196 107 120
83 11 67
50 233 90
221 149 136
144 97 93
248 250 41
8 127 193
58 203 52
51 6 216
213 192 60
246 202 114
3 87 0
151 8 196
250 126 196
115 212 109
177 168 47
11 221 219
20 98 120
7 31 230
249 1 235
58 52 212
64 75 250
19 233 38
65 187 236
224 139 36
182 182 104
234 198 158
220 183 147
38 245 48
88 75 104
193 52 38
31 209 169
67 71 199
174 73 202
116 38 108
200 156 44
205 65 166
2 21 59
50 88 162
13 163 30
207 183 74
91 20 8
113 150 193
170 255 219
159 155 146
76 173 206
34 59 148
165 91 159
22 95 225
138 82 227
82 37 112
169 131 211
218 104 175
115 146 209
100 151 94
58 249 211
157 108 7
156 172 6
48 15 110
187 189 57
46 113 214
53 219 41
128 110 142
148 117 225
160 148 250
244 74 250
167 232 42
182 240 218
216 64 120
166 163 236
21 186 220
83 121 143
136 70 150
102 5 219
194 173 237
227 133 217
140 186 127
41 11 225
56 203 142
179 210 219
247 49 47
151 99 121
210 236 121
225 141 71
142 167 53
152 155 218
36 177 233
145 168 3
138 153 122
255 70 87
38 76 168
199 99 101
239 37 188
149 172 158
156 162 111
153 38 182
5 88 134
78 178 1
136 184 186
247 237 232
195 166 116
121 169 194
39 137 142
241 142 96
189 60 40
116 98 254
116 27 82
6 33 250
166 116 54
100 189 2
43 100 235
172 205 238
139 68 9
189 112 192
237 134 225
129 245 81
248 78 180
138 120 150
127 26 170
92 243 89
104 150 11
200 6 189
136 90 126
220 221 118
150 43 233
21 210 223
105 117 185
144 2 8
164 5 165
233 6 183
163 76 125
251 78 205
162 88 167
236 120 162
6 240 25
235 86 131
105 239 146
103 19 131
113 174 85
56 190 63
210 52 108
4 234 128
130 35 86
169 60 236
189 103 134
96 49 219
102 231 142
205 36 67
100 237 22
31 157 87
188 65 149
51 102 106
43 167 236
135 245 39
212 32 100
245 239 20
212 191 41
249 207 111
114 149 65
150 176 229
170 185 133
23 18 70
40 92 201
25 165 238
250 148 243
135 19 134
66 210 143
186 247 230
181 247 165
137 17 153
86 24 105
136 193 68
91 100 222
39 31 156
207 121 156
142 131 1
111 9 206
254 68 148
9 217 26
174 135 240
253 236 250
195 30 47
104 160 139
162 39 58
129 236 55
230 224 103
120 134 130
64 15 34
43 115 82
38 57 40
255 163 51
245 22 84
23 108 215
57 61 39
70 67 243
28 223 87
135 143 7
72 141 110
192 239 9
37 208 217
167 88 211
98 146 193
171 68 69
69 196 139
1 173 167
1 111 166
4 200 122
167 146 40
64 189 40
4 171 85
158 210 168
41 12 219
113 31 157
135 25 222
85 17 194
110 128 233
111 206 17
240 152 53
1 134 147
0 135 199
90 247 139
216 191 81
144 60 170
164 38 123
66 30 21
251 229 217
32 153 192
243 64 202
77 160 206
56 63 102
217 193 235
149 82 214
151 210 160
64 153 173
43 251 58
75 86 235
240 136 190
20 106 42
87 242 44
75 242 61
38 181 30
1 174 115
8 141 1
165 239 199
51 250 5
113 85 161
15 224 169
165 181 231
229 185 124
198 202 247
112 180 44
36 202 220
79 173 254
122 1 42
41 42 197
32 229 34
50 137 156
126 183 98
114 60 86
143 59 145
180 11 208
164 241 56
98 202 105
80 214 190
30 1 155
151 67 104
128 32 63
12 52 114
104 148 153
24 33 231
186 28 100
113 84 132
0 26 88
34 91 166
40 201 151
178 184 85
156 173 219
119 21 115
164 248 224
142 58 250
219 184 133
171 209 166
166 31 77
233 243 75
37 60 218
189 76 94
48 56 169
190 254 53
159 2 32
34 71 72
160 215 206
14 152 161
225 10 44
66 184 189
239 75 4
202 157 161
23 61 22
88 81 95
108 19 181
124 50 82
67 8 83
250 26 156
2 202 188
44 164 239
157 17 84
149 20 251
124 32 251
241 43 43
74 236 101
26 38 31
80 62 178
183 253 255
117 91 188
253 111 152
94 176 169
39 154 202
130 108 181
224 110 182
91 134 245
232 102 7
244 227 27
232 63 47
27 136 74
48 173 135
90 86 133
173 158 51
119 91 164
2 145 189
175 114 254
234 160 73
203 13 75
102 154 39
91 81 208
162 4 85
100 66 139
81 106 210
254 161 235
113 33 247
149 199 52
225 101 184
138 32 11
66 14 198
114 164 187
198 104 26
198 126 23
247 121 77
106 11 115
17 202 247
89 30 116
27 213 67
246 164 253
120 18 182
67 176 193
122 194 147
35 163 213
77 127 69
122 120 105
35 25 106
29 199 214
129 89 89
14 209 46
165 105 63
182 192 164
175 183 252
11 147 17
223 110 118
52 147 204
163 245 90
242 60 180
40 213 232
212 29 236
229 110 122
3 90 193
236 215 5
151 213 109
50 79 7
0 177 178
129 100 78
176 151 124
199 96 66
138 124 190
180 121 39
127 130 49
254 146 115
128 167 217
183 59 13
189 130 148
154 9 216
137 116 61
154 169 224
93 70 71
80 118 118
36 101 42
131 96 50
25 212 16
128 31 0
5 25 213
164 74 88
129 90 105
134 176 3
147 95 98
33 212 226
49 199 96
41 240 17
182 7 109
249 195 106
77 134 19
128 229 211
97 251 193
242 209 131
102 187 96
186 107 50
96 222 10
9 214 238
225 169 179
196 201 105
195 166 252
63 177 103
11 44 44
95 126 31
116 74 21
26 246 182
82 238 233
38 157 67
121 32 114
55 229 104
239 92 104
108 251 77
163 114 135
169 191 231
125 242 198
185 157 138
1 165 166
45 186 3
247 19 99
140 245 211
105 80 183
106 54 201
32 194 218
112 158 89
57 179 244
160 203 70
195 236 78
63 73 55
191 127 168
102 222 174
35 201 247
157 85 209
234 137 239
126 209 16
182 103 123
54 18 72
143 215 69
157 113 53
246 226 118
159 118 79
30 240 96
1 25 151
203 179 6
3 42 238
194 227 70
88 11 124
25 0 45
186 92 225
1 8 76
114 157 15
96 182 7
81 242 166
148 162 186
56 43 106
241 57 133
178 60 232
10 22 247
215 254 220
108 250 32
113 132 10
201 88 50
118 91 103
209 5 141
57 113 38
200 170 207
203 43 122
164 11 56
4 92 1
144 189 250
79 90 8
217 170 73
103 159 251
78 153 140
4 218 177
110 15 215
23 222 3
25 164 245
36 127 207
184 41 216
97 183 130
187 24 6
189 248 201
207 244 119
112 96 88
5 219 164
8 246 48
134 146 216
146 106 227
239 147 243
47 146 169
128 180 199
33 199 108
74 87 248
145 158 91
82 181 15
131 122 60
48 134 31
161 102 3
141 250 228
86 124 78
36 142 92
88 137 137
123 164 27
164 76 103
219 41 24
57 35 107
41 121 217
235 142 16
119 40 107
96 169 253
110 42 27
107 134 238
183 21 50
130 132 133
7 197 75
48 175 185
46 23 171
67 62 37
221 102 99
37 3 176
34 199 244
143 145 206
99 224 112
146 219 22
139 224 252
80 62 33
193 73 243
147 180 251
158 166 82
194 5 207
87 183 79
195 63 202
14 141 207
128 37 174
85 185 255
36 104 87
52 5 138
239 186 158
244 34 47
203 236 233
186 4 170
81 139 218
255 191 120
120 189 115
191 145 99
81 141 156
134 171 236
120 191 83
236 125 58
203 109 33
244 208 73
202 52 125
102 92 20
97 62 46
172 219 17
14 84 2
217 187 234
122 168 217
118 135 251
196 68 174
181 34 217
91 43 71
172 168 246
176 6 120
246 201 91
157 180 228
0 163 189
224 227 183
70 252 134
109 90 1
215 207 46
16 245 134
168 86 54
62 135 248
185 241 42
112 213 247
168 28 49
218 135 182
0 92 83
246 166 8
32 206 216
89 163 80
44 108 103
231 5 134
166 8 193
205 41 60
159 31 169
33 129 23
118 236 145
45 148 96
149 57 97
128 170 214
17 26 85
184 23 244
99 5 244
40 84 235
237 148 204
63 191 172
96 170 138
108 199 253
132 93 98
235 172 193
35 114 184
167 2 55
207 43 246
145 255 29
67 17 204
192 65 16
245 252 106
81 63 22
62 187 94
214 108 24
144 178 153
183 64 213
194 181 111
249 189 212
217 73 68
161 114 247
90 253 134
67 251 205
144 208 83
213 253 43
189 194 164
143 165 117
254 177 253
224 211 236
7 254 211
187 198 225
152 142 175
29 186 79
139 239 71
63 175 213
10 159 39
112 131 46
214 38 134
207 145 223
194 6 162
149 136 178
82 211 207
182 93 213
140 159 167
45 222 54
44 60 33
201 8 98
154 96 73
70 75 142
87 0 98
126 217 112
120 106 40
240 171 153
105 73 178
94 215 144
147 223 24
77 72 110
66 62 42
159 214 108
19 25 68
22 122 67
247 207 60
113 46 78
246 255 8
200 220 124
255 174 31
112 221 21
88 216 57
204 22 244
43 127 0
177 120 71
32 150 250
24 129 162
240 161 178
231 87 41
1 126 198
121 146 46
128 13 56
61 195 169
112 209 75
31 121 135
66 117 5
204 0 125
218 16 203
121 153 114
26 164 174
127 161 115
2 197 52
150 136 22
29 177 192
228 86 189
243 82 60
11 229 93
227 246 44
208 249 70
101 208 157
214 253 177
109 2 183
144 240 99
57 249 172
118 94 193
173 123 176
10 2 166
183 190 21
81 233 155
120 104 165
85 61 131
82 112 17
126 212 71
4 241 68
247 212 164
87 141 136
93 148 189
60 43 135
234 102 0
176 117 48
209 138 217
109 14 199
216 74 175
57 92 44
56 185 88
146 85 5
0 237 163
137 27 198
244 190 111
23 43 251
104 9 228
149 33 240
149 107 164
75 157 165
10 68 214
44 79 106
161 251 221
119 171 163
83 238 27
190 141 19
3 49 71
101 56 171
45 37 62
44 209 131
156 201 190
152 34 162
148 225 227
41 228 245
34 234 213
144 220 244
167 202 67
148 167 8
94 140 205
28 181 214
8 107 228
164 3 203
29 98 190
177 233 162
59 97 116
68 18 144
81 4 162
37 206 35
25 209 211
127 154 4
233 145 139
37 79 92
254 190 24
85 64 186
245 181 164
191 48 230
144 93 215
24 8 71
172 210 237
177 141 150
190 113 128
23 26 9
59 242 156
32 173 32
190 160 223
179 43 158
39 170 111
68 117 131
146 205 110
195 170 167
239 146 21
188 92 80
12 32 24
82 87 179
151 60 94
222 1 207
121 41 232
137 192 151
78 132 217
33 233 8
219 146 220
207 91 239
154 125 40
195 154 104
67 7 187
62 151 239
159 121 87
248 164 176
251 2 21
91 19 185
246 194 254
21 179 236
179 174 33
116 134 228
159 228 254
253 77 77
75 222 218
29 141 66
145 111 48
195 195 101
83 190 194
250 254 171
245 193 226
110 217 143
235 152 135
210 185 25
70 242 58
196 206 77
88 242 6
88 74 26
110 182 246
105 206 4
183 217 146
153 83 132
249 133 227
37 7 160
61 54 6
213 162 253
186 84 68
182 167 102
37 116 145
51 80 142
161 101 4
197 76 162
87 184 123
213 109 143
60 198 127
147 215 20
115 207 190
60 173 166
164 96 113
179 239 120
177 90 107
16 242 120
189 208 181
234 94 171
203 6 11
229 237 166
152 197 226
225 10 166
83 89 28
209 98 42
17 8 12
144 218 228
190 243 112
81 241 100
87 139 169
246 144 109
109 112 99
105 219 189
27 116 79
60 103 72
233 82 48
118 99 176
212 203 82
63 152 102
35 83 124
151 109 24
98 39 95
166 42 167
63 47 245
208 20 247
188 195 197
237 231 125
29 176 14
199 89 100
172 175 243
25 94 146
193 193 161
61 164 75
140 232 92
153 99 180
88 82 103
30 123 156
173 195 143
172 211 27
101 33 30
181 132 120
217 16 40
234 171 145
191 85 251
201 251 244
132 35 87
188 65 222
72 183 181
23 232 32
177 211 139
19 207 15
249 192 52
80 51 207
10 147 220
187 214 36
205 164 173
90 170 134
41 163 242
106 214 239
1 229 57
182 226 206
225 138 24
173 226 131
219 240 81
226 45 131
215 165 8
223 28 82
150 56 163
18 154 243
251 53 107
144 33 218
160 233 164
57 82 215
145 137 103
207 92 3
18 95 87
251 151 79
70 174 232
254 64 62
65 98 14
33 107 197
84 244 72
107 116 139
224 125 129
23 56 75
47 229 168
147 56 204
33 68 14
44 86 131
32 88 224
38 241 95
116 169 73
170 40 54
115 179 63
43 171 232
157 166 181
47 166 116
130 232 129
102 205 67
216 250 185
89 184 70
8 33 217
14 88 241
173 110 12
206 75 0
222 252 126
167 8 243
226 39 194
87 160 122
45 202 175
140 94 197
189 91 245
252 2 230
121 124 9
47 76 29
73 194 17
231 178 177
57 188 234
200 158 146
205 169 66
215 196 168
30 83 243
45 95 157
176 74 251
213 234 188
75 79 43
209 187 17
249 92 197
114 105 231
91 142 54
73 177 211
208 239 39
198 54 220
215 197 250
169 4 154
242 84 154
97 156 253
253 15 243
187 16 32
222 176 145
55 181 136
95 185 198
244 111 14
35 164 191
169 124 135
215 92 70
229 220 222
92 149 89
210 41 87
220 173 231
196 49 17
186 127 232
220 253 142
95 142 101
218 6 10
161 138 143
240 194 8
173 118 148
215 149 82
212 182 149
134 132 109
142 133 82
74 53 71
241 17 56
180 81 24
33 175 0
172 237 197
203 91 163
248 82 58
125 227 21
26 73 193
0 123 241
88 78 236
228 47 48
176 179 125
129 191 153
126 255 205
231 235 16
62 135 93
182 87 50
13 62 43
221 60 245
177 17 38
170 36 112
65 211 17
207 196 238
123 1 19
246 223 230
127 110 50
89 159 4
183 137 155
29 135 238
45 220 62
27 63 25
95 62 127
207 45 32
168 197 212
143 9 88
159 92 83
130 167 84
71 185 135
79 201 247
103 79 233
152 171 108
129 118 180
142 226 97
75 215 159
70 56 134
213 85 225
117 171 250
94 14 194
162 102 54
58 161 185
15 231 175
161 105 161
93 171 125
192 138 52
135 186 158
126 188 202
30 91 90
131 151 190
114 140 80
24 24 87
14 214 131
33 220 153
143 235 156
92 240 15
185 181 136
209 93 90
201 119 22
206 9 49
122 146 24
157 214 209
155 188 206
97 179 59
210 112 142
135 198 167
141 160 130
51 240 55
89 196 125
47 91 37
220 48 132
122 31 43
34 55 173
41 234 122
149 238 164
142 18 21
52 172 0
73 62 80
156 226 167
173 209 108
159 135 254
185 52 232
193 232 149
34 180 94
61 207 121
197 142 198
214 255 1
217 113 131
131 171 62
99 112 0
176 11 156
56 179 168
252 98 252
71 228 3
126 3 4
222 0 49
75 102 166
100 161 224
102 175 159
39 201 78
213 104 43
37 7 89
249 57 17
131 213 17
252 183 136
20 89 37
110 121 219
81 132 84
207 11 4
170 227 197
200 21 130
75 195 35
163 62 153
174 210 154
50 31 38
104 173 209
220 55 251
18 203 246
214 4 224
47 118 190
130 66 255
150 33 202
21 83 183
199 121 5
134 129 220
167 212 249
140 124 61
159 86 63
206 59 70
17 108 56
103 155 37
88 186 20
221 129 31
24 229 116
222 19 68
115 131 116
142 218 161
40 80 218
45 62 18
23 234 49
146 52 213
254 114 161
161 180 234
121 241 206
162 68 175
90 75 94
89 13 91
163 169 213
5 145 4
93 219 184
52 34 132
166 68 31
64 52 182
100 210 82
54 8 149
86 55 86
216 142 156
244 234 42
31 220 216
47 84 33
241 193 189
175 211 3
83 196 144
247 137 206
35 241 225
19 141 72
210 255 24
63 144 108
77 59 195
153 123 168
130 74 250
234 145 176
102 9 110
12 69 251
147 212 177
15 131 18
33 123 166
24 23 33
47 224 221
201 167 63
108 67 131
150 236 99
21 186 80
197 18 80
21 11 219
196 64 212
234 163 84
214 12 230
73 144 130
8 80 184
143 117 196
254 203 252
161 246 232
241 171 242
82 119 110
5 154 208
227 72 250
24 20 159
35 31 24
106 116 229
51 189 14
27 95 160
79 242 222
117 108 124
7 83 224
237 254 61
137 33 168
29 84 29
148 92 1
190 192 158
35 147 244
232 35 27
161 143 45
88 254 203
208 77 148
136 11 114
27 216 20
93 174 69
98 150 134
202 123 114
104 183 34
231 101 208
58 95 2
147 97 44
93 24 215
106 177 125
199 24 49
170 99 79
234 204 142
158 240 166
68 83 4
127 204 208
177 251 141
212 2 110
145 155 179
171 88 93
136 12 107
119 1 67
45 5 161
70 7 36
26 61 106
246 133 172
245 132 62
245 229 67
16 77 219
133 99 176
240 101 226
118 63 225
30 77 237
230 224 110
244 176 64
54 149 171
34 37 211
89 180 117
65 227 178
212 111 232
46 245 6
49 72 160
245 109 70
88 57 127
21 0 126
202 96 144
128 218 70
113 100 79
47 155 139
210 82 56
113 195 149
111 168 177
179 170 166
63 166 4
84 15 209
215 148 46
70 71 106
10 140 94
216 215 130
24 136 138
116 50 193
91 80 164
239 181 7
13 89 79
61 237 92
56 99 64
96 217 10
192 50 57
233 114 247
49 25 2
173 25 243
175 194 168
126 60 203
9 105 207
205 44 206
66 93 48
4 101 190
95 107 108
98 129 69
203 42 116
54 71 245
205 99 97
234 119 19
255 13 4
34 116 171
90 117 79
125 159 230
164 52 211
169 181 159
249 96 167
89 78 18
123 15 99
22 64 116
244 120 43
2 8 22
221 170 151
183 182 95
92 105 16
100 66 21
41 65 230
122 108 128
150 185 145
195 79 80
105 101 64
78 224 134
27 155 58
111 74 170
6 52 26
62 89 147
187 198 34
129 96 159
68 63 215
42 95 156
115 166 213
86 228 125
165 207 73
72 198 181
233 71 90
231 112 43
113 97 50
200 224 177
134 41 105
215 47 97
25 133 194
54 110 219
115 64 37
158 63 142
98 197 1
212 155 128
43 57 125
84 36 64
173 91 95
178 95 81
92 69 139
71 114 111
38 169 192
240 255 27
139 30 150
99 65 136
147 247 208
76 41 162
39 183 27
82 175 57
183 255 199
13 11 212
253 204 52
188 31 53
16 104 202
181 148 122
24 102 38
75 169 23
4 33 164
165 110 107
12 39 239
242 186 165
156 44 113
253 246 233
89 74 149
161 17 211
133 47 132
251 58 155
99 34 246
19 87 157
71 217 244
38 17 174
209 194 107
166 30 62
161 33 28
144 234 108
20 198 225
230 86 181
171 139 240
20 160 136
191 133 87
74 38 226
79 222 217
82 45 153
91 32 85
236 170 92
89 110 33
129 125 18
168 226 42
119 193 188
40 73 143
173 64 115
186 241 141
92 239 217
99 237 48
184 118 25
252 234 211
81 38 71
90 149 241
120 61 13
19 55 40
174 164 62
61 92 126
178 12 190
181 194 199
61 158 219
6 203 178
123 225 32
210 3 137
248 210 106
214 109 230
51 52 157
45 248 254
141 90 215
187 234 251
188 26 43
208 107 55
195 60 243
237 11 63
246 231 9
80 44 159
253 246 84
247 11 198
0 150 120
64 98 89
67 116 170
199 36 25
224 153 220
97 183 90
147 170 201
139 15 149
0 39 1
6 163 167
75 146 39
202 22 67
195 73 28
183 249 63
123 192 115
98 249 177
54 50 252
184 209 145
44 251 204
6 41 84
55 66 125
106 30 61
79 208 112
223 239 138
103 128 77
157 252 94
16 89 248
226 204 208
131 229 227
2 158 174
128 7 6
84 184 113
215 236 106
211 112 70
186 185 145
184 179 168
252 174 35
7 161 241
9 151 236
82 184 39
90 166 21
92 28 65
203 219 67
56 2 234
232 181 246
223 7 151
91 232 63
196 109 211
216 36 186
192 117 20
151 152 236
241 9 214
62 165 53
173 57 103
10 129 197
105 202 153
186 96 70
31 83 97
60 49 106
100 251 197
207 211 31
233 200 138
40 93 241
201 15 0
62 176 152
129 156 251
123 241 37
13 208 203
239 39 182
95 50 147
179 70 39
229 82 78
81 16 95
39 98 134
162 162 140
225 222 244
68 185 125
162 10 225
230 74 222
112 13 9
107 17 127
131 26 126
100 186 144
186 160 201
215 212 206
136 166 77
34 40 34
85 199 167
226 145 219
105 140 20
157 99 218
57 247 10
81 152 82
163 90 80
220 226 109
229 248 151
100 248 103
247 95 206
108 129 234
210 207 31
35 214 53
170 185 121
244 167 105
184 230 116
65 193 82
43 165 244
229 221 14
75 14 246
84 99 171
239 109 11
109 40 26
141 67 27
255 141 62
142 58 119
112 56 230
91 75 58
230 223 237
152 193 153
157 78 125
17 118 196
29 108 185
201 120 136
251 7 64
36 212 106
179 105 102
128 140 6
255 106 85
168 245 160
215 109 76
0 97 35
130 166 28
215 207 98
114 129 194
142 24 135
55 204 249
20 48 4
100 137 199
190 160 216
113 83 12
118 132 118
122 184 216
116 138 147
141 164 177
182 139 101
16 165 254
69 65 175
3 207 13
72 99 1
75 52 10
27 145 114
159 5 8
141 101 106
67 106 249
34 81 79
137 159 109
115 230 219
26 247 80
101 18 195
16 227 68
113 229 242
68 248 47
54 134 157
28 30 181
140 115 54
32 246 155
215 231 76
10 35 27
161 186 139
1 158 230
87 242 66
184 125 12
177 138 173
5 161 164
227 149 144
188 67 57
51 252 204
201 150 250
10 0 42
153 12 147
103 255 95
107 240 62
92 133 197
187 102 38
1 156 77
253 193 73
103 46 70
94 127 132
17 205 13
235 162 44
222 254 52
147 120 34
42 37 240
197 61 153
24 13 147
142 158 230
187 67 59
138 78 49
78 140 149
171 149 237
181 106 52
63 208 108
152 173 43
119 133 233
218 128 245
15 43 51
2 173 247
32 204 51
94 226 161
201 63 150
211 133 122
117 31 100
161 236 108
228 154 78
71 71 46
34 224 90
11 99 166
180 231 211
34 251 143
14 239 50
75 123 116
223 68 99
236 96 96
205 184 211
213 138 179
246 254 150
249 52 38
199 134 180
191 219 78
111 171 225
168 197 165
248 211 97
193 153 55
136 241 191
48 119 152
207 192 68
197 95 209
103 54 5
148 136 211
122 99 11
74 55 144
173 240 105
126 145 29
21 138 205
2 215 107
55 20 10
103 238 133
201 222 130
47 162 112
18 227 148
99 177 4
125 120 35
114 130 50
255 153 89
201 243 143
215 1 111
213 93 16
193 224 119
86 50 11
247 12 3
197 134 98
199 67 101
91 181 8
54 0 86
14 202 207
10 174 93
202 217 34
26 66 245
245 36 45
165 29 226
203 149 85
189 117 116
45 81 137
175 223 161
176 228 227
248 77 175
171 60 98
11 205 186
97 32 12
253 24 130
53 217 169
138 184 62
62 41 131
191 13 84
195 108 170
253 237 99
251 40 139
179 181 212
246 37 146
233 49 216
54 244 24
29 26 120
120 26 32
31 126 14
233 61 26
53 230 133
20 23 233
11 17 246
116 173 250
179 152 208
198 166 41
168 198 37
11 230 11
249 149 210
70 233 67
135 105 172
148 219 15
237 153 244
23 204 227
163 115 201
110 15 122
240 237 190
172 93 49
9 166 197
92 137 100
75 227 144
54 0 115
154 12 11
164 60 173
69 116 183
210 69 4
251 38 6
49 25 22
99 86 124
119 104 235
58 14 51
224 22 198
86 195 157
23 190 140
79 233 219
141 247 141
157 167 250
222 64 123
85 27 210
42 251 241
244 0 93
44 4 165
204 13 62
166 190 114
65 158 255
245 128 129
92 74 21
1 14 24
239 95 137
45 104 76
117 67 157
180 148 170
130 172 194
221 209 199
84 31 204
60 92 249
57 128 23
116 88 116
38 240 233
231 110 200
248 189 200
141 215 195
148 254 219
77 23 137
108 195 237
151 77 14
98 81 228
142 154 148
63 159 152
228 84 59
163 24 106
35 218 53
69 26 191
244 88 183
111 171 116
39 83 248
3 104 125
206 139 13
22 33 249
7 22 67
19 149 197
50 212 230
217 148 40
207 229 55
204 171 32
122 159 193
61 68 113
177 20 212
164 86 68
215 108 159
36 216 237
90 86 13
136 24 252
126 6 185
151 220 168
74 159 188
116 67 161
30 252 189
135 43 142
60 3 61
184 246 112
39 208 38
80 32 70
183 15 95
24 110 150
168 32 25
140 225 156
183 42 2
7 193 224
58 34 222
22 194 37
199 15 119
184 217 249
168 20 174
6 28 250
126 41 255
254 68 238
233 14 72
136 68 103
79 166 114
58 145 96
139 130 34
40 30 63
98 29 169
162 66 155
41 211 222
94 31 139
181 50 129
97 13 165
134 152 172
222 160 245
39 50 129
206 232 102
126 144 120
56 200 240
34 46 224
145 6 165
22 198 174
63 170 13
206 138 141
53 32 33
161 30 217
81 142 144
136 139 138
100 63 83
187 174 137
245 24 55
62 139 123
142 109 255
248 136 207
109 124 184
241 134 69
89 123 139
132 90 18
177 201 225
203 72 136
95 110 255
191 239 184
17 153 178
88 168 193
247 56 150
185 148 135
160 150 152
229 28 20
34 35 104
43 193 48
123 29 181
93 226 187
222 239 2
241 90 94
239 107 178
28 197 43
188 190 140
31 2 148
197 191 237
74 227 85
238 203 137
131 188 7
88 178 66
62 80 106
195 139 66
179 212 237
91 144 10
41 251 88
41 212 242
116 240 213
189 234 151
97 166 186
190 57 242
78 63 88
139 233 215
224 154 204
247 31 227
238 202 145
145 100 254
219 34 133
242 179 194
21 51 137
150 126 222
204 92 34
53 118 82
55 131 80
192 218 157
203 9 18
113 11 249
241 199 51
52 76 98
108 28 144
0 10 221
107 109 159
205 138 50
47 127 143
15 182 69
231 188 141
130 40 154
118 17 45
201 62 186
116 187 230
240 161 4
149 68 213
160 7 136
223 94 161
61 135 251
28 242 109
237 139 228
93 244 234
80 216 110
249 225 223
252 221 75
184 20 207
93 89 215
248 145 160
147 243 49
38 75 212
225 230 26
104 146 143
198 108 78
183 191 73
152 47 209
79 57 171
88 57 31
252 4 74
29 52 66
187 145 79
63 25 37
66 136 205
105 247 181
147 19 180
45 135 41
4 150 182
254 204 152
241 55 249
150 88 222
255 207 94
90 159 144
59 237 149
25 77 214
95 106 35
13 127 199
122 144 98
16 187 205
198 196 184
122 216 57
179 122 49
9 134 61
54 105 129
233 34 232
239 125 45
1 123 134
27 131 1
62 164 44
211 204 97
235 218 133
129 213 24
147 8 206
104 171 228
108 182 70
20 118 157
191 219 15
3 234 97
92 247 76
118 87 98
216 52 2
82 123 195
143 20 26
185 173 171
249 79 145
254 59 149
48 192 210
228 223 218
183 40 224
50 202 41
60 238 146
85 35 49
148 185 185
221 51 62
239 241 8
105 51 120
88 169 145
221 203 138
154 120 185
172 74 9
217 224 28
119 139 151
254 218 103
56 161 68
41 141 40
8 27 74
76 92 224
100 253 96
99 123 235
143 19 110
54 82 81
136 98 197
117 14 203
91 24 146
247 123 216
62 78 55
73 146 28
51 86 241
55 133 80
114 157 237
5 168 188
151 123 183
243 217 181
64 160 41
185 82 14
163 212 224
223 137 245
190 56 47
158 133 175
56 95 95
105 189 155
81 69 39
65 203 247
182 210 235
232 84 229
178 255 49
55 48 139
217 87 62
91 132 197
195 174 194
87 33 132
205 114 152
24 195 42
136 239 189
229 74 222
121 82 229
57 201 39
127 187 235
157 230 163
112 3 61
79 65 229
247 228 215
231 126 60
63 31 199
154 13 209
101 202 73
112 170 251
77 51 229
17 243 62
221 78 97
199 226 164
110 36 171
253 33 149
248 96 242
22 193 110
240 44 97
213 5 134
56 234 227
39 90 176
79 45 208
20 100 201
84 154 188
123 186 117
222 206 59
72 6 246
28 201 206
246 156 165
10 70 140
107 137 72
163 89 29
95 87 233
18 119 217
70 45 223
154 44 201
213 136 89
131 102 27
187 175 211
124 199 248
8 19 148
223 196 160
59 118 172
231 245 97
5 234 3
181 166 162
58 153 68
164 49 22
137 82 242
88 182 186
35 99 182
142 152 194
161 109 226
49 251 161
162 183 84
114 208 96
183 61 216
194 18 24
170 39 175
180 78 28
141 190 72
105 142 128
64 102 57
238 75 137
137 39 128
72 254 163
64 111 187
159 144 214
45 140 116
39 36 200
19 218 180
51 240 230
47 4 104
195 114 172
155 18 23
253 213 3
52 217 39
36 48 130
243 139 225
23 194 41
180 125 39
175 10 114
95 241 63
6 47 29
47 113 92
1 53 231
198 76 54
148 254 166
153 170 235
78 176 130
110 229 220
5 247 213
12 227 196
123 70 58
34 117 147
230 1 43
3 61 149
140 136 41
2 175 58
27 37 97
225 111 100
64 182 5
193 205 169
20 209 61
62 249 191
164 119 34
96 52 187
36 147 141
157 69 10
48 115 146
179 212 189
97 165 167
96 117 225
113 20 180
50 196 157
48 234 173
76 219 59
209 254 115
155 158 0
58 28 93
232 49 239
231 82 112
116 172 229
252 98 39
141 182 10
216 38 99
87 176 14
21 188 154
161 66 129
117 53 149
171 231 251
7 89 220
152 128 13
185 140 90
45 42 186
3 64 148
18 38 146
189 186 200
142 237 156
249 74 229
168 17 116
185 5 85
208 241 0
210 20 193
234 39 104
124 57 229
69 252 195
250 157 49
0 237 128
145 43 116
162 132 206
105 169 229
5 249 205
149 62 158
58 0 3
175 92 34
193 161 197
57 211 242
249 209 31
237 222 224
163 242 219
241 12 101
166 14 182
24 109 97
56 63 58
49 71 167
35 96 58
112 239 0
121 101 126
56 247 176
47 146 27
73 226 77
184 82 49
238 129 72
177 86 0
156 6 216
201 143 163
35 60 10
168 55 127
231 77 142
61 205 202
87 192 172
88 29 55
167 163 18
238 149 236
30 171 77
233 161 234
13 64 172
27 24 198
132 200 156
165 83 150
228 213 157
133 99 208
100 14 127
26 15 241
235 211 239
21 195 219
70 233 106
10 241 189
227 173 154
7 249 133
106 138 160
189 221 216
48 128 55
22 231 82
53 104 152
248 131 62
161 114 252
21 118 113
153 212 200
139 252 233
227 11 182
176 248 93
219 253 24
220 116 86
172 238 44
17 189 118
217 241 15
152 57 29
109 60 25
153 235 146
254 131 142
25 208 124
140 125 36
233 81 142
169 80 249
143 231 126
26 177 83
67 253 65
159 162 146
158 82 204
24 74 117
131 20 211
253 140 79
39 170 129
186 216 24
182 222 129
48 102 83
82 236 203
220 153 202
21 75 189
251 34 205
189 5 51
107 37 209
64 213 191
58 45 206
188 139 132
83 72 178
148 43 153
26 116 157
206 137 121
29 26 157
70 193 53
12 177 44
35 109 38
140 176 78
166 102 96
247 240 11
128 247 140
160 212 230
166 60 161
36 79 124
209 112 112
53 63 204
186 169 124
185 90 77
176 34 240
176 3 83
141 137 102
122 136 233
38 107 220
190 20 26
235 221 55
166 53 160
244 241 16
207 194 230
84 131 211
12 156 122
118 243 198
24 246 175
31 23 171
184 76 136
208 56 80
102 136 0
192 12 251
4 110 226
24 20 93
112 137 99
189 182 247
166 46 20
44 212 59
19 85 235
27 56 229
222 37 193
177 168 23
16 75 53
39 237 191
23 72 47
46 30 12
229 76 80
153 11 67
55 133 193
120 94 96
87 113 2
242 146 212
243 179 232
86 125 94
235 82 135
32 212 206
129 170 127
161 172 29
190 167 142
231 236 168
175 25 136
198 30 115
177 228 98
161 221 93
76 186 82
210 97 202
127 54 192
81 103 25
57 137 188
150 193 97
27 177 61
49 52 188
62 29 175
92 116 250
198 136 32
157 241 48
111 139 225
88 55 72
199 67 158
78 100 38
134 76 189
252 247 119
102 12 223
200 47 166
55 131 163
84 176 33
46 152 70
153 41 26
175 176 199
23 0 24
242 107 238
220 228 188
204 73 119
178 204 26
254 108 142
235 168 25
228 66 199
96 122 42
214 228 41
83 48 227
29 242 121
38 133 117
193 160 205
24 7 239
102 202 47
81 125 109
231 35 217
74 72 238
191 2 153
87 17 239
92 184 123
154 168 133
255 154 93
98 31 180
207 174 239
30 103 113
185 111 138
243 155 193
73 15 102
120 72 255
99 193 230
166 157 136
141 22 66
120 88 17
228 79 185
0 53 125
72 156 49
97 14 91
99 86 43
209 254 85
70 151 83
88 53 41
222 250 105
159 120 64
217 62 62
70 116 12
45 181 16
22 68 170
82 64 85
188 191 131
143 124 9
40 91 24
147 142 66
54 105 109
96 24 22
234 52 114
198 127 9
233 194 92
206 100 37
45 183 185
79 45 29
20 225 51
166 132 65
234 197 179
174 62 4
51 185 236
103 115 229
201 134 138
143 231 25
166 228 210
24 36 191
34 193 22
158 16 95
153 33 165
1 243 206
61 118 222
11 83 97
153 94 65
120 43 56
233 27 26
75 203 17
216 104 97
165 189 15
91 88 65
209 75 185
38 8 242
96 251 215
97 38 250
243 44 215
55 241 125
54 14 8
230 76 131
128 147 76
73 37 253
143 132 186
51 158 14
123 32 231
69 196 135
231 107 235
150 120 199
88 194 206
107 118 131
117 73 105
244 44 69
185 139 103
101 45 148
235 237 101
179 60 44
33 102 115
160 181 62
243 179 229
15 53 206
90 143 214
53 167 56
195 98 149
45 175 20
145 186 159
124 237 172
22 125 122
113 254 6
186 67 47
3 52 138
243 112 238
6 242 51
50 245 146
190 199 240
93 66 213
173 135 66
13 1 57
215 182 235
131 178 192
182 237 99
129 106 211
23 38 248
51 30 84
255 60 193
31 232 133
196 189 36
251 16 236
96 65 121
178 153 118
41 60 40
111 32 103
250 250 129
244 31 239
50 76 96
6 212 143
2 71 101
89 241 167
71 160 57
16 19 49
200 233 94
38 108 73
142 41 119
105 36 64
155 62 239
40 138 209
139 130 144
255 26 177
67 157 108
150 161 183
86 42 168
137 91 155
216 238 151
108 48 159
69 93 226
37 148 234
71 209 139
172 90 55
86 237 180
58 141 230
108 31 215
227 62 80
235 77 87
202 254 10
201 70 208
5 86 119
230 219 237
87 8 118
234 170 155
150 47 112
95 212 253
164 120 102
197 163 51
7 19 75
3 48 21
112 181 247
248 44 58
16 1 120
121 34 11
237 117 17
242 55 33
38 3 178
180 114 186
65 134 144
176 160 26
229 91 56
90 135 163
87 88 68
23 205 247
95 165 209
199 207 142
26 128 206
37 205 122
40 165 34
99 3 144
25 196 180
56 47 5
82 120 117
31 51 66
183 119 14
126 166 91
37 208 199
197 82 185
35 1 172
1 35 18
232 14 179
132 151 183
98 17 141
174 80 160
198 65 216
78 7 79
229 120 19
85 145 241
147 59 12
251 127 80
196 94 13
189 249 124
224 246 230
125 148 26
87 133 193
58 251 170
21 131 47
119 102 123
81 166 179
193 96 138
235 150 173
170 102 196
201 152 230
188 253 148
24 169 45
255 208 151
165 112 163
173 255 253
110 179 50
241 130 28
12 198 216
127 95 205
163 229 46
120 203 184
131 207 2
5 37 139
152 40 170
180 213 33
165 70 162
253 212 81
34 194 208
41 82 26
44 207 199
131 150 92
120 229 31
173 63 57
67 230 225
31 213 217
156 188 157
147 230 199
49 27 39
153 203 235
252 252 14
156 132 210
48 237 25
18 233 239
62 104 91
93 195 177
226 221 149
183 216 133
139 210 140
203 35 102
140 24 75
219 197 46
57 84 195
85 133 70
97 139 163
180 99 18
87 89 1
214 220 243
74 56 134
136 28 144
240 201 148
214 157 77
174 204 35
76 208 253
239 90 69
235 183 130
190 22 180
175 23 52
66 1 249
76 42 20
155 235 157
117 38 133
122 115 255
83 203 45
181 4 220
222 53 113
229 109 111
140 33 47
15 21 153
99 45 177
39 109 57
12 181 35
64 101 136
109 93 198
50 251 32
89 229 251
245 222 135
83 132 228
41 167 20
148 186 109
129 20 138
75 166 152
0 192 99
114 162 103
221 55 188
9 235 93
122 183 221
109 163 43
22 138 232
241 114 203
95 211 85
205 12 18
154 192 226
10 252 48
13 201 43
66 248 188
244 105 232
44 179 50
136 249 216
19 24 81
205 76 208
29 230 227
105 250 94
221 32 2
190 151 163
203 72 125
93 89 219
85 148 210
225 178 112
94 206 117
226 54 87
174 12 130
123 185 147
107 6 253
250 231 49
111 191 149
98 92 35
42 164 107
100 249 173
40 177 88
248 202 69
24 9 106
127 215 195
201 117 56
32 209 117
236 97 207
45 26 249
83 225 100
33 139 88
227 45 88
120 223 154
11 28 41
75 251 108
242 147 184
232 83 193
69 8 223
3 209 41
95 25 33
116 82 117
178 226 224
122 103 13
255 59 46
145 1 39
128 34 141
206 222 15
254 221 241
135 226 250
115 225 130
86 24 68
94 52 70
231 131 123
45 76 61
133 130 34
67 68 35
158 111 39
109 102 27
184 66 54
71 23 254
87 22 168
198 51 249
34 165 207
42 186 137
98 108 212
156 87 59
23 141 116
30 206 7
72 252 12
254 83 56
191 31 120
1 53 152
118 17 106
144 176 29
149 2 247
227 3 210
96 120 0
32 32 151
17 132 133
87 112 68
176 228 229
90 73 167
35 189 158
17 167 22
34 92 68
14 131 249
199 132 59
225 157 201
227 155 165
196 203 38
56 143 181
168 245 111
34 195 193
215 39 134
91 86 16
144 48 80
165 100 78
233 91 254
218 65 114
237 227 225
188 18 96
213 175 187
191 172 90
138 178 219
31 58 10
242 125 25
123 133 177
204 152 194
106 41 205
31 55 183
153 122 4
187 180 24
86 164 88
178 32 219
163 55 160
212 68 225
251 127 229
68 63 188
141 91 26
144 193 243
91 72 170
216 94 50
25 218 248
191 227 119
239 208 163
46 169 114
186 215 150
201 26 31
182 39 16
51 101 112
199 117 214
182 35 216
231 252 137
201 131 254
151 163 33
232 164 21
192 99 67
74 214 197
244 168 218
184 253 87
94 76 244
101 168 219
181 146 220
45 92 51
76 235 84
21 238 142
209 222 4
44 8 204
194 189 199
204 252 38
245 136 178
188 60 211
180 135 40
71 227 87
192 198 251
90 93 80
102 71 161
148 20 1
125 63 171
244 8 18
187 115 115
214 204 169
7 122 77
200 151 112
227 72 100
66 117 2
31 183 227
192 67 21
245 53 172
21 177 209
189 151 219
12 240 95
195 194 0
139 6 23
208 227 216
196 42 218
147 199 53
85 175 26
182 159 177
99 76 49
179 101 7
204 17 23
12 181 29
225 114 145
132 250 71
17 116 240
199 66 249
212 177 107
140 43 81
29 155 166
69 121 74
121 220 54
43 109 146
147 81 168
39 193 142
77 6 124
81 113 68
1 3 136
205 25 225
132 238 42
197 18 26
82 251 110
240 230 179
112 120 170
182 36 63
215 10 134
28 98 69
23 239 92
17 192 74
6 92 95
97 67 17
221 110 21
226 222 162
238 220 4
85 72 163
29 167 55
91 17 238
2 77 87
3 113 73
15 141 242
121 250 124
99 195 57
24 200 224
231 91 109
49 245 39
136 191 96
61 225 39
47 129 94
11 201 124
240 42 121
221 131 177
117 195 85
189 249 217
83 124 183
115 22 227
139 155 95
153 204 197
210 11 67
27 57 202
28 162 110
210 84 143
24 2 235
162 244 105
147 159 80
150 76 140
130 74 131
111 112 232
244 223 25
227 74 225
214 219 240
236 40 127
9 100 73
68 92 190
23 214 190
51 241 60
218 153 56
158 116 56
35 65 39
184 213 27
44 5 175
58 86 22
168 167 230
83 229 101
197 120 241
114 245 205
210 11 61
82 82 165
145 196 21
44 150 142
8 176 141
249 187 127
135 16 246
95 45 209
78 56 92
75 173 28
55 142 12
205 131 66
126 49 217
8 206 56
146 73 225
183 56 98
206 163 50
141 63 15
123 35 164
136 99 190
6 39 68
221 188 241
65 123 50
216 194 23
195 85 32
205 62 53
86 0 137
239 62 45
120 137 174
21 163 68
217 17 84
174 229 2
116 130 153
181 67 25
93 107 210
250 201 164
83 65 43
27 191 251
11 123 98
49 41 47
158 151 103
236 81 246
57 246 134
50 216 118
240 154 32
228 131 240
194 44 17
160 110 134
87 92 220
20 92 112
18 231 54
115 26 240
93 122 140
50 237 22
121 78 139
147 101 205
177 50 133
109 191 183
71 214 84
128 200 97
22 167 56
110 172 70
75 236 184
46 21 116
67 127 207
228 238 136
160 189 255
235 122 191
92 220 251
5 179 135
25 177 203
44 90 228
248 212 4
23 112 110
207 118 182
203 134 216
254 155 108
47 170 50
27 128 3
106 90 199
45 163 111
194 245 35
250 218 209
105 101 116
193 209 14
46 238 115
20 247 192
56 239 137
94 6 65
22 23 73
154 149 90
186 163 115
143 13 191
36 238 124
134 190 85
59 127 140
169 248 204
237 136 125
76 178 218
7 184 38
146 207 9
145 229 27
99 176 84
154 64 88
5 212 57
55 229 6
89 153 212
116 207 31
229 27 90
67 162 236
162 82 239
91 110 60
147 51 24
166 223 1
136 48 183
221 239 11
79 68 136
77 128 111
241 62 170
119 130 43
38 33 193
124 171 8
8 254 42
171 118 122
8 166 174
75 234 46
194 49 159
124 51 108
31 186 13
98 49 78
66 210 243
140 195 96
38 135 83
211 130 15
34 243 170
201 164 152
182 72 13
87 216 148
45 244 70
250 105 88
6 79 178
51 61 252
185 6 117
110 19 58
229 158 108
142 189 239
186 243 255
238 35 162
35 151 209
217 130 138
106 101 74
165 149 33
116 42 39
206 50 81
17 144 183
38 232 50
101 216 157
18 116 94
80 145 95
180 114 104
193 62 188
253 133 215
78 166 186
159 83 81
137 45 214
252 221 33
23 120 118
77 34 177
88 86 185
54 86 98
117 243 196
87 125 3
118 85 156
179 130 125
109 221 131
45 224 221
225 121 148
43 79 118
14 104 215
61 77 26
117 233 69
47 221 0
251 35 78
15 235 66
250 243 160
7 248 18
120 170 11
211 139 151
93 104 37
13 112 180
19 244 168
187 245 217
148 235 189
146 103 224
181 74 234
108 77 22
207 226 204
127 169 139
246 78 37
130 174 5
115 161 227
23 82 18
157 95 136
172 246 82
55 166 230
135 210 95
228 194 144
132 99 31
96 24 212
216 188 223
163 17 37
244 248 194
7 124 34
25 20 199
189 100 202
18 165 140
83 47 55
148 199 109
100 120 161
133 246 200
233 2 124
185 145 97
116 89 165
47 161 2
159 35 187
173 145 100
22 7 16
145 9 235
49 118 211
132 226 50
154 180 71
153 65 27
144 38 15
42 218 227
211 241 114
1 1 21
93 186 158
217 40 70
217 143 2
123 72 10
249 2 105
128 145 15
151 220 161
0 113 88
154 179 128
56 1 119
69 140 117
152 22 109
193 112 28
232 233 54
22 147 116
3 236 97
138 108 206
81 45 144
155 87 225
192 161 79
163 161 207
24 7 219
141 127 157
144 220 170
109 210 123
104 211 26
6 220 209
38 43 183
33 170 159
66 196 15
19 36 172
148 245 203
189 231 72
131 30 50
224 231 255
6 144 250
169 126 32
118 220 246
57 74 32
83 83 126
2 90 189
223 192 102
101 106 226
26 49 13
39 252 135
63 84 157
141 142 178
144 61 168
120 231 122
241 80 127
192 2 198
121 29 144
192 15 202
103 43 145
251 124 199
155 95 99
180 255 192
230 56 149
168 127 54
129 113 229
138 229 219
106 40 161
96 186 153
219 215 190
126 57 32
162 148 81
88 96 95
121 205 144
252 62 58
84 148 30
221 140 108
9 255 12
118 65 30
100 220 89
75 248 66
150 5 52
74 113 184
231 63 192
116 128 120
29 170 100
64 170 215
213 189 84
238 78 202
83 205 83
238 169 132
138 197 217
68 152 47
39 98 173
47 43 164
123 137 69
176 44 25
128 3 231
32 119 218
0 84 84
199 239 85
232 186 197
120 86 211
12 243 72
228 20 15
231 250 202
55 161 2
106 46 226
99 66 126
126 39 102
142 228 50
55 93 13
148 188 77
103 119 228
56 166 54
1 39 173
82 129 33
248 88 193
101 87 13
236 179 5
133 211 185
7 0 97
222 220 7
52 57 251
153 110 237
253 70 244
57 195 203
30 80 245
186 83 192
185 223 149
84 46 127
164 109 140
118 228 13
151 150 98
30 82 36
197 54 90
195 74 133
6 108 232
94 2 220
79 241 121
224 143 203
78 144 83
53 158 76
114 92 114
85 234 238
24 133 125
93 6 83
237 237 194
46 101 195
222 232 1
231 254 183
142 124 145
106 187 70
118 121 183
74 127 22
172 148 143
57 58 210
165 254 251
17 22 194
51 221 153
74 137 117
242 38 163
50 58 217
159 217 133
85 108 154
182 21 25
10 32 251
140 162 27
135 76 87
164 189 13
147 72 162
220 90 189
48 253 132
110 56 251
210 210 161
192 55 161
93 220 121
75 166 204
172 23 177
218 20 97
219 135 70
219 22 68
30 93 10
141 98 191
183 179 254
24 173 219
107 212 6
7 214 152
30 88 53
252 82 125
90 187 24
163 64 250
64 238 76
71 213 110
211 236 178
13 168 223
252 188 189
94 246 207
114 171 173
95 112 88
248 152 78
225 165 80
179 37 6
172 166 93
234 186 161
125 72 176
226 86 95
76 251 74
99 22 157
26 97 187
170 109 93
188 1 235
125 93 241
150 101 23
242 234 33
70 10 34
203 89 220
15 113 125
17 242 77
11 10 248
24 239 248
45 60 201
176 181 225
109 207 49
22 40 164
122 247 154
62 50 183
89 110 141
251 181 170
126 113 152
8 117 244
222 85 170
207 59 200
206 128 95
192 123 88
120 169 52
228 255 87
135 224 111
197 43 222
93 174 177
126 210 49
160 87 47
165 166 49
37 131 218
205 236 7
232 186 30
20 84 42
156 30 29
117 240 201
96 95 159
10 93 204
69 151 109
176 222 141
165 239 117
149 188 194
100 124 158
114 66 67
9 177 103
107 165 36
68 113 47
25 171 201
231 209 52
178 238 254
5 63 165
177 151 37
32 72 68
35 81 21
136 14 254
212 253 104
121 251 247
108 173 136
59 41 110
171 18 130
178 5 35
137 170 206
140 221 50
20 77 195
97 0 44
111 155 130
107 11 88
135 117 16
87 186 253
44 235 231
255 224 14
230 23 236
43 214 30
155 201 66
231 208 46
113 41 87
94 14 133
187 196 80
172 67 51
156 229 243
90 9 60
78 208 86
52 47 107
191 175 65
99 152 44
255 30 54
212 104 102
49 10 13
205 233 91
164 167 74
62 104 71
93 195 88
27 116 112
44 148 42
235 173 247
12 119 104
213 244 177
167 8 152
144 16 74
218 3 239
203 105 167
83 182 66
39 240 52
82 94 169
209 19 202
20 240 221
26 44 200
87 220 32
73 249 194
28 237 13
176 170 2
179 16 86
152 5 194
251 210 164
105 243 171
126 61 111
152 86 85
113 97 205
71 29 71
245 22 3
68 237 135
38 234 199
236 90 46
121 121 218
252 145 8
56 158 100
75 4 84
221 191 185
35 178 157
152 37 129
83 150 63
171 164 251
146 21 204
131 227 7
244 218 171
213 159 60
37 116 172
102 58 146
190 162 159
65 231 127
74 116 212
10 144 16
6 84 168
86 157 192
109 71 53
213 22 202
185 54 178
228 54 231
177 101 154
129 97 215
170 244 71
121 135 147
254 144 202
230 212 34
246 13 247
144 9 95
214 5 91
155 165 85
115 79 38
98 24 218
37 196 229
59 72 36
170 115 132
137 60 27
28 246 36
130 121 95
103 243 155
54 151 152
232 231 220
161 122 136
232 110 59
54 6 222
246 9 235
189 3 137
14 121 74
149 52 221
75 4 118
249 162 164
46 212 51
252 150 131
93 210 144
118 187 149
72 244 171
75 231 40
253 121 238
211 56 170
25 241 44
84 40 12
0 173 117
75 114 149
214 94 182
85 105 134
233 158 101
123 17 169
68 15 124
169 195 158
79 237 226
55 4 75
153 129 196
199 178 118
153 231 253
146 74 172
208 249 81
201 125 100
216 190 61
243 178 132
184 226 85
3 166 206
255 79 126
126 78 230
126 211 7
83 247 124
129 218 210
243 151 35
118 244 10
43 250 74
61 97 98
37 126 20
188 16 76
103 251 96
53 253 201
132 164 180
144 59 255
64 30 11
238 223 1
176 58 13
24 157 158
123 57 102
234 255 229
196 250 157
72 53 45
40 181 209
205 145 212
89 59 216
253 248 167
40 32 74
3 29 142
240 182 39
97 182 8
128 29 194
80 48 180
163 47 120
63 235 149
97 115 194
128 226 71
63 82 127
16 177 35
118 16 205
155 152 5
103 118 68
210 182 162
246 59 33
144 49 2
55 118 199
254 188 3
237 4 95
155 115 249
245 213 92
0 105 62
60 167 224
191 147 0
15 190 235
84 254 181
66 31 74
237 232 105
167 51 76
168 53 186
70 238 107
213 242 22
217 53 112
69 77 201
17 103 122
228 3 189
153 232 79
228 234 101
65 97 255
140 80 141
99 58 96
246 11 132
235 5 248
4 176 29
57 166 2
120 30 250
48 143 245
214 195 93
110 235 227
45 119 43
43 42 140
250 98 41
173 188 19
138 61 171
171 151 138
103 59 255
17 224 62
20 109 138
194 104 225
41 42 201
76 112 146
151 222 211
242 169 196
82 62 30
185 151 47
55 20 208
131 185 152
37 237 33
6 127 23
115 22 90
98 161 196
89 89 138
121 28 220
155 28 150
148 199 182
54 215 2
132 50 75
148 145 176
20 96 53
184 111 27
73 59 160
149 205 23
6 39 130
113 43 234
118 213 34
74 198 72
182 194 198
196 195 185
246 148 192
187 107 59
253 197 80
110 242 14
60 182 24
70 204 72
99 168 193
211 87 71
191 41 9
112 9 60
40 159 96
156 91 246
11 66 53
122 218 132
128 210 176
45 103 121
101 118 64
129 123 175
119 114 32
112 161 223
248 242 142
200 95 233
73 104 241
130 154 237
233 165 176
238 4 210
241 203 72
21 215 245
86 205 253
111 180 95
207 170 223
29 166 99
58 247 48
184 162 252
127 220 169
33 30 75
130 165 181
104 11 31
129 193 31
210 32 152
77 231 10
255 240 96
165 183 133
157 114 7
190 230 207
173 107 216
189 32 207
246 12 95
224 193 53
99 104 84
185 159 255
244 19 4
41 84 122
230 15 91
115 62 210
48 237 59
250 46 176
98 97 64
92 66 91
211 126 5
172 158 123
8 138 35
96 215 91
103 145 80
99 223 177
141 233 189
215 111 145
2 233 0
35 233 204
213 42 15
116 202 207
197 37 24
77 233 32
178 132 10
140 106 248
144 196 172
70 117 112
30 210 246
231 31 86
169 199 251
63 196 53
154 142 157
133 93 204
61 187 48
36 224 104
3 209 71
212 117 244
63 207 61
236 105 75
160 50 66
160 69 175
202 226 88
210 45 130
188 18 184
39 9 148
223 61 218
65 165 82
97 201 136
119 27 243
232 110 10
12 67 30
162 9 197
57 75 234
243 129 210
40 114 131
208 74 113
103 102 189
205 167 61
252 31 163
160 79 209
35 187 80
9 154 51
60 215 250
106 0 205
166 174 111
154 69 82
70 251 140
131 147 251
93 73 158
196 60 4
233 68 4
178 136 67
74 64 92
49 84 104
107 250 74
142 233 104
32 97 190
69 75 151
31 247 113
28 227 34
38 149 137
221 29 30
162 68 255
48 12 60
102 218 176
6 165 126
22 177 31
135 184 23
212 245 107
133 111 38
55 184 9
250 213 6
172 164 129
73 149 225
145 82 43
61 144 122
206 246 163
108 17 175
80 147 216
52 129 118
202 74 127
198 79 254
140 241 200
152 159 214
20 16 134
150 219 153
35 142 25
85 57 12
210 220 9
137 118 192
232 201 195
8 164 94
222 122 87
8 229 123
215 158 115
204 63 54
111 109 186
147 249 182
136 37 12
216 235 218
155 18 9
53 201 228
9 243 51
20 233 196
120 205 153
87 9 195
38 236 10
68 158 195
23 139 75
240 120 5
248 82 252
255 241 250
83 181 40
151 111 117
4 120 111
189 197 20
94 157 94
13 150 112
167 215 54
163 171 218
248 163 39
31 113 99
228 26 194
134 239 254
212 237 228
8 126 112
138 24 19
84 77 132
165 214 66
66 50 182
110 241 189
99 173 255
101 25 134
131 85 84
153 31 234
20 187 143
52 209 90
206 7 102
240 215 242
177 59 44
171 114 21
133 182 144
157 159 53
121 233 205
63 14 109
217 105 84
52 76 219
104 73 21
127 248 146
116 38 134
188 234 31
50 139 213
177 244 44
169 115 62
125 112 184
86 198 50
120 206 153
249 26 102
10 40 5
139 118 226
176 234 135
237 88 189
116 213 100
0 15 58
59 19 167
134 153 103
41 188 25
47 200 86
122 59 63
120 186 70
161 73 25
189 161 20
48 145 172
78 19 8
2 177 209
17 152 250
193 48 126
27 45 142
6 83 157
0 77 185
254 50 146
87 0 67
208 108 5
204 179 118
165 191 229
62 220 93
230 232 136
228 254 201
195 78 116
144 255 37
252 93 241
254 18 117
96 128 127
227 53 191
125 198 136
206 131 145
44 115 70
238 101 72
136 89 7
232 235 15
193 77 66
27 180 232
33 10 108
20 63 146
113 225 11
39 149 100
214 249 7
229 249 0
250 136 71
52 4 37
114 170 136
25 217 56
93 126 206
152 16 45
75 252 153
0 101 71
77 62 56
170 95 208
180 212 155
13 227 74
195 63 168
113 61 159
219 142 138
195 58 179
20 214 98
99 120 4
22 84 61
46 110 251
91 183 138
110 7 183
83 56 154
126 21 108
164 245 90
157 199 81
212 213 91
22 204 11
48 56 16
240 108 200
139 54 40
115 242 5
78 33 4
195 88 54
3 6 150
4 176 237
44 146 137
187 206 31
216 84 107
8 197 36
77 242 170
120 249 175
123 26 143
246 144 68
200 118 153
174 122 163
139 241 92
49 170 75
35 40 17
199 128 124
19 243 50
87 162 11
195 8 110
57 27 114
148 142 178
5 247 234
157 12 17
32 129 54
233 16 26
254 85 230
150 9 16
83 39 181
91 108 145
107 55 215
63 14 200
117 244 176
170 252 35
114 30 102
4 77 57
9 41 177
191 34 194
188 165 231
28 57 91
12 8 149
222 92 232
128 232 218
160 208 138
100 127 100
109 114 17
192 54 43
88 106 12
173 33 229
122 31 189
12 102 92
224 37 210
19 44 120
15 164 159
175 162 156
146 231 117
48 0 156
217 54 77
182 230 92
197 74 128
165 33 224
72 244 78
8 124 188
68 11 128
119 38 62
1 21 248
63 144 31
145 147 16
30 242 205
200 92 47
31 174 99
61 204 40
67 18 83
17 156 15
107 253 235
202 219 118
194 244 152
4 239 174
203 201 131
141 18 172
236 201 219
0 117 4
243 92 16
77 193 189
157 64 182
208 50 253
224 236 161
238 234 189
133 96 36
160 218 118
81 87 3
131 120 195
122 31 136
167 39 158
18 176 123
194 2 18
120 14 47
151 189 52
234 40 42
229 192 47
93 203 227
241 97 213
90 147 162
85 141 214
146 56 125
142 94 211
161 146 135
8 233 238
124 67 172
78 73 149
124 248 42
229 36 239
185 79 129
12 53 28
98 125 75
9 116 58
84 80 65
196 108 105
139 206 94
59 75 81
125 139 84
21 30 87
149 133 248
167 81 101
157 77 165
88 67 144
204 49 165
229 96 25
79 59 69
91 180 217
206 252 60
66 34 131
20 64 21
12 68 131
181 108 82
44 20 29
192 111 38
68 47 171
177 78 123
163 92 174
227 142 125
164 216 229
151 213 244
79 125 214
137 159 137
254 116 121
66 46 89
96 252 161
203 1 160
151 79 67
71 154 0
193 43 125
166 234 31
141 74 40
254 67 182
180 85 194
189 220 134
200 69 120
56 223 54
127 251 161
211 41 226
54 230 89
22 47 134
61 217 229
40 143 237
7 209 97
7 203 166
185 218 128
2 245 186
21 164 133
115 4 111
169 242 66
167 25 190
235 67 26
152 103 221
221 162 52
95 150 177
238 40 76
44 141 139
37 83 66
112 175 75
143 154 127
174 90 170
135 137 61
142 129 110
40 126 15
85 193 162
84 240 207
240 231 252
168 198 180
233 252 192
37 72 232
80 70 247
217 38 15
43 10 101
236 68 196
108 226 175
139 205 67
226 70 243
180 75 156
103 90 102
246 189 55
10 147 207
74 147 3
141 191 143
37 101 71
144 162 181
46 163 177
135 43 214
38 219 154
49 89 211
27 166 167
155 119 22
127 147 237
54 222 81
219 50 62
12 249 165
222 203 75
230 11 72
30 247 2
14 232 169
222 3 58
92 120 13
31 1 34
72 10 186
190 114 110
32 98 139
247 138 132
33 19 11
216 174 154
74 73 22
127 20 105
20 157 253
204 134 110
165 39 37
185 136 235
43 61 162
172 171 234
74 84 40
65 243 194
207 216 210
75 9 0
187 18 154
185 66 156
207 86 190
242 216 201
180 18 170
217 248 219
100 126 9
182 165 83
35 130 19
17 81 196
123 251 240
235 221 61
55 138 232
74 100 85
208 123 131
129 158 22
88 158 61
115 231 252
205 184 208
100 131 29
60 149 35
196 42 220
225 98 110
190 175 66
113 142 180
166 92 212
83 227 225
112 25 203
211 138 143
102 84 81
81 105 46
19 14 58
238 19 115
104 12 63
76 22 201
138 115 117
176 78 8
160 21 91
30 176 197
90 169 152
153 85 9
122 95 44
212 187 131
96 200 244
75 155 214
135 134 61
134 231 49
233 75 135
88 109 207
212 108 247
123 27 228
138 135 165
15 245 182
198 151 163
10 43 202
87 108 47
234 196 139
20 69 148
171 120 60
67 192 162
141 184 159
136 226 101
106 47 53
86 167 210
68 189 27
210 151 72
161 203 212
110 172 184
147 134 169
87 205 171
61 108 199
16 8 209
237 61 128
159 79 83
205 219 43
226 197 15
215 135 124
4 163 172
72 132 175
227 25 113
213 218 210
181 18 117
226 213 158
52 245 82
100 49 123
26 189 89
41 230 144
72 124 37
160 59 198
52 61 22
170 4 99
101 141 208
92 201 64
228 169 64
16 143 180
44 229 198
40 130 167
251 213 212
65 232 160
243 221 40
251 195 42
207 7 7
49 138 21
124 16 32
188 215 49
188 222 207
1 118 108
137 28 181
88 114 230
132 74 187
53 70 21
75 8 230
184 239 178
151 226 57
112 47 188
197 83 47
39 73 209
50 11 215
206 143 150
104 57 146
81 95 224
147 26 28
171 161 111
249 24 218
110 192 15
217 243 13
54 203 206
40 245 210
147 158 157
133 178 232
55 149 101
93 1 164
86 52 97
243 179 42
176 171 51
222 158 199
107 239 14
140 3 244
90 213 67
178 149 173
52 79 94
187 234 228
30 20 89
182 130 226
89 213 94
101 163 75
230 117 140
201 2 90
9 49 237
230 49 240
200 224 70
60 193 6
232 184 176
210 107 152
238 155 186
16 121 61
249 115 107
136 157 114
178 82 101
194 150 83
219 192 34
74 27 208
155 4 47
26 247 34
239 224 144
93 213 184
3 139 127
135 71 49
29 13 184
78 75 139
161 191 181
78 33 121
86 133 168
187 88 253
217 37 249
37 5 37
177 50 15
238 46 201
73 169 87
173 89 252
2 192 236
37 96 189
197 23 89
197 23 221
138 176 219
132 233 53
131 209 47
242 36 43
251 196 226
111 1 251
246 36 87
89 28 180
67 129 113
224 98 78
139 246 161
80 193 242
128 160 130
202 242 173
160 154 25
171 226 79
148 248 195
223 219 133
14 96 98
218 52 168
204 217 220
186 42 104
245 42 157
57 186 74
252 175 187
52 191 179
110 253 130
111 235 208
10 112 0
101 5 107
250 127 162
75 143 215
84 163 239
207 85 87
19 49 112
220 91 164
15 122 155
139 133 79
191 23 2
136 132 47
48 17 173
40 211 8
23 239 72
130 174 18
34 96 32
216 210 41
212 50 25
90 55 16
157 33 27
244 139 172
76 198 226
240 11 212
253 113 21
67 4 181
118 176 94
248 104 185
205 79 133
147 30 228
97 147 117
78 134 58
207 151 37
23 242 187
88 190 111
10 171 181
148 60 168
128 30 207
134 167 182
255 146 247
152 24 30
188 14 17
60 86 225
75 171 41
5 6 7
56 131 137
28 48 23
141 174 241
126 39 241
170 241 177
135 223 124
150 75 98
236 25 63
157 202 150
95 32 171
72 72 62
126 156 175
209 14 171
158 224 43
67 129 143
249 207 4
178 183 253
253 252 64
75 188 108
194 255 151
179 220 45
156 226 33
156 202 122
184 60 87
98 4 118
131 240 170
69 92 75
250 135 56
110 126 176
198 139 33
76 112 211
242 173 13
133 118 74
37 59 91
167 248 187
173 33 170
232 20 184
119 218 166
239 34 225
226 57 84
87 51 168
25 72 85
253 220 246
251 176 103
170 24 205
86 228 207
197 162 206
4 93 79
47 148 55
81 22 118
97 157 43
183 62 109
188 126 113
45 217 33
132 132 187
160 76 94
246 199 21
17 154 241
150 133 59
183 37 56
143 211 22
48 91 121
238 165 0
69 16 255
211 115 89
105 251 32
122 175 209
254 103 125
239 208 90
233 198 97
129 215 32
184 114 80
49 92 87
212 236 12
162 252 98
216 147 54
109 158 79
228 205 254
136 148 198
217 193 198
38 28 119
213 202 70
0 30 216
89 251 139
165 70 239
4 77 106
24 241 20
144 58 192
184 54 49
183 101 103
231 178 247
77 63 56
95 52 232
112 154 203
198 239 89
92 34 86
210 158 181
194 46 43
131 140 158
219 77 183
133 227 169
66 138 223
163 241 226
22 84 229
180 60 99
41 162 201
211 157 116
60 66 83
59 132 251
226 59 19
119 243 71
194 25 226
175 5 58
197 39 38
92 198 17
245 6 108
5 190 197
35 54 77
53 213 175
4 140 247
57 144 146
54 233 197
4 93 48
77 125 89
214 210 139
189 87 248
23 95 47
140 220 179
100 133 1
5 52 50
63 32 92
159 230 219
127 25 31
118 63 201
232 97 197
121 82 116
100 111 133
112 67 64
232 245 4
147 188 233
199 121 36
99 245 25
23 63 185
7 147 12
100 146 6
130 203 177
100 185 56
74 160 43
240 2 133
35 6 3
252 113 170
96 21 210
198 214 69
5 252 177
198 188 86
7 140 130
223 5 201
68 96 54
216 60 184
190 206 243
110 209 129
129 54 11
12 106 85
147 19 159
162 250 217
19 34 120
104 181 193
130 217 97
119 152 146
118 199 123
60 115 150
66 142 168
209 120 178
230 165 117
144 212 95
31 247 171
134 157 252
89 156 146
198 61 119
232 124 230
143 185 108
133 13 99
173 36 51
71 54 155
91 29 161
50 197 129
107 146 73
50 184 246
53 29 228
77 61 254
249 25 74
229 103 117
222 199 98
252 185 171
52 59 208
234 250 192
103 175 136
166 109 190
166 83 40
180 40 112
155 85 230
230 123 21
176 218 47
97 239 116
73 96 99
72 97 35
171 151 200
132 41 71
194 100 239
111 83 222
206 146 113
215 22 84
184 36 121
191 33 125
14 18 191
136 167 164
64 45 109
68 255 15
76 143 253
239 144 241
184 252 125
4 166 9
122 30 102
247 160 72
245 131 71
118 135 41
40 148 138
238 191 215
52 64 254
146 24 222
230 61 129
60 229 38
215 66 19
235 81 235
52 237 37
135 11 135
92 52 185
190 69 3
118 0 159
123 206 79
85 106 112
179 236 86
49 90 40
179 191 222
24 187 199
216 16 149
174 150 162
82 66 41
97 14 108
91 139 4
253 82 80
200 15 37
180 21 224
159 185 236
22 58 215
85 244 222
95 99 95
73 236 135
231 249 33
166 44 217
50 64 126
79 171 33
236 165 226
153 180 80
210 225 224
2 56 52
60 16 248
61 230 244
26 115 145
117 86 106
25 67 208
42 146 37
217 102 13
150 148 71
78 96 251
102 93 166
250 243 67
25 195 66
9 78 96
62 124 237
217 19 255
66 245 176
253 253 30
149 239 174
82 176 24
253 15 85
175 200 151
113 53 123
71 91 2
2 1 50
81 142 73
170 38 23
2 142 187
55 234 159
150 56 242
236 145 52
51 187 168
32 255 198
94 127 230
86 183 59
234 137 64
203 233 89
133 251 205
248 45 187
26 141 48
99 230 210
118 218 240
19 101 145
251 134 88
69 75 193
111 121 55
78 76 221
194 150 202
161 55 237
169 140 155
230 46 73
12 8 199
54 110 40
63 42 173
209 255 49
210 182 178
107 248 242
81 2 6
195 127 117
84 11 164
86 126 85
199 129 54
10 27 214
29 151 93
108 211 221
124 53 33
104 74 67
158 99 177
248 96 162
99 143 176
21 17 38
7 229 46
202 123 162
124 232 137
150 195 176
3 166 117
254 212 182
48 196 180
169 131 218
181 249 241
225 89 20
122 126 53
73 218 215
114 81 46
243 126 174
28 107 238
223 30 186
3 200 22
193 77 74
238 141 203
208 86 97
50 15 224
202 61 159
181 242 200
116 104 155
185 7 93
31 191 117
140 90 121
19 7 124
153 46 216
82 147 44
80 246 0
31 187 202
169 88 151
89 140 119
238 127 15
133 208 199
242 237 11
94 125 204
217 21 234
208 11 51
114 76 46
110 241 192
5 55 195
176 76 145
10 100 66
24 97 124
158 173 136
224 182 244
61 190 177
159 224 204
186 251 229
251 73 53
158 90 96
157 159 52
215 251 170
152 3 111
248 230 250
5 76 14
99 249 158
1 111 198
2 30 227
43 200 248
107 154 85
187 105 70
240 37 137
91 249 167
192 60 136
68 10 172
98 231 5
152 84 2
232 215 234
187 135 168
70 251 5
119 191 72
45 167 89
212 167 153
27 198 133
41 121 5
217 45 251
6 244 88
164 117 7
139 110 196
54 143 99
185 158 27
172 80 2
164 227 166
72 227 252
157 39 194
128 38 254
169 214 219
179 18 102
65 138 50
159 167 80
49 228 219
31 213 162
146 19 80
88 183 134
136 148 200
69 57 84
216 251 23
60 22 20
180 171 25
212 240 195
222 7 248
111 18 157
113 191 133
202 77 103
197 155 47
168 5 205
107 100 225
114 64 241
229 24 138
101 202 248
216 13 85
191 51 193
112 105 147
126 84 158
60 69 205
114 2 125
230 219 67
10 183 113
191 236 190
207 89 160
164 60 187
84 241 26
104 87 17
70 63 186
195 82 31
13 197 115
159 135 92
163 175 42
119 235 202
47 148 198
40 184 182
98 61 114
171 83 209
186 135 123
95 189 148
74 42 15
116 176 195
156 208 178
219 84 41
43 138 29
200 161 52
38 148 223
155 161 50
212 18 26
67 60 91
3 244 162
142 111 185
212 79 94
195 247 146
140 83 239
229 113 116
201 109 148
159 235 62
253 39 19
17 208 196
54 143 43
50 205 179
161 181 148
138 148 204
70 30 224
49 226 7
51 1 143
150 175 193
157 24 172
248 251 46
232 185 158
137 121 207
18 17 128
11 86 197
207 224 168
79 91 23
185 87 232
153 212 132
237 70 95
198 15 92
165 73 210
6 102 219
124 151 203
89 44 235
120 105 213
106 105 108
52 239 208
126 1 47
243 233 50
62 166 166
230 28 78
92 188 122
207 201 66
163 133 90
181 136 144
162 34 169
219 194 147
21 171 95
40 109 188
82 167 8
43 111 21
41 209 123
254 59 202
105 55 163
28 100 32
166 193 207
143 63 253
29 45 183
199 182 201
137 183 113
246 2 177
155 223 223
176 218 175
46 172 190
151 124 31
139 147 156
44 61 6
208 159 97
156 45 192
43 6 5
238 136 188
235 183 58
161 210 120
198 14 238
32 129 233
3 192 63
243 66 88
228 105 115
55 107 109
74 33 172
247 114 245
147 43 197
178 174 158
107 194 83
179 35 4
22 6 87
161 18 151
206 169 53
20 20 247
184 93 2
218 105 119
215 17 102
255 202 42
128 62 143
181 164 110
72 170 72
81 183 121
170 169 136
22 161 96
60 118 68
153 253 103
255 219 235
106 112 3
158 221 239
92 113 205
213 102 62
21 47 70
48 116 72
30 108 90
74 209 207
224 23 183
13 67 128
62 149 4
88 153 246
93 7 44
219 153 37
149 0 40
58 148 54
82 221 156
104 41 138
82 16 56
81 96 49
206 243 239
32 253 213
247 211 15
202 187 52
124 85 31
222 134 28
197 171 78
128 47 104
254 250 98
33 104 12
18 116 124
17 233 71
125 102 72
176 68 128
146 95 244
133 167 75
74 165 23
41 115 208
154 194 191
238 219 95
114 201 106
213 254 126
84 85 178
232 198 158
146 47 35
185 243 164
233 144 21
64 14 121
192 36 211
118 211 145
120 175 190
62 175 62
107 16 201
215 16 232
157 46 24
38 211 153
168 207 135
203 87 160
168 40 172
89 240 150
53 10 185
140 3 22
29 171 119
213 52 71
70 31 39
230 255 246
30 211 31
73 130 154
45 231 117
214 30 103
223 220 196
248 16 77
111 127 162
255 202 56
1 12 5
132 130 84
150 127 242
64 75 103
30 236 243
91 225 185
232 22 39
15 143 253
253 60 89
47 144 64
106 252 220
207 143 106
144 178 49
209 200 95
207 134 132
81 96 104
160 218 232
126 224 193
19 140 206
220 132 128
67 200 54
221 92 172
10 239 187
254 14 124
38 21 19
9 159 241
77 18 221
184 224 125
41 191 107
68 205 100
164 75 6
225 94 243
29 72 89
168 83 145
166 6 225
79 65 198
43 229 135
236 239 182
21 47 212
62 35 51
123 189 71
126 150 2
241 27 45
199 242 113
239 214 13
10 19 196
193 45 207
87 188 239
255 140 153
115 209 189
247 31 50
185 148 34
156 222 150
111 216 0
110 167 130
48 43 82
206 220 27
10 229 154
129 215 205
74 149 6
103 239 33
20 102 25
160 23 85
81 85 24
155 16 39
219 141 47
33 206 1
73 15 88
164 217 154
0 45 69
185 30 245
167 89 200
92 88 198
105 154 196
222 163 88
194 156 136
248 124 184
24 183 160
53 26 160
0 85 227
55 191 27
57 246 52
30 240 102
67 224 149
64 181 20
63 194 89
161 73 54
196 117 77
198 242 48
248 160 37
89 222 224
182 134 134
201 95 170
76 116 9
166 36 61
221 121 146
47 16 56
125 140 96
191 235 152
68 126 63
66 252 164
217 100 204
107 116 63
199 47 186
184 156 162
67 65 33
21 198 67
60 24 207
12 159 181
6 19 8
114 41 236
178 37 95
77 214 42
203 219 238
175 118 24
112 228 21
175 218 142
175 251 250
148 92 137
175 7 36
155 215 188
74 206 234
204 208 225
196 147 150
121 158 176
114 23 222
232 61 128
118 244 249
194 115 70
21 17 5
56 56 54
186 74 107
188 59 194
43 245 248
129 197 254
25 222 31
97 210 83
183 156 247
119 179 5
169 41 43
203 190 72
230 30 241
152 224 163
105 123 239
28 15 102
22 254 14
196 126 157
61 206 61
212 69 230
254 192 252
229 233 166
225 239 138
31 83 230
222 197 142
206 110 170
185 47 87
52 8 58
182 156 202
53 197 116
81 192 48
37 199 185
101 239 184
100 231 203
165 168 246
232 185 49
70 7 37
0 198 206
217 133 205
197 24 13
57 255 209
205 157 209
11 147 28
17 162 239
84 72 94
196 228 71
142 253 15
162 187 94
203 47 163
128 6 48
245 122 209
120 58 147
241 253 230
73 61 62
18 97 251
83 132 175
115 217 224
98 72 10
248 108 172
186 221 186
253 216 211
38 251 85
105 48 231
130 101 97
140 255 15
160 61 58
164 179 81
192 225 157
171 236 234
96 108 172
225 96 37
69 144 152
33 236 146
67 70 14
18 35 179
33 247 8
191 39 91
37 152 159
163 23 144
221 129 131
99 25 36
77 166 206
229 39 210
201 96 224
86 107 233
179 226 79
70 21 35
26 181 211
195 195 213
179 129 243
204 254 220
172 86 7
170 48 136
250 203 215
42 207 8
190 40 79
240 31 49
105 64 172
38 52 179
81 202 64
129 176 154
8 190 206
217 186 75
6 138 185
169 18 254
177 163 120
239 236 210
235 112 1
30 182 58
46 32 176
106 133 219
187 12 134
19 2 135
201 125 115
185 188 228
88 160 186
100 53 131
202 70 226
169 133 95
113 221 15
150 139 160
195 44 87
132 228 57
33 146 66
76 196 78
172 243 243
74 159 164
37 182 112
158 148 239
91 125 204
13 2 1
72 48 162
20 62 13
208 58 252
185 224 47
113 255 19
42 44 53
224 219 37
46 13 139
243 79 103
97 170 112
59 75 125
212 46 117
104 30 35
77 216 196
44 46 28
201 30 106
48 18 82
244 69 76
42 121 243
114 13 26
211 14 234
52 63 223
230 10 234
244 168 195
78 36 56
75 99 62
177 184 6
112 155 151
248 107 187
31 218 231
182 62 0
155 149 151
6 223 8
253 145 179
79 15 145
117 168 244
161 188 169
134 72 58
139 165 103
113 255 220
95 63 108
91 198 4
6 250 158
38 0 63
149 59 96
6 184 23
181 227 215
214 17 212
174 34 245
93 200 139
205 119 255
236 210 11
157 189 252
53 226 167
4 146 141
250 214 79
70 5 15
43 54 61
36 88 252
154 255 169
156 86 191
232 200 67
150 57 60
86 153 160
146 158 36
175 102 43
209 59 55
189 245 96
171 158 190
216 135 231
232 134 8
34 12 20
47 77 51
191 13 251
51 238 9
107 81 227
80 55 105
134 201 61
127 195 142
91 164 73
112 238 169
116 89 88
24 93 249
130 186 49
74 152 126
39 94 40
75 119 152
119 13 243
47 43 248
8 224 231
190 102 59
63 245 149
104 50 245
210 164 126
108 176 18
33 78 225
240 76 180
193 59 195
165 161 67
222 40 116
216 167 55
133 210 49
144 4 10
15 218 115
93 110 130
36 78 204
18 249 141
212 191 75
89 140 203
121 72 160
224 170 177
254 122 91
74 51 237
51 250 43
191 192 103
6 195 48
14 240 40
11 246 109
110 93 153
73 26 126
11 210 28
166 64 218
12 104 183
90 111 69
171 75 90
16 255 147
228 180 234
226 12 182
25 52 12
157 30 78
222 85 159
34 36 104
206 85 194
166 230 112
103 16 90
67 69 134
108 222 92
162 77 232
189 149 194
230 187 144
197 192 160
39 69 45
28 233 31
236 60 150
54 145 144
185 128 226
234 112 27
105 28 29
88 186 8
116 219 88
250 36 27
60 5 177
224 100 67
118 123 175
65 192 150
75 139 189
157 179 252
27 61 43
235 25 39
78 139 131
183 20 110
225 179 183
110 167 144
207 79 121
81 230 160
131 84 137
115 3 161
182 174 90
50 149 24
70 96 218
103 7 232
222 86 232
191 27 230
230 94 204
167 1 52
101 214 87
159 191 91
44 215 155
85 95 194
93 233 200
174 71 197
27 160 130
2 66 119
37 2 193
132 91 97
98 59 115
149 68 84
25 239 89
66 35 51
92 187 219
62 31 7
228 140 12
254 34 8
101 77 33
211 196 168
216 52 53
248 89 140
174 88 100
28 61 83
15 98 35
25 223 16
191 12 169
196 47 73
141 83 39
144 113 179
83 17 3
142 3 104
80 24 31
135 209 39
8 188 227
202 152 1
149 239 166
178 180 115
122 106 189
71 248 44
59 239 155
254 92 177
109 30 219
92 77 160
207 109 247
147 81 12
32 66 33
244 58 25
191 59 243
151 125 251
184 83 91
17 120 30
60 129 98
203 0 171
3 22 64
167 227 174
107 177 172
46 34 103
194 12 66
134 145 206
50 238 153
125 187 130
214 211 110
102 209 78
243 33 210
154 48 186
198 169 184
85 162 191
39 218 44
124 103 158
93 132 232
254 106 41
95 92 34
90 155 158
123 81 135
254 29 37
169 69 47
185 121 182
189 197 126
109 129 171
138 45 159
49 222 52
105 16 113
45 81 218
105 194 33
79 77 155
72 250 134
123 101 185
77 181 31
39 6 89
184 180 122
205 3 235
190 53 100
91 203 236
3 207 221
118 0 176
232 250 158
235 193 219
245 185 60
134 55 185
214 47 225
196 198 154
187 171 238
205 164 181
94 126 54
248 142 247
241 112 55
177 22 2
127 57 125
10 154 208
222 140 221
164 117 206
120 232 163
7 219 141
231 32 133
114 63 159
166 206 52
49 155 241
194 132 151
55 254 219
135 82 185
224 171 30
1 24 10
232 38 21
132 172 162
23 199 115
121 61 171
150 195 147
110 183 2
155 126 124
153 206 245
246 83 188
241 223 138
220 234 167
17 234 53
150 53 2
7 44 176
192 250 133
99 237 255
90 179 141
12 241 47
166 103 220
53 115 194
98 253 192
41 137 54
74 185 106
174 7 12
240 168 233
192 28 221
237 130 202
155 154 209
150 22 111
239 150 68
93 75 133
180 55 33
167 208 126
111 137 111
22 170 250
181 81 140
221 78 200
47 15 183
103 254 119
166 44 9
145 91 165
175 154 11
119 73 59
209 99 143
219 9 8
173 32 185
41 170 183
65 69 21
121 78 9
188 71 2
10 151 150
112 29 224
118 11 100
183 95 82
207 78 210
184 82 10
156 184 22
65 110 250
235 1 111
66 61 33
171 100 13
228 26 156
158 171 75
190 218 234
0 207 131
207 28 30
87 162 24
79 194 150
209 7 47
1 158 240
39 88 123
94 47 136
97 152 177
33 11 101
13 1 145
53 127 221
129 68 255
1 120 124
97 248 158
172 58 19
105 84 227
147 136 1
245 39 74
211 140 103
75 24 31
44 34 130
106 49 51
122 78 144
123 174 184
168 167 229
123 65 142
124 230 187
222 217 34
210 86 122
154 56 22
228 1 61
27 53 60
25 202 242
60 131 227
243 53 188
90 172 32
84 205 29
6 248 182
11 75 202
164 245 12
65 10 71
6 231 17
183 200 48
42 127 87
104 201 122
16 219 211
161 43 106
163 124 179
180 100 233
197 192 140
89 182 241
126 52 98
200 114 192
249 202 247
1 10 70
82 25 184
190 2 160
192 191 70
250 88 238
10 139 79
27 253 67
58 76 182
156 176 100
196 31 251
108 227 125
195 12 157
103 235 163
230 214 105
130 254 82
89 246 208
192 17 203
29 245 148
47 213 231
26 216 64
247 224 97
109 41 174
154 83 16
53 60 178
110 188 31
75 91 121
135 165 179
200 199 73
186 101 123
111 136 106
120 219 251
174 197 130
93 109 3
82 234 34
19 41 151
192 137 244
70 33 136
104 240 160
141 51 208
75 147 209
95 150 213
174 113 42
60 76 39
200 93 13
222 26 50
49 9 206
101 116 191
75 115 150
183 37 232
71 119 58
187 76 163
118 210 169
157 131 213
1 23 22
132 35 20
99 118 228
76 107 16
95 139 66
128 109 2
107 11 190
3 193 193
220 252 161
57 213 169
88 125 31
29 23 195
177 117 74
248 99 3
202 157 105
157 122 243
26 159 48
180 181 1
226 205 201
90 245 62
97 146 201
40 13 92
26 118 97
132 62 134
81 83 89
138 227 110
22 92 212
238 18 241
252 233 252
218 98 78
177 67 76
31 60 211
36 140 195
133 37 70
214 15 27
11 68 161
153 31 61
107 58 47
79 210 118
235 180 22
125 133 67
11 55 87
181 63 118
116 62 174
84 231 198
192 50 122
82 40 172
207 190 120
103 173 140
66 57 142
203 129 202
9 219 116
54 12 207
134 111 68
4 208 27
44 186 10
84 20 239
87 246 162
99 161 209
109 191 56
106 80 102
213 253 207
124 12 149
1 109 251
7 130 148
38 12 81
132 182 143
106 245 193
56 119 218
171 192 23
93 7 156
11 28 162
55 167 13
102 213 22
112 134 253
174 127 69
196 5 20
222 205 186
83 167 7
181 157 156
42 129 143
131 206 233
244 12 252
91 175 122
56 41 85
162 23 85
150 159 59
82 103 4
45 104 162
140 50 18
27 152 2
162 171 34
95 152 34
34 194 224
186 198 194
74 211 87
168 25 244
225 212 206
29 223 107
70 105 166
8 126 165
209 76 165
173 56 86
108 117 99
85 33 217
114 16 142
201 9 198
83 103 96
216 237 61
89 77 219
181 166 62
200 247 105
182 110 86
190 60 193
224 48 65
83 121 55
26 43 87
251 123 220
252 245 148
75 246 210
174 18 190
91 107 131
145 234 146
180 184 176
25 105 222
236 34 225
247 84 229
169 135 61
121 178 45
6 173 180
149 43 191
228 115 182
11 42 116
35 157 0
251 54 245
166 101 89
17 166 32
232 7 89
108 6 0
207 112 164
199 67 176
215 12 81
83 109 234
245 77 20
97 188 201
61 156 166
252 220 158
242 215 191
49 191 221
41 114 148
255 216 120
16 222 117
224 143 40
156 227 65
47 183 51
235 196 196
104 179 116
63 91 77
166 65 51
69 56 4
231 229 252
79 187 222
214 99 241
200 53 165
16 23 126
232 219 25
248 154 31
59 217 86
70 115 28
69 80 235
66 191 21
102 105 53
6 57 87
121 194 86
38 148 5
208 94 221
237 59 161
207 247 57
20 210 54
196 118 116
84 113 206
48 93 110
44 138 35
61 255 207
186 27 155
225 70 10
125 186 177
92 125 116
70 223 42
54 193 63
253 9 115
125 172 60
225 191 210
221 108 152
226 182 54
76 152 65
133 50 86
238 20 74
92 139 99
138 252 135
20 227 100
19 255 199
107 56 53
228 83 155
225 50 118
130 91 223
70 66 181
18 65 176
2 9 92
66 137 7
35 32 27
142 255 18
156 87 74
25 171 41
148 71 211
111 161 216
207 255 208
36 209 239
245 55 11
72 203 38
102 12 181
72 3 218
189 14 242
28 42 49
52 245 252
36 173 224
39 122 159
17 103 202
32 225 76
69 22 179
177 76 253
124 176 47
253 153 96
80 83 174
174 153 107
48 160 172
177 175 193
147 39 230
148 208 159
45 69 11
155 211 83
166 46 28
101 204 216
73 161 128
89 193 37
234 79 181
83 196 197
15 193 178
74 21 4
172 228 22
130 90 120
148 92 166
31 51 112
177 203 159
34 1 11
101 75 154
201 111 226
221 113 75
193 52 43
148 71 114
117 95 184
163 43 189
240 96 205
219 112 39
8 91 255
69 223 187
151 1 65
113 251 212
120 22 92
53 180 166
181 132 200
231 201 125
33 43 73
240 23 126
65 20 210
169 107 236
73 116 138
215 207 52
199 7 31
152 188 193
96 97 211
76 93 150
193 138 176
18 253 9
166 168 159
41 181 174
107 13 97
102 232 18
135 147 152
195 234 220
131 15 142
2 68 102
186 231 216
235 105 74
175 0 2
165 35 139
178 158 54
220 32 122
189 200 47
83 118 2
107 122 198
67 240 74
173 12 145
35 171 238
113 208 92
86 74 120
59 189 163
106 183 102
250 137 82
118 154 227
112 88 71
144 94 46
83 50 128
106 45 13
166 237 208
247 108 216
22 164 92
113 153 28
59 215 210
33 51 35
12 168 115
199 141 189
99 48 144
193 192 147
7 131 69
47 178 184
95 140 136
182 215 246
29 198 101
14 210 179
176 111 252
91 153 13
38 4 61
60 148 49
243 237 132
187 164 214
79 153 188
129 1 59
133 194 137
243 92 88
139 202 67
152 78 142
51 156 175
47 2 191
126 178 114
113 129 111
32 241 29
129 61 87
251 55 253
99 238 107
208 152 3
239 84 191
138 66 26
114 162 218
79 121 55
79 144 171
131 130 76
108 105 119
122 100 116
115 189 16
80 74 127
156 97 152
134 237 40
205 6 76
234 192 108
68 177 182
212 146 102
22 250 191
116 227 11
227 71 54
171 92 51
31 195 95
141 158 110
151 148 66
100 21 226
181 90 229
79 140 99
158 74 148
36 202 111
188 51 245
214 43 26
225 27 26
86 2 132
241 60 64
130 242 249
182 48 218
31 48 154
14 207 38
175 228 234
242 201 89
211 176 227
220 73 62
144 158 185
217 74 252
109 133 114
213 250 120
53 167 247
229 178 245
37 79 159
212 162 226
79 228 73
250 92 67
131 7 173
103 144 46
29 172 240
171 191 204
57 68 208
216 76 225
41 164 57
74 158 135
83 140 139
237 197 202
216 202 185
150 3 211
191 57 249
178 225 92
68 241 31
22 229 232
207 117 92
61 128 240
25 153 182
101 167 39
141 138 144
36 219 244
58 107 222
243 54 159
58 128 76
203 240 140
26 142 23
67 255 156
18 251 142
101 208 167
99 26 91
144 2 164
225 102 24
236 56 148
69 5 168
60 213 50
30 240 145
139 127 42
123 169 43
224 17 130
92 189 187
161 140 56
176 231 165
17 53 218
204 59 187
130 12 18
96 172 6
209 226 201
161 94 117
187 96 116
11 109 140
14 205 159
8 175 22
76 249 99
228 104 23
177 175 151
161 165 191
180 191 250
49 66 120
35 57 235
149 16 4
229 68 32
56 243 154
161 109 205
39 125 20
163 49 247
37 21 205
38 214 113
55 94 119
197 242 53
103 68 32
234 173 153
180 30 123
126 72 29
26 48 83
139 239 70
207 175 187
250 239 218
214 13 64
184 150 94
61 85 146
151 65 78
182 52 86
69 136 128
183 111 189
79 134 84
42 98 80
23 178 25
187 190 162
128 253 177
140 35 237
232 249 167
232 205 1
36 202 40
80 18 22
59 197 240
249 81 163
140 154 137
187 129 32
209 200 159
163 226 151
208 98 89
46 89 42
64 168 203
139 149 203
203 236 85
215 127 241
118 200 0
67 137 80
219 150 232
82 85 73
106 92 73
106 174 81
90 193 82
122 56 20
185 62 128
210 237 237
147 243 141
12 219 109
59 44 97
171 151 10
114 43 105
238 94 50
78 149 36
252 220 203
218 23 207
89 230 182
148 10 224
143 116 210
197 205 14
102 253 83
37 137 168
146 250 176
106 189 220
221 254 20
54 99 186
178 28 135
134 164 158
13 228 148
117 172 83
13 143 230
10 118 222
45 63 249
160 174 37
138 169 205
98 65 235
17 62 229
197 56 194
247 225 50
161 103 73
157 240 81
163 6 139
60 7 89
101 42 35
205 44 204
192 185 242
71 78 235
191 87 219
149 53 223
201 188 173
45 233 55
86 111 143
46 160 213
168 7 229
50 201 187
30 251 147
173 126 77
92 146 211
178 235 36
230 13 83
194 101 214
255 103 237
86 30 214
72 211 231
74 33 255
128 92 65
99 72 65
116 105 85
23 118 60
0 30 159
42 147 37
240 132 249
41 216 16
24 208 102
101 178 60
166 153 214
235 115 126
141 13 61
146 207 85
118 94 48
193 178 51
219 250 160
251 158 225
97 40 78
237 24 166
71 17 42
85 99 139
243 234 44
157 227 61
128 63 161
203 31 135
57 120 37
157 247 77
164 50 200
254 140 31
161 71 191
11 189 111
70 35 10
50 221 209
118 34 231
2 244 147
150 32 192
195 168 84
36 98 119
91 130 155
10 100 217
1 190 99
21 197 159
198 50 80
222 46 78
160 45 155
14 223 227
109 177 11
240 131 43
152 112 254
178 5 214
130 42 233
25 212 160
235 210 27
236 133 32
247 160 236
158 85 68
124 47 182
61 134 87
242 5 149
213 182 99
17 205 56
11 194 221
96 143 218
80 223 67
85 133 245
47 237 74
141 193 37
210 181 74
57 208 140
75 54 208
179 198 52
0 197 7
87 65 210
151 58 90
188 31 189
100 124 20
148 123 223
40 51 252
192 4 32
139 147 11
123 6 223
208 128 101
157 227 10
66 117 254
39 60 179
10 116 9
61 87 43
57 9 241
253 116 45
142 201 216
198 22 101
65 147 208
150 72 254
196 134 237
130 65 183
251 63 39
137 63 239
52 192 142
131 33 79
184 37 184
241 125 162
177 91 28
21 105 239
212 40 45
205 7 122
112 249 213
211 92 91
77 216 129
163 99 52
119 169 74
37 183 23
82 36 80
217 102 24
101 184 190
246 23 129
231 146 180
145 227 149
221 241 156
34 150 3
234 186 34
18 56 13
161 68 76
184 12 82
238 92 175
57 237 228
185 180 184
11 174 3
189 215 131
137 163 148
39 232 8
57 51 173
105 254 114
161 172 174
74 98 72
61 164 180
16 53 213
82 13 238
99 42 32
67 88 220
144 233 200
9 5 244
155 46 186
156 141 26
125 110 147
25 35 207
137 11 206
155 209 252
30 237 4
67 232 212
158 26 103
247 253 154
67 98 86
84 207 89
22 73 177
51 252 146
137 229 255
56 218 122
112 146 226
191 127 114
57 211 76
204 23 129
2 172 111
117 242 58
64 77 253
90 220 226
1 111 153
148 158 69
85 142 82
164 160 156
132 10 199
48 254 144
75 217 101
252 126 85
170 120 248
93 120 255
31 127 68
212 169 178
191 100 6
0 56 209
204 205 146
75 160 221
231 86 0
146 118 88
182 201 161
158 63 81
58 116 69
112 12 40
62 43 248
1 70 15
198 193 65
244 152 203
224 98 19
23 205 239
168 152 83
32 216 153
241 30 108
111 2 124
147 229 25
240 227 156
22 206 56
46 14 118
184 91 123
32 84 150
178 39 137
119 16 18
32 124 178
155 61 91
125 194 155
25 210 217
75 163 241
243 17 206
48 19 197
169 7 183
207 185 188
162 123 254
116 222 20
178 164 136
54 43 152
203 177 59
214 66 253
42 66 228
214 168 155
90 147 227
193 182 164
88 2 234
154 7 214
55 102 91
101 38 110
31 230 243
54 232 71
132 102 190
61 147 27
77 149 211
25 235 106
10 158 233
251 17 37
33 108 79
99 11 63
0 248 94
106 38 84
135 254 168
109 25 57
214 126 86
29 30 220
52 105 11
90 245 81
87 153 147
72 227 193
0 244 154
250 161 164
204 223 1
7 76 57
182 46 18
249 241 170
234 36 2
253 87 20
134 136 76
253 140 207
11 139 186
212 115 6
16 121 107
76 204 212
98 230 88
171 31 0
158 98 213
250 67 149
14 162 132
121 176 150
224 28 232
38 56 136
218 164 122
52 4 136
110 200 72
244 232 26
81 205 79
219 163 40
117 55 222
119 120 178
95 86 17
231 144 204
140 121 34
176 75 156
67 57 122
36 241 139
30 121 251
228 133 40
50 92 224
52 255 66
84 130 223
247 155 113
194 176 54
43 7 106
191 58 100
214 49 141
104 4 228
219 16 228
180 229 149
121 136 177
36 245 172
187 228 37
11 131 120
163 144 73
180 68 235
217 239 125
210 30 137
221 68 189
144 103 186
153 111 251
57 107 83
185 159 119
224 230 177
217 142 237
183 125 49
157 192 6
140 153 236
117 104 26
196 215 106
1 152 74
113 167 218
27 103 108
181 116 69
18 224 208
151 39 54
146 192 87
139 33 157
247 194 131
18 104 63
142 166 113
110 81 33
109 213 237
34 108 169
181 232 91
237 149 253
151 183 31
98 88 241
85 201 12
56 130 147
93 55 135
204 6 123
243 149 144
150 95 51
225 220 26
34 39 190
203 171 7
180 29 58
59 101 139
246 3 193
134 193 174
254 103 189
39 122 86
77 23 237
119 124 250
93 252 131
90 114 149
31 253 27
51 34 111
151 64 78
202 119 174
114 49 157
250 168 198
119 136 103
151 40 53
234 106 38
143 229 187
21 124 248
169 227 88
69 204 215
156 47 58
1 77 234
50 77 213
144 104 168
86 229 137
254 164 224
173 98 197
70 85 95
170 78 119
208 223 181
238 221 242
68 62 74
45 223 229
191 207 32
253 124 33
197 63 8
217 97 119
174 200 87
173 142 71
211 150 187
145 9 22
108 144 165
148 221 36
67 16 202
231 180 48
112 108 56
14 220 89
68 10 61
117 153 216
149 185 201
24 163 85
101 245 155
18 50 206
224 207 88
45 38 166
70 201 146
131 127 237
211 81 67
132 54 32
214 244 120
145 69 139
165 164 57
93 142 244
89 158 33
32 123 126
12 77 182
8 113 158
202 162 220
123 131 23
127 8 232
242 76 4
224 6 61
26 155 166
150 209 171
30 150 30
54 55 54
133 154 205
237 99 217
110 31 198
22 161 31
193 217 77
90 137 124
234 225 160
189 161 48
176 186 178
84 9 199
77 48 112
117 71 63
155 135 219
93 238 122
168 48 72
166 147 223
42 165 108
112 160 202
206 221 112
212 224 25
252 91 103
176 192 189
69 88 43
162 122 248
58 128 57
128 216 6
60 147 140
96 254 34
45 220 73
41 210 201
129 151 131
158 244 207
63 241 91
146 190 249
216 253 13
50 38 207
95 215 173
11 178 244
195 131 250
213 133 150
42 115 95
168 119 91
115 115 41
234 170 37
27 37 93
236 248 178
46 106 110
31 80 122
157 85 162
101 40 46
42 245 18
189 13 47
191 226 173
152 179 210
207 130 63
59 201 65
237 175 186
99 161 125
8 75 235
240 106 149
33 12 165
152 236 123
59 172 99
110 181 220
135 219 186
107 252 170
31 249 47
172 88 254
89 25 198
182 57 236
123 207 123
163 151 250
131 249 231
196 124 171
18 5 178
54 146 71
208 2 226
229 89 250
224 218 101
180 235 187
204 76 25
175 252 111
130 18 112
148 6 101
238 153 87
153 147 152
239 99 209
247 184 198
222 219 130
208 6 251
29 32 213
184 22 202
163 198 157
25 52 154
254 20 216
182 204 218
74 17 132
108 199 161
211 76 237
87 133 204
35 147 123
255 127 150
233 166 176
216 192 67
66 156 205
123 212 133
9 203 181
230 102 164
101 180 152
115 111 7
252 229 3
39 206 150
166 122 115
133 142 13
249 69 240
158 86 204
156 144 56
193 143 227
204 5 141
178 145 160
255 221 235
58 74 128
226 81 143
197 125 95
18 64 27
42 66 197
101 144 99
76 226 49
132 113 15
176 80 17
226 88 133
100 98 98
130 117 208
112 151 44
108 99 180
29 134 187
110 40 98
203 85 97
127 167 17
63 174 134
90 135 14
5 27 62
225 154 37
82 2 46
142 178 179
69 133 50
130 149 167
242 217 253
236 242 123
43 10 58
69 207 102
42 124 100
124 73 65
24 231 35
46 195 82
241 250 76
68 105 157
225 200 73
38 137 123
52 153 55
88 68 234
243 22 206
152 242 152
55 1 210
245 61 85
88 1 155
19 164 44
248 31 169
247 76 208
159 27 188
159 242 32
142 136 150
121 76 95
58 162 72
83 177 136
229 191 124
161 13 137
65 94 217
32 218 79
222 185 90
17 168 97
154 19 136
4 186 120
89 228 71
62 179 238
77 209 152
225 57 9
81 8 129
140 79 106
121 55 91
50 226 44
23 6 50
203 93 201
132 16 115
84 208 16
100 69 134
116 116 55
44 241 166
43 66 135
155 173 234
145 147 16
40 87 191
254 72 60
161 134 146
1 24 137
163 54 102
227 114 122
143 3 209
131 157 84
6 65 189
0 105 149
83 137 222
51 56 69
47 16 210
77 86 34
9 229 89
40 4 90
67 212 224
83 182 148
34 124 14
150 62 52
153 152 228
236 42 227
4 249 118
91 15 75
1 141 78
19 211 244
63 209 208
141 54 227
59 136 13
177 249 28
63 109 141
22 27 75
6 31 194
83 150 108
67 53 112
124 149 48
165 208 194
226 183 163
13 133 45
56 33 171
212 180 121
243 45 81
86 115 92
54 93 104
154 162 65
158 114 55
68 145 185
56 188 124
189 168 90
245 132 212
240 198 21
135 231 131
79 113 116
30 142 125
188 64 77
92 114 229
143 89 209
22 213 110
17 203 92
108 140 32
115 61 152
109 40 123
222 68 63
27 159 127
252 8 36
17 150 17
190 57 192
0 96 147
43 139 240
123 64 99
94 200 247
89 228 191
131 54 29
184 97 34
101 130 111
13 95 53
101 3 20
134 209 138
33 200 198
127 93 97
124 67 111
29 197 166
14 74 131
60 188 145
13 138 61
15 66 224
164 104 168
177 105 198
206 199 250
38 56 132
143 188 75
155 57 49
214 73 188
182 26 99
79 161 11
178 147 254
244 47 206
99 93 248
23 123 218
107 229 149
6 52 167
194 64 158
38 73 92
172 104 23
251 69 152
69 14 28
214 197 243
228 108 115
86 7 154
115 7 39
65 15 220
252 252 85
196 248 98
213 211 198
244 220 127
97 31 239
39 44 144
200 26 163
133 15 196
98 97 143
14 130 225
98 19 148
216 2 196
25 238 66
135 65 236
19 85 121
135 33 130
216 79 47
203 84 33
128 217 255
158 141 60
77 28 138
92 129 236
205 30 154
9 13 39
235 72 14
184 198 38
233 254 159
60 157 195
46 78 150
39 90 226
177 73 0
195 120 160
124 175 237
32 47 63
223 85 56
219 196 128
216 74 116
235 255 69
71 203 85
36 8 54
10 17 0
151 65 95
63 142 159
149 76 40
60 188 22
163 156 232
174 220 185
35 93 189
23 7 189
32 86 203
202 63 64
96 79 106
204 28 9
24 148 221
209 225 40
154 49 56
13 206 41
83 213 207
1 168 51
54 129 241
39 186 75
234 62 58
144 64 38
88 100 64
252 82 112
212 175 96
31 236 165
111 171 152
247 146 217
76 129 223
224 117 104
107 128 229
167 89 113
0 26 23
147 146 96
86 173 33
83 179 71
174 203 198
253 175 37
105 145 205
235 9 142
172 145 58
177 59 131
107 93 51
225 65 106
54 218 116
35 223 22
52 216 92
163 35 108
216 80 11
169 135 71
214 253 34
245 157 233
189 114 145
41 106 115
105 252 15
116 57 19
41 137 128
175 243 110
24 85 190
229 236 235
23 190 59
32 204 202
144 9 122
101 184 49
99 3 30
184 167 194
99 255 28
117 133 91
75 135 13
68 168 168
165 112 222
188 233 110
228 170 60
225 90 194
72 132 254
160 171 140
43 11 57
70 185 221
7 180 242
18 105 30
37 31 254
189 224 125
189 103 78
244 8 244
113 228 79
123 203 132
121 197 178
216 83 227
141 113 180
199 146 66
50 152 41
107 207 6
228 56 112
80 25 248
77 130 67
229 131 142
4 173 178
181 236 89
177 28 247
56 224 164
214 216 94
5 255 8
116 104 123
247 106 2
6 96 104
140 214 23
221 32 243
96 25 53
226 200 163
21 179 55
34 12 135
23 181 182
15 148 120
170 214 189
81 63 158
178 47 153
17 54 110
13 173 99
196 243 42
163 125 168
167 9 91
146 183 84
13 33 123
108 25 214
14 133 136
204 110 11
50 80 31
83 234 231
219 82 102
148 189 110
222 181 17
62 126 229
49 100 164
65 133 184
30 225 66
189 5 147
17 2 162
167 51 138
233 38 122
54 176 63
28 160 92
235 86 55
251 46 58
15 235 236
207 251 141
80 89 134
45 109 63
236 132 99
153 0 128
25 253 107
206 30 72
160 180 43
66 99 222
203 15 10
204 60 247
164 140 35
185 96 228
126 216 180
85 2 223
174 124 165
233 193 182
75 67 55
114 239 119
173 88 251
53 178 4
127 194 115
143 192 176
22 80 2
196 253 61
247 184 68
48 195 117
25 86 143
35 130 221
190 33 148
239 218 113
123 207 57
151 14 79
133 47 206
180 51 115
106 226 240
158 48 246
147 141 1
243 103 220
253 74 77
155 101 22
203 84 117
94 153 83
193 219 178
156 20 16
180 213 135
174 11 187
73 9 208
128 67 116
189 239 218
112 174 187
253 114 18
96 96 102
11 154 63
118 159 94
129 100 119
254 108 166
146 113 92
153 89 254
172 125 207
91 197 74
122 99 30
165 50 178
217 129 21
176 119 137
16 237 248
18 20 6
124 211 101
137 21 69
239 115 248
20 221 95
196 18 137
30 238 20
12 234 149
66 175 203
6 212 133
78 65 150
201 66 152
195 70 141
32 209 251
224 182 96
106 2 95
147 139 121
59 4 176
170 145 155
92 160 212
253 227 58
180 252 127
28 29 15
222 62 173
162 85 202
85 114 42
162 181 69
57 76 145
179 152 53
230 73 108
209 253 152
3 163 178
158 244 104
104 91 161
181 65 36
244 188 11
125 181 128
254 237 179
196 114 144
87 236 99
36 230 117
17 29 32
235 187 65
137 0 78
105 182 141
154 221 20
22 41 234
205 91 172
79 3 76
194 61 231
57 129 250
242 241 70
157 246 242
19 203 87
98 185 42
100 156 62
14 239 212
34 178 113
83 206 171
166 127 190
242 142 209
80 140 0
64 121 49
249 245 158
161 79 219
29 181 195
117 153 220
121 121 194
110 251 145
32 137 88
8 89 71
143 7 218
117 68 55
12 234 134
105 226 29
176 110 54
103 112 78
4 251 238
40 184 23
87 76 232
153 140 221
237 109 243
4 142 196
152 206 82
6 211 190
130 57 139
85 147 48
176 89 251
85 37 177
179 127 167
139 186 148
127 218 85
43 138 136
198 101 224
213 14 127
91 141 97
99 133 164
147 80 251
147 46 151
69 120 14
221 100 167
207 131 237
14 41 42
236 130 2
68 116 183
56 224 102
198 109 62
64 64 171
127 130 184
138 222 231
137 78 247
53 1 250
94 70 58
168 180 149
14 5 178
243 53 44
81 80 26
38 69 252
109 167 85
23 158 146
114 2 118
175 238 5
116 101 15
209 175 40
59 121 9
209 187 192
169 234 230
42 29 188
86 196 225
43 255 90
146 226 206
90 155 15
201 67 228
223 157 5
23 211 5
166 196 186
176 36 199
51 181 184
104 224 99
204 128 226
245 23 126
101 235 38
83 98 147
192 0 80
216 124 24
227 162 149
21 97 91
3 34 34
125 76 27
96 219 135
132 114 5
252 155 233
83 140 248
105 140 244
63 81 181
140 52 140
155 102 65
241 7 164
47 139 37
3 221 172
50 245 246
93 169 48
33 87 189
93 125 119
94 91 40
13 101 56
177 118 83
201 153 143
221 71 53
133 152 111
166 18 39
147 204 218
65 192 142
218 219 208
199 27 177
244 18 182
249 170 206
92 7 123
84 223 163
228 229 109
111 15 88
173 195 203
245 18 99
209 242 57
165 224 181
57 233 4
203 60 20
46 19 19
205 8 16
34 225 151
214 58 48
101 76 127
164 198 195
145 84 219
81 12 149
71 11 118
140 171 9
116 155 80
167 131 219
87 96 253
129 224 119
23 189 76
127 249 244
85 180 161
28 113 94
212 8 138
34 174 109
15 164 51
80 141 66
62 101 90
60 48 215
125 160 111
143 34 38
135 250 25
170 214 216
140 88 8
109 39 62
9 61 190
5 124 143
174 90 186
84 252 162
39 142 128
128 201 61
183 40 238
225 172 94
137 30 240
5 254 118
79 253 133
222 239 224
29 42 245
67 254 240
132 140 230
68 16 191
141 181 164
10 12 245
34 238 12
83 249 77
101 171 249
89 35 132
178 94 15
103 72 14
161 90 23
78 244 7
169 25 189
80 41 152
1 49 75
62 107 191
169 127 148
157 154 206
238 214 118
253 201 27
132 60 238
30 220 83
68 232 76
52 229 249
82 223 188
105 240 102
48 131 82
219 75 206
174 222 8
254 87 17
220 129 206
99 26 97
84 108 221
93 224 54
228 14 146
69 126 200
147 64 148
94 140 198
153 179 26
170 161 90
8 183 233
55 224 140
218 43 168
8 226 225
49 25 204
221 153 119
26 69 90
236 4 47
87 187 200
197 254 136
103 80 93
153 207 242
249 255 98
226 85 172
134 53 132
191 49 23
177 81 147
66 58 124
140 143 226
222 34 185
71 235 166
245 157 149
140 47 253
151 197 251
235 73 185
7 213 107
142 175 65
6 31 148
215 189 168
136 209 100
54 56 218
155 238 61
198 21 210
43 252 54
27 160 38
95 90 250
1 57 210
31 170 27
114 128 132
146 14 24
12 172 214
227 31 203
57 83 94
86 227 29
161 194 123
216 81 196
140 85 96
0 124 17
32 39 242
154 97 23
34 77 151
251 3 32
179 40 243
109 156 217
191 30 39
211 117 183
36 236 147
242 240 55
169 27 4
55 115 195
49 107 251
218 230 24
158 151 161
90 20 235
81 190 169
218 245 4
225 121 204
208 35 114
51 131 194
90 236 202
246 246 144
225 44 243
12 117 162
79 237 96
122 15 148
185 209 121
248 4 125
143 180 205
155 28 211
199 126 3
30 48 147
19 221 200
62 53 104
63 202 209
220 80 83
62 178 123
247 10 121
150 1 199
3 181 22
61 72 188
250 78 131
202 7 225
28 59 163
20 77 27
235 142 37
190 93 179
115 208 31
212 89 14
189 172 253
249 137 65
252 84 117
151 12 136
25 92 230
138 231 122
173 27 162
13 233 87
251 230 181
70 28 144
67 1 20
75 188 245
233 110 48
75 46 156
197 169 241
3 96 97
41 173 227
113 198 13
103 3 255
155 61 129
103 241 70
171 74 46
239 20 5
61 132 65
199 202 233
218 178 79
166 19 229
94 49 43
29 214 163
87 73 37
64 51 197
158 98 38
124 127 101
236 105 218
159 235 112
240 169 199
172 241 70
169 141 95
243 111 32
89 201 207
49 83 214
99 193 83
250 18 105
137 121 99
80 9 40
154 86 153
112 146 198
213 123 155
134 109 203
143 86 219
216 24 152
51 128 180
173 72 71
155 88 172
86 5 71
241 51 142
55 229 0
80 14 42
234 224 67
111 207 235
161 9 130
55 137 6
210 84 214
86 126 12
209 170 240
207 78 59
115 252 207
209 227 193
213 207 155
8 60 213
101 65 172
70 36 52
172 161 6
49 140 92
143 186 188
167 218 16
59 103 240
254 77 108
28 189 101
203 249 51
164 50 172
33 197 152
223 18 185
187 226 172
177 179 201
31 215 194
105 118 11
121 63 52
252 72 29
179 198 13
12 217 213
18 126 144
83 198 208
215 212 26
251 12 130
212 43 30
226 138 77
228 129 224
160 28 50
224 212 131
37 68 88
245 210 207
227 227 187
254 90 156
102 105 218
129 110 120
205 33 154
185 215 27
17 109 146
184 171 79
190 77 56
216 114 102
226 106 31
36 160 95
13 240 141
0 162 227
34 206 35
183 151 250
96 41 62
164 168 17
193 172 52
51 5 0
172 6 138
169 152 197
84 198 71
23 247 103
51 213 80
213 79 199
32 4 248
164 75 203
187 158 203
117 164 69
32 151 54
202 56 3
99 224 185
231 193 56
203 92 210
119 43 113
131 214 235
11 31 62
251 41 77
53 30 42
205 103 28
91 226 136
1 23 38
95 69 57
59 144 25
174 51 3
156 193 17
41 119 171
89 32 251
157 93 126
105 164 20
103 95 248
114 19 170
137 222 3
108 118 107
81 91 177
187 201 44
115 110 213
41 28 197
162 231 175
211 144 145
50 251 158
18 60 98
27 134 212
139 34 150
47 144 113
123 95 155
128 136 116
147 57 208
220 50 195
46 74 70
5 67 217
161 104 64
252 112 174
41 162 32
213 16 107
192 3 151
215 212 180
156 82 82
23 110 107
92 125 186
79 249 248
183 96 94
178 225 231
230 132 89
79 203 231
188 200 131
101 162 190
70 32 222
222 137 231
173 55 172
233 140 26
186 229 132
82 130 11
174 201 73
36 185 9
174 116 225
182 123 113
21 9 36
35 178 72
119 12 212
216 60 225
202 1 183
152 6 100
145 64 41
80 58 98
164 32 149
17 147 214
55 173 249
146 241 247
158 159 191
10 27 198
139 89 207
53 66 43
175 56 140
12 157 69
205 103 15
145 113 25
93 44 162
189 178 212
83 103 13
80 116 3
141 15 79
89 119 214
168 24 125
119 14 148
201 127 203
206 250 37
15 194 119
83 229 143
19 163 150
208 166 63
26 150 179
27 52 181
94 37 59
130 161 43
137 90 204
116 170 2
33 188 128
248 181 38
57 13 206
201 240 200
60 154 186
214 62 1
27 11 180
114 14 248
58 96 181
194 58 238
58 207 223
185 25 86
200 130 49
11 13 187
162 140 22
178 236 194
83 40 184
248 13 182
36 191 108
52 113 183
30 229 16
179 42 170
117 2 251
116 13 84
9 53 41
52 203 23
62 32 233
54 249 125
135 135 201
57 1 78
232 255 198
69 21 242
136 135 14
28 45 100
177 52 73
226 30 12
183 32 165
91 174 29
39 252 36
237 123 110
64 213 201
109 219 114
138 170 111
218 250 77
66 251 43
134 56 68
54 159 226
4 53 153
168 232 138
8 161 30
132 200 221
56 126 188
39 204 154
125 152 170
188 120 178
33 212 162
88 85 158
51 212 225
78 221 186
77 24 230
65 34 169
187 186 223
27 204 128
220 161 129
170 56 64
200 158 33
136 42 105
5 56 70
33 81 141
1 249 114
231 75 7
114 39 194
205 127 30
250 144 252
195 43 223
143 139 139
191 253 91
43 134 223
224 31 112
41 218 239
176 61 184
178 10 17
173 113 245
26 28 64
235 45 195
144 14 114
128 254 199
203 233 95
44 79 120
8 139 57
33 110 137
120 117 191
15 121 133
138 30 196
168 231 162
85 160 194
54 125 253
6 155 165
122 166 53
155 12 135
63 245 89
110 69 154
198 251 30
181 162 71
236 145 199
145 120 161
211 202 137
120 50 118
67 185 172
135 41 84
67 85 63
86 7 152
7 80 63
198 138 206
65 111 70
110 151 163
231 217 75
136 232 244
244 56 193
178 214 25
117 246 210
29 155 229
128 221 203
149 43 160
103 72 111
82 230 94
46 249 157
21 252 67
81 156 70
124 216 224
187 224 228
115 158 40
104 70 221
230 106 8
90 158 120
72 127 160
148 198 238
56 93 2
68 89 145
123 235 245
91 97 36
84 231 125
249 155 250
246 196 46
52 192 206
35 115 204
80 133 194
228 91 218
28 163 143
106 63 51
136 131 182
47 41 73
242 78 85
231 97 140
146 178 117
210 134 245
84 170 171
149 62 214
235 147 25
116 129 97
8 92 5
83 61 186
92 10 208
136 208 139
141 137 140
198 120 135
144 6 191
233 15 132
230 186 101
170 150 126
240 1 145
155 160 19
92 44 67
23 96 17
46 160 19
108 250 40
31 236 222
84 66 54
106 93 156
171 154 245
17 29 36
59 231 96
208 22 87
204 92 71
84 239 237
40 4 196
137 49 87
85 14 222
240 23 255
166 163 94
81 208 24
45 149 76
13 7 208
130 140 87
136 169 133
234 10 26
162 155 228
240 198 221
119 192 6
188 44 129
60 194 179
249 23 111
136 206 166
5 226 204
3 155 137
61 153 254
235 157 144
193 31 28
245 6 20
131 48 12
208 80 176
126 244 177
182 179 115
85 65 94
108 162 75
40 129 142
159 145 135
12 155 64
21 215 131
186 27 213
240 127 228
27 28 49
173 172 200
135 189 63
89 188 180
12 101 243
80 62 194
187 140 90
229 223 4
70 88 248
111 83 194
127 49 71
156 194 65
237 117 147
42 236 61
10 2 116
13 71 71
159 32 216
204 168 31
227 24 13
46 122 7
133 48 234
188 225 83
149 86 74
65 139 93
173 59 126
204 152 82
165 148 167
26 3 49
21 17 27
19 229 136
204 96 91
38 19 252
114 244 22
122 231 126
175 137 218
116 195 123
183 250 167
84 237 30
173 126 68
77 51 228
172 232 185
42 187 5
206 222 35
44 80 174
29 8 237
51 202 61
152 211 81
211 64 182
91 54 183
121 69 121
192 156 15
184 125 13
196 40 200
91 6 166
129 214 245
176 141 7
202 183 114
255 235 200
220 75 153
87 45 240
206 127 209
240 93 23
96 242 42
52 236 191
189 25 104
12 251 210
147 100 168
110 134 26
51 94 226
152 165 99
235 127 103
227 231 19
50 243 127
171 106 174
106 194 75
79 28 175
110 220 52
255 247 20
220 175 122
14 18 132
115 76 139
30 174 101
254 4 152
125 248 190
189 120 132
39 38 208
170 50 235
55 189 164
56 44 60
84 28 19
151 211 196
217 97 191
183 84 103
192 79 222
90 107 180
206 214 57
182 226 26
46 59 31
215 132 228
9 250 96
137 231 106
139 2 224
109 247 170
130 11 193
168 51 146
229 38 117
68 144 41
229 195 173
119 178 26
171 64 68
209 70 34
55 16 200
197 126 166
139 131 134
248 202 130
150 28 176
209 141 1
20 117 225
138 217 54
26 117 177
125 171 108
177 63 222
54 121 200
44 123 25
173 46 41
190 243 222
20 153 188
55 176 174
187 78 22
149 144 57
26 228 131
53 130 174
180 215 222
157 107 155
190 233 115
141 174 43
47 88 110
72 207 113
216 174 141
173 37 56
67 170 182
5 168 170
131 123 130
229 83 214
166 2 100
102 235 167
179 136 173
79 196 249
177 58 241
13 213 67
249 89 47
106 162 117
159 233 177
236 91 151
8 206 193
89 158 104
53 117 87
175 246 59
72 55 174
223 184 32
32 79 211
45 191 30
174 188 123
172 73 106
142 116 182
171 178 248
14 237 114
17 21 15
109 207 229
16 235 188
14 92 67
87 143 173
196 155 124
81 1 29
212 75 23
186 60 254
42 171 14
26 78 245
97 98 114
70 128 203
116 176 111
215 134 136
71 212 169
102 136 254
168 125 88
248 154 66
253 209 109
129 161 208
155 183 21
130 193 9
177 118 41
46 125 86
97 104 155
36 84 88
206 85 69
87 17 145
103 83 174
127 204 93
30 181 176
203 112 112
39 8 137
152 145 52
196 240 194
83 131 243
45 64 232
224 166 243
252 239 123
221 185 151
94 117 243
32 118 32
229 140 152
152 204 147
53 176 82
206 173 136
47 204 104
1 104 176
245 71 86
135 124 146
3 252 51
2 73 177
39 238 12
113 209 164
36 40 104
167 137 26
61 186 160
13 40 154
179 235 45
185 75 179
55 240 161
41 128 153
190 35 110
105 204 162
116 192 187
10 231 180
3 160 66
193 83 148
49 235 122
60 31 153
244 209 35
110 216 98
27 255 13
25 145 33
244 16 238
139 194 146
219 183 192
84 146 115
76 159 17
192 58 182
254 99 190
207 39 51
6 142 44
136 211 10
7 213 208
113 107 188
68 103 2
143 6 57
119 131 127
251 94 135
182 55 17
94 116 193
158 100 50
136 225 8
195 14 196
169 105 76
42 193 250
38 247 2
190 124 179
137 178 220
203 123 38
47 26 209
212 232 241
22 24 215
179 229 202
156 16 164
254 80 5
193 165 166
92 183 21
96 67 222
185 235 247
41 50 130
88 86 76
106 185 232
108 9 119
253 164 1
156 179 213
39 221 240
123 219 17
77 154 44
57 147 106
136 83 155
222 173 13
82 17 73
117 1 36
233 193 27
227 244 167
231 83 57
26 6 213
100 159 73
161 193 227
46 211 213
127 32 69
164 223 38
147 139 131
119 106 63
145 142 213
113 203 181
70 160 95
131 196 167
250 19 247
72 165 116
251 139 192
157 51 83
147 52 226
73 174 145
63 56 222
81 171 116
232 83 17
109 37 39
236 127 201
28 17 21
70 103 248
234 205 91
109 146 232
107 176 121
0 58 84
208 197 43
7 247 207
111 112 59
247 165 86
4 45 120
74 177 54
201 149 242
167 87 11
212 249 131
174 37 12
40 89 108
52 37 101
50 13 65
201 144 34
190 23 154
245 91 79
178 206 124
115 88 184
99 140 164
163 126 225
159 227 241
137 51 74
158 15 175
68 123 176
112 246 118
47 42 247
250 95 110
156 217 15
200 82 188
209 214 28
165 217 102
99 49 218
168 18 176
52 12 207
113 9 84
192 86 236
143 63 44
249 95 166
51 195 88
48 37 150
186 98 6
214 229 34
146 139 44
183 112 88
240 63 91
202 31 83
0 239 249
156 182 241
209 225 241
83 124 222
97 144 78
75 215 70
116 54 72
26 215 178
216 25 195
207 161 209
17 219 208
102 197 148
235 35 105
183 226 100
151 18 110
77 47 59
14 237 148
218 8 209
236 109 91
87 24 246
148 52 220
119 68 23
23 146 120
10 42 130
3 17 107
13 2 162
112 102 179
160 228 30
16 226 182
231 107 198
202 126 23
40 239 116
237 114 67
254 83 79
74 238 22
189 152 23
128 196 139
165 220 81
173 47 43
190 160 133
152 203 22
105 6 53
197 69 113
173 222 108
171 194 26
25 198 166
36 246 159
176 123 43
120 104 161
24 252 37
213 252 91
54 119 47
23 8 235
98 128 31
181 49 124
157 229 38
216 126 244
21 3 110
49 18 5
248 115 106
22 122 135
236 207 237
30 241 157
236 223 102
196 70 121
228 141 162
77 192 217
238 13 177
25 204 44
107 78 162
83 150 48
90 243 159
7 88 223
17 185 1
176 12 239
122 149 124
124 72 254
71 201 232
64 176 12
158 219 223
65 8 219
57 198 13
21 188 242
47 138 31
215 6 53
64 73 16
251 117 187
84 26 77
117 20 106
162 152 64
27 242 159
110 128 38
215 153 164
112 96 183
101 255 217
84 154 189
56 69 213
37 186 208
20 207 135
52 62 0
122 62 38
90 90 231
183 193 122
231 15 1
246 118 237
104 108 46
223 220 237
248 71 241
82 129 148
250 147 247
38 102 104
41 91 113
9 199 1
112 74 41
197 151 185
35 114 68
226 199 235
65 101 200
89 175 234
47 240 235
111 149 28
161 27 8
167 153 15
65 248 136
79 142 18
45 118 69
233 96 95
88 53 121
36 91 77
1 51 64
94 174 180
26 234 67
175 240 179
229 11 180
99 221 217
24 62 96
91 246 201
20 222 191
43 45 119
51 151 154
184 178 174
250 87 144
166 207 225
162 188 209
179 190 64
141 218 157
22 142 47
113 8 220
96 11 251
22 226 206
181 171 8
212 155 184
107 167 249
65 252 113
126 37 122
185 104 51
236 86 107
164 200 151
241 148 152
164 178 30
104 248 7
63 211 236
175 124 134
81 213 80
49 208 166
56 104 45
249 150 138
77 98 196
128 180 250
15 54 5
11 183 39
160 210 148
10 193 177
171 99 105
8 146 20
55 132 34
164 4 159
82 228 44
109 183 1
242 211 145
112 49 34
230 179 105
75 186 214
195 74 35
179 231 232
176 106 220
208 98 85
237 27 63
232 73 71
120 228 195
176 115 159
195 37 161
244 65 73
151 251 30
140 168 78
50 107 164
153 128 183
51 129 21
50 51 17
178 215 136
65 147 158
203 127 98
153 181 133
250 43 221
186 128 92
228 142 193
35 206 160
91 46 64
236 202 195
39 220 12
193 64 202
62 57 219
17 32 82
126 36 251
68 15 124
202 2 10
105 54 253
39 112 83
146 226 53
149 218 246
138 131 67
206 208 58
178 42 53
165 235 99
200 67 203
218 10 43
221 215 138
148 95 149
205 95 94
35 199 94
6 205 105
232 99 172
60 123 93
19 138 227
3 253 183
247 37 228
28 235 202
79 238 15
129 116 87
60 28 36
225 140 112
156 246 153
111 104 187
99 38 112
53 4 202
216 37 253
57 2 58
0 14 154
106 73 5
8 188 22
63 0 169
6 241 33
191 99 11
187 15 114
88 33 231
151 179 60
62 154 112
175 144 59
152 196 231
206 200 82
80 138 29
78 142 87
50 107 100
146 182 37
55 143 162
92 13 184
238 244 140
99 231 131
109 79 4
132 135 144
68 244 153
117 105 33
68 80 70
167 222 146
114 110 67
102 129 40
181 166 15
147 51 162
125 191 227
188 177 200
29 194 77
243 204 152
212 183 229
114 132 201
79 66 14
200 34 20
181 126 15
142 128 239
106 113 39
126 87 153
27 178 102
251 48 93
215 101 49
51 220 150
32 117 66
35 230 105
235 205 242
110 223 207
71 66 149
138 69 79
89 128 255
89 195 248
74 24 242
124 83 112
135 159 217
92 217 148
45 213 116
159 71 118
29 78 6
126 74 179
45 191 204
153 126 175
8 152 108
122 165 141
133 203 182
229 80 39
154 167 44
168 229 111
79 226 69
130 143 64
72 235 154
116 160 241
64 9 227
208 98 51
95 2 125
82 19 173
57 26 182
79 86 74
162 217 166
76 23 147
111 1 252
61 112 131
55 148 115
138 69 116
217 88 226
22 141 187
138 92 26
10 140 222
240 79 235
65 171 79
55 135 242
69 36 248
48 130 92
189 74 141
8 18 75
225 209 202
110 38 65
148 139 85
30 189 245
23 153 204
98 138 152
91 215 83
230 179 45
111 11 226
125 22 69
101 121 75
137 169 155
73 246 179
24 187 5
4 76 147
212 79 247
42 160 198
33 236 149
191 211 51
19 42 99
72 212 151
80 74 235
165 109 185
247 184 41
179 0 85
11 97 237
80 16 52
178 133 169
102 194 27
245 133 245
215 26 190
30 191 250
115 199 163
151 70 64
18 93 212
71 186 166
193 212 96
114 95 104
175 148 120
154 162 88
212 176 229
91 26 245
186 160 72
53 68 211
37 237 140
99 37 18
209 191 98
43 33 112
85 111 35
184 243 106
201 231 201
196 204 50
207 16 45
5 114 218
71 212 0
233 27 116
164 186 22
223 13 90
71 234 125
255 186 83
156 140 225
134 218 211
237 204 136
191 218 210
182 194 240
173 215 58
194 80 43
148 154 204
140 212 234
16 67 79
29 221 82
138 167 47
249 18 247
54 249 114
27 50 254
40 16 143
213 63 161
62 160 192
19 207 159
58 221 35
90 155 112
44 245 113
166 155 179
103 47 96
17 223 140
100 93 209
127 165 26
46 126 210
95 124 175
78 52 175
156 18 14
24 127 132
5 92 12
131 229 128
57 200 148
60 193 104
142 93 245
44 162 14
90 168 52
100 148 151
70 117 139
156 57 17
157 114 61
69 233 217
124 179 105
213 153 199
60 17 159
17 210 15
213 90 114
223 124 48
21 142 236
137 226 54
182 72 134
29 220 63
157 12 72
31 100 4
91 18 76
195 191 194
134 60 105
141 80 221
183 24 190
64 92 133
14 161 151
11 150 65
92 79 3
73 142 200
39 75 200
189 223 122
227 176 180
227 185 216
148 247 152
131 8 122
16 243 116
201 254 32
211 0 163
83 107 140
145 226 136
14 243 134
27 145 44
51 8 36
150 37 158
248 236 223
150 125 176
54 234 49
8 22 127
95 33 147
222 106 20
251 188 27
69 0 121
233 46 204
251 220 99
244 109 57
3 233 113
139 62 171
198 222 76
113 3 20
97 118 125
82 188 116
9 36 184
129 92 161
77 62 107
113 210 63
189 23 186
205 226 246
111 220 219
226 94 129
198 148 100
121 55 68
35 47 69
1 69 150
220 8 96
143 95 192
236 96 252
97 255 200
25 166 25
110 34 152
98 94 136
20 27 48
35 176 157
187 196 55
52 254 251
118 148 38
62 58 212
175 25 217
224 100 4
205 64 160
169 168 21
76 101 198
3 17 128
166 110 96
255 131 211
171 241 114
98 13 183
27 180 206
94 139 76
90 247 164
106 33 240
109 144 91
85 241 147
133 30 111
91 68 117
181 94 164
59 200 249
143 113 113
144 29 236
91 162 65
191 71 60
193 34 179
32 117 221
212 147 109
124 71 226
200 0 186
113 41 43
164 202 146
57 163 77
32 91 111
34 53 96
88 16 97
92 155 116
219 101 95
216 251 221
108 76 155
142 121 186
2 179 1
114 32 128
29 239 184
32 76 44
45 160 115
81 189 26
30 93 5
5 230 87
75 89 51
37 121 189
18 76 125
133 226 182
200 110 161
96 243 131
244 170 245
221 201 234
111 224 123
115 227 96
11 56 143
231 71 34
170 28 79
75 50 211
129 242 240
184 184 194
76 23 226
59 15 196
32 151 174
53 144 175
148 109 18
116 50 244
81 117 98
137 113 18
61 135 8
214 148 86
9 183 94
200 171 68
184 109 31
121 79 81
242 191 97
0 90 158
163 52 198
153 9 134
33 38 252
208 100 164
88 65 188
145 180 101
60 108 75
64 39 42
63 147 65
227 111 188
92 228 226
149 51 144
118 52 172
138 71 15
46 61 184
80 218 20
31 55 27
88 36 224
82 107 230
201 249 163
53 2 179
174 129 213
241 204 230
63 232 133
234 111 142
237 99 8
47 206 90
118 200 113
20 19 14
42 233 193
131 215 16
245 152 60
239 88 184
60 248 129
214 73 120
127 22 242
235 161 168
82 21 65
213 252 76
91 212 118
66 94 201
202 210 211
58 94 249
169 140 112
91 252 186
64 211 251
23 22 144
207 111 207
78 148 16
127 63 251
57 228 66
227 91 157
100 26 110
169 128 198
246 33 155
80 55 63
21 68 205
57 253 54
113 59 182
37 111 23
189 175 192
250 179 12
220 1 25
171 104 207
167 218 27
11 39 4
179 167 244
40 169 142
242 92 88
131 94 176
59 135 188
126 19 6
87 254 58
111 255 15
35 80 28
18 232 129
86 80 246
241 180 192
141 244 243
92 135 198
255 114 19
41 64 205
57 122 205
163 141 181
100 173 94
146 174 51
143 14 123
152 212 193
156 23 222
244 218 90
147 247 84
22 3 27
9 104 124
124 27 79
212 136 128
116 243 2
196 41 25
66 1 81
245 182 75
105 91 99
59 23 5
141 15 101
106 140 208
11 9 127
0 119 166
122 180 167
11 5 131
204 216 186
89 45 226
45 245 82
95 201 209
187 74 255
185 202 164
9 189 61
85 242 207
208 153 171
123 226 177
85 96 111
253 137 144
108 127 150
229 167 181
181 133 67
17 111 149
127 28 97
7 9 57
72 37 135
35 204 16
76 247 223
144 214 50
44 55 222
34 60 21
231 160 209
89 123 204
33 224 226
137 34 0
29 65 122
172 0 155
149 190 191
65 241 31
203 30 48
4 49 220
105 71 174
28 36 221
212 210 103
66 14 222
252 224 219
114 165 117
59 200 29
163 245 46
12 123 252
243 172 122
54 21 163
177 138 92
72 244 42
204 247 235
100 103 247
201 119 21
172 79 205
105 155 21
241 112 20
189 238 43
216 166 168
83 137 225
242 212 57
60 219 221
206 69 113
94 199 130
158 27 31
8 187 122
212 80 154
11 115 83
110 132 12
201 144 182
188 117 218
237 172 224
144 162 225
240 43 138
238 238 214
114 163 248
45 112 230
7 45 147
177 41 48
226 27 68
8 11 62
185 163 66
200 183 91
219 179 133
68 157 186
149 14 254
232 111 217
189 137 40
25 51 75
252 194 107
28 173 149
211 18 123
25 127 70
172 27 60
22 102 191
134 122 86
51 144 65
25 123 57
192 148 17
22 3 17
45 148 183
232 38 110
154 70 193
197 174 176
20 137 204
227 203 112
190 162 141
43 98 81
55 60 250
87 72 224
32 193 29
157 118 61
82 122 85
212 105 148
150 234 144
160 246 74
120 95 252
241 198 36
103 198 14
180 231 224
187 113 50
41 14 81
152 35 91
105 150 255
206 209 120
77 233 58
103 103 91
252 60 19
220 29 189
77 76 33
100 239 181
129 33 185
100 119 74
214 165 215
240 69 2
204 1 190
49 189 96
113 135 216
77 156 174
186 95 193
110 209 212
182 73 45
86 119 109
15 63 212
173 16 102
225 192 157
181 155 219
95 3 251
5 83 215
132 33 198
146 222 211
208 118 233
250 40 6
80 89 0
120 58 24
149 203 148
52 116 105
108 18 71
116 221 42
172 83 63
148 203 33
142 79 7
92 195 235
250 130 184
97 122 14
108 220 65
236 65 7
110 133 88
122 197 151
199 19 247
21 141 143
5 251 25
44 80 157
29 59 221
142 88 156
149 234 126
156 90 126
23 23 52
30 227 215
154 210 12
20 172 196
224 150 60
251 218 11
187 162 74
47 209 7
194 218 247
0 89 214
3 162 242
108 104 230
154 228 161
15 55 68
32 127 38
231 233 83
134 83 103
178 115 139
231 217 2
136 56 207
191 213 24
222 157 87
2 21 192
191 72 181
174 192 145
173 160 29
251 90 57
242 244 218
66 5 252
141 68 104
190 170 3
169 71 237
205 60 150
245 48 65
110 148 181
7 130 21
211 58 1
96 13 43
132 228 106
238 217 96
234 182 155
219 163 45
92 40 13
160 143 85
75 224 243
196 212 186
106 137 195
225 186 96
140 90 106
47 11 160
222 204 180
171 96 226
3 2 143
161 185 200
168 89 51
188 69 247
125 114 242
57 182 60
225 80 254
114 6 224
215 29 95
210 46 71
105 51 246
74 109 86
189 22 161
33 225 164
251 195 51
8 116 151
24 72 43
237 105 18
189 194 125
227 1 0
242 41 6
252 78 68
153 44 113
132 165 98
114 70 19
119 165 137
116 179 155
157 146 163
24 43 154
93 96 29
218 183 243
125 79 97
14 252 58
73 219 184
166 184 30
57 226 5
226 143 35
52 65 190
3 174 107
204 223 161
158 245 210
22 74 183
245 37 106
105 250 128
92 0 88
249 58 201
217 82 86
67 97 101
70 232 110
113 131 46
109 234 213
235 244 147
45 150 203
20 42 63
143 243 103
17 113 129
106 28 121
220 115 112
98 147 58
52 253 20
175 248 157
160 239 198
242 203 248
42 160 117
238 101 24
155 169 160
53 243 78
233 143 192
233 20 26
37 176 185
204 191 200
143 21 113
186 53 65
225 80 229
46 189 223
251 48 38
135 44 78
228 86 97
123 234 212
129 228 243
125 108 31
81 13 180
79 182 247
236 57 25
88 181 29
224 91 234
69 90 255
23 248 156
233 234 45
7 252 76
12 76 235
35 96 246
226 111 196
144 10 188
2 25 62
173 10 58
83 59 52
144 98 45
110 221 0
117 71 57
249 23 86
51 127 210
245 21 17
134 130 162
138 46 37
23 215 173
115 160 48
111 86 247
8 13 110
250 156 44
185 55 131
33 158 51
133 143 93
154 204 178
5 18 198
17 89 100
89 82 146
24 17 155
98 117 148
252 174 175
33 70 18
46 210 151
225 177 130
27 0 107
238 206 234
129 178 215
43 38 194
189 89 44
163 235 8
15 186 186
84 156 31
242 2 35
68 69 67
73 5 151
101 99 65
185 222 144
143 185 204
162 130 68
230 163 62
253 220 209
200 60 3
235 249 210
106 214 193
161 170 81
16 11 197
204 38 152
221 161 244
22 19 101
229 37 239
208 97 255
211 227 206
231 40 253
146 74 15
131 47 74
16 41 221
42 61 41
101 47 247
156 111 183
101 1 153
68 175 183
15 118 80
130 8 175
93 79 166
40 183 184
211 20 79
242 83 76
120 120 233
255 251 105
216 39 230
127 253 74
90 123 186
230 4 164
108 192 128
12 10 210
233 211 19
232 164 170
86 35 60
178 64 29
250 49 131
189 245 254
85 119 171
169 221 22
93 51 44
254 203 84
176 92 181
87 43 143
116 227 24
148 212 72
51 121 127
10 220 199
47 113 44
52 115 194
35 10 176
96 64 8
241 215 92
159 118 141
211 213 70
112 102 144
31 137 26
151 139 222
178 13 166
45 157 141
106 151 4
76 249 36
90 102 105
180 209 139
233 112 107
31 225 75
117 11 44
82 15 141
137 21 84
54 68 225
223 178 191
143 17 204
15 100 121
163 23 64
114 5 79
75 206 229
250 228 69
216 29 225
88 16 12
90 164 205
164 39 124
64 60 129
39 45 216
56 154 127
215 169 165
164 247 105
244 116 47
84 193 118
236 161 4
241 58 102
79 82 145
205 222 10
236 252 81
14 100 109
180 3 64
46 114 19
111 231 252
167 199 170
98 170 182
90 208 217
136 157 65
160 195 18
116 213 137
171 242 108
154 42 198
9 33 77
199 63 71
94 156 71
193 95 22
135 236 145
185 72 124
179 14 238
144 228 146
59 174 249
46 30 78
144 2 202
101 72 133
18 114 1
215 54 37
83 96 58
161 126 65
174 65 173
27 149 143
179 20 158
98 219 93
173 142 123
139 61 40
252 190 64
244 47 73
91 240 84
4 10 45
128 47 157
65 215 70
41 86 151
85 67 118
178 180 29
60 200 234
185 65 67
239 183 73
183 20 219
4 38 66
112 230 0
137 109 124
32 3 172
250 19 125
241 153 122
66 228 226
96 82 23
98 209 156
90 49 15
213 141 203
154 23 233
165 114 127
147 27 179
250 201 240
76 136 142
100 220 71
72 183 208
180 42 164
26 82 108
10 219 254
148 169 180
162 216 141
66 70 46
245 111 118
33 38 26
47 64 166
153 152 6
240 185 236
99 17 29
160 86 28
135 46 86
157 241 229
80 87 38
47 92 27
251 166 201
173 224 225
251 105 102
133 156 43
210 128 93
60 143 46
122 109 153
134 177 202
250 247 166
91 115 51
6 14 226
134 83 84
32 33 101
30 237 31
234 64 161
227 134 30
45 204 98
79 165 250
114 134 18
143 234 23
194 68 198
231 48 93
127 143 199
178 199 63
229 97 162
130 104 68
138 76 29
96 108 150
134 168 230
34 246 18
112 49 20
104 250 239
72 156 42
231 207 207
17 175 21
239 43 244
99 10 164
184 158 171
152 52 139
178 186 115
12 83 230
241 70 91
222 111 109
51 201 38
236 105 160
42 214 246
68 151 112
192 60 117
63 175 94
234 112 48
41 77 28
162 20 202
7 232 51
129 42 76
180 36 185
50 12 246
134 176 155
14 216 73
243 27 156
88 92 209
179 176 213
16 155 15
234 188 251
137 191 0
178 101 90
92 24 141
35 96 11
113 24 183
255 252 196
161 226 181
247 137 222
254 60 80
13 87 247
84 120 210
147 87 222
44 188 43
89 53 164
125 156 182
48 211 204
104 215 192
233 123 213
177 112 244
237 5 122
150 25 249
3 110 249
145 200 195
33 209 69
176 62 147
47 217 18
204 116 113
241 101 175
190 207 238
222 252 229
180 136 244
190 109 85
168 187 83
197 42 171
86 102 147
62 46 194
105 52 134
83 14 38
89 210 30
94 207 167
160 90 211
227 215 222
21 216 67
93 19 175
179 218 143
4 223 56
51 223 116
133 198 85
39 73 195
132 47 68
234 107 83
79 250 148
217 255 16
227 62 75
62 54 3
119 228 253
254 225 149
57 212 220
235 147 182
138 57 98
149 163 197
93 200 66
147 22 98
126 85 208
69 36 122
122 104 65
129 25 0
155 196 28
223 112 11
243 96 217
160 38 105
217 87 194
71 131 36
43 230 80
42 117 201
161 195 130
116 12 21
227 145 220
1 71 17
75 163 207
242 63 111
238 32 163
64 172 21
207 201 72
189 44 231
33 9 249
232 128 51
166 104 70
164 172 25
38 154 58
226 76 187
147 134 193
49 52 255
129 159 13
227 63 229
49 73 194
149 200 36
39 53 124
213 64 192
18 69 246
21 113 126
26 85 186
220 63 155
193 147 97
6 7 77
62 142 26
59 207 246
193 138 240
143 166 43
93 81 44
9 190 207
60 208 10
155 111 189
252 149 250
11 36 106
231 59 166
62 81 54
74 113 247
9 238 251
128 187 6
89 160 97
230 12 203
45 69 40
113 146 59
131 220 12
242 20 104
137 79 109
124 72 77
201 205 52
135 161 200
35 154 226
6 244 27
169 142 194
28 46 131
32 122 171
144 13 16
68 239 245
66 115 149
51 40 213
49 245 133
191 217 111
230 138 37
165 142 17
161 169 152
71 238 98
242 179 39
89 149 95
169 40 171
213 15 73
3 71 7
218 7 190
108 129 215
54 1 87
139 188 108
135 220 127
83 151 58
169 103 35
144 122 188
206 49 206
193 141 181
156 254 7
219 154 113
67 171 154
136 241 13
173 129 197
155 253 250
47 45 179
212 165 15
12 131 123
238 122 37
31 184 110
123 79 154
244 219 198
165 0 19
251 160 85
222 69 124
221 126 58
226 205 59
17 102 140
127 100 222
235 121 223
74 17 95
51 62 91
236 72 132
24 253 83
20 130 111
120 7 157
199 205 166
137 42 143
29 56 192
80 150 12
250 128 36
126 230 80
232 9 244
44 36 212
17 114 50
68 249 236
132 130 41
244 29 155
35 221 139
69 8 75
82 163 169
143 166 205
76 61 231
162 118 235
104 99 168
134 27 21
227 43 94
68 215 72
7 154 192
101 123 210
137 186 193
150 40 231
125 212 218
46 30 167
184 137 75
188 130 102
174 143 51
130 179 99
239 1 21
240 173 203
88 78 85
190 242 81
163 47 215
232 37 41
110 129 114
151 212 190
151 5 171
53 156 195
41 187 55
170 210 167
102 53 192
68 141 40
192 156 96
37 39 15
31 150 77
18 192 7
251 125 124
13 59 121
36 44 252
66 249 218
113 91 26
164 169 194
160 131 160
119 131 210
93 175 3
241 178 59
237 110 254
235 85 83
201 28 3
114 108 98
137 194 64
13 89 247
87 248 156
226 198 138
82 56 66
149 115 198
173 127 47
5 168 87
227 161 237
155 137 192
216 79 87
173 108 120
195 186 70
10 209 120
250 232 109
238 121 167
157 149 226
241 214 237
255 85 182
39 22 230
180 165 15
160 70 201
163 248 29
12 36 216
130 103 84
107 70 129
164 46 65
159 37 229
30 7 178
154 132 234
143 113 248
245 59 73
117 147 48
203 243 5
193 236 72
159 56 77
214 74 237
61 247 73
191 112 97
8 36 147
222 96 143
199 156 31
29 242 247
175 140 3
213 63 43
131 212 5
155 182 92
22 255 195
66 9 15
127 44 66
8 53 31
58 62 97
53 201 105
161 242 178
225 70 127
113 106 160
67 174 201
73 131 108
77 203 43
30 94 215
187 215 189
238 231 143
43 27 129
4 92 183
88 121 169
177 248 241
7 120 45
89 70 128
100 128 204
190 228 25
38 207 140
221 23 94
87 105 211
124 48 86
93 207 76
140 63 200
17 32 196
250 123 151
15 178 229
23 196 87
186 208 227
198 119 27
12 227 60
193 186 207
111 220 37
204 204 253
184 134 156
20 130 150
70 236 190
84 188 36
201 12 2
225 66 194
242 108 128
44 177 92
58 82 146
47 233 174
114 208 152
92 196 18
187 252 74
75 156 165
64 151 143
237 136 252
58 17 164
140 118 25
139 255 230
98 99 227
130 38 197
154 214 1
122 165 57
52 187 145
93 232 104
124 236 14
201 91 39
25 109 21
80 191 0
63 18 63
230 94 208
170 250 133
112 158 99
214 89 254
84 83 183
26 148 186
130 63 143
150 44 179
102 248 98
80 218 156
50 85 250
122 67 118
223 96 27
5 109 112
202 234 111
174 143 174
32 115 111
198 235 72
243 86 102
113 167 212
183 255 52
104 222 155
25 1 41
106 29 63
116 166 243
81 161 190
115 13 14
60 200 167
16 70 116
42 193 247
145 152 195
49 165 115
196 168 194
11 255 71
167 72 240
3 5 87
70 228 236
214 30 250
212 7 198
189 153 187
34 3 4
60 36 158
61 82 86
210 131 159
155 223 236
164 124 8
176 197 46
215 181 237
208 103 176
16 138 86
254 124 80
253 73 160
248 253 90
190 245 96
70 161 243
100 206 189
131 14 60
123 255 105
80 142 199
10 181 132
70 205 62
20 101 251
45 17 243
32 32 168
138 15 91
240 54 247
45 81 56
192 193 186
15 19 65
35 27 125
87 26 130
249 49 210
6 254 101
164 48 241
174 106 23
64 45 151
239 165 23
86 21 225
195 248 219
185 230 172
100 171 129
230 233 128
153 95 183
38 157 186
141 78 108
68 175 106
108 168 29
87 34 184
35 191 223
149 63 114
97 202 134
3 48 35
166 189 131
24 0 57
126 140 227
2 10 238
193 206 221
229 105 185
167 206 192
198 8 253
214 229 170
222 36 155
232 240 164
169 214 137
7 62 39
39 116 132
104 63 98
104 230 131
17 244 211
14 233 181
213 148 143
166 22 208
202 35 153
230 33 219
117 172 163
182 121 185
163 142 56
106 189 109
79 227 178
185 229 41
10 17 23
71 128 105
252 201 96
175 191 13
150 4 168
118 196 183
88 137 249
226 6 226
231 95 118
243 241 72
106 72 111
252 153 242
174 145 20
186 18 169
249 16 32
133 242 110
207 195 106
176 177 141
227 5 117
17 146 8
220 224 48
119 150 4
27 18 56
154 192 220
196 5 138
88 187 126
76 128 166
253 150 229
190 116 29
128 41 39
73 192 149
125 82 39
65 73 124
49 94 248
24 93 82
80 200 74
54 243 67
15 69 223
203 232 170
106 237 248
93 213 172
144 1 152
63 167 72
1 137 126
243 113 115
250 47 191
138 255 131
147 172 111
224 170 48
102 176 136
203 127 24
152 214 184
235 235 175
137 138 10
147 109 53
55 112 167
143 35 62
90 239 133
235 80 49
16 65 41
128 45 143
29 245 129
10 177 205
193 90 201
11 226 250
95 87 18
165 80 8
211 37 140
233 180 82
129 141 56
165 237 138
105 78 220
16 250 43
252 207 149
25 89 239
252 153 129
112 250 152
56 179 103
249 60 225
255 243 135
136 52 67
93 145 133
211 172 83
201 173 177
245 242 44
115 118 236
164 226 94
98 120 141
162 185 222
188 120 234
176 36 217
232 181 8
156 88 244
78 62 49
160 85 188
97 147 103
89 162 9
46 234 174
132 86 130
118 21 121
8 114 172
156 10 37
114 166 171
81 184 104
207 176 99
157 135 90
97 241 26
84 94 195
23 204 77
99 13 41
175 192 85
75 18 209
193 82 13
217 130 89
130 248 255
53 191 115
162 123 117
9 119 188
137 197 234
101 255 114
110 73 82
195 239 31
125 3 207
74 149 51
176 44 206
117 227 162
36 128 141
193 11 150
54 169 85
238 234 22
232 67 88
67 108 230
117 102 76
7 70 152
12 194 157
60 42 163
199 14 221
208 134 95
100 93 209
220 173 222
67 164 245
52 116 154
70 232 95
97 253 109
138 56 204
83 4 73
194 39 114
217 182 207
191 209 213
19 22 49
81 229 181
245 244 13
92 13 42
152 54 91
216 91 151
52 196 42
233 163 74
81 211 45
118 4 215
86 132 128
254 230 82
151 171 173
244 18 39
22 29 51
81 47 36
208 60 98
234 193 255
225 111 76
96 44 56
110 115 217
41 223 41
244 255 153
214 22 173
247 186 135
153 42 32
195 115 172
229 189 81
137 166 250
251 169 208
79 208 148
153 130 156
13 16 217
243 82 25
113 166 13
207 138 101
9 48 199
36 176 158
88 208 229
190 3 232
220 224 7
94 195 27
218 99 168
151 13 123
148 236 177
86 165 20
130 54 9
16 123 47
114 109 175
127 175 52
6 69 130
54 125 72
156 227 17
200 170 108
10 219 201
209 171 204
169 189 160
75 161 145
55 41 148
131 66 202
177 155 230
114 9 10
110 179 37
158 218 230
122 59 187
130 17 120
43 2 51
51 13 170
104 40 211
65 132 172
192 201 204
50 205 141
179 38 171
82 134 140
73 20 221
176 172 29
249 175 144
216 22 63
219 52 157
149 166 89
37 209 160
96 104 146
150 120 10
6 183 110
163 87 91
40 83 196
99 198 59
194 85 251
193 133 138
240 44 7
136 62 204
99 231 238
246 166 243
13 129 92
175 45 16
246 163 148
76 98 161
70 107 28
154 132 9
223 36 134
251 129 102
53 40 234
220 144 40
225 145 51
163 129 106
109 161 148
188 166 225
131 59 231
106 102 161
172 51 182
33 170 122
135 167 15
84 246 106
28 57 116
194 81 201
31 223 37
37 124 113
108 27 62
102 196 39
104 140 119
240 112 155
58 2 238
6 100 231
7 49 231
90 150 2
50 179 161
7 79 149
249 57 96
123 143 117
213 231 164
27 159 34
83 169 25
79 114 154
112 126 2
24 132 160
54 71 180
115 72 241
124 52 186
223 188 36
62 128 170
72 83 33
56 17 119
233 123 205
206 233 226
55 24 168
224 108 14
47 66 143
32 111 199
46 209 79
182 122 111
187 177 239
97 117 179
227 161 0
205 226 13
90 36 45
234 43 156
76 161 9
39 1 138
77 116 242
35 140 155
105 237 152
10 231 45
168 130 77
113 219 189
12 6 7
148 13 175
148 137 133
92 48 6
127 223 28
158 130 99
129 205 229
234 225 71
213 225 164
76 214 236
11 167 121
254 176 90
14 128 212
73 118 209
219 195 149
192 164 245
157 237 7
92 45 213
102 53 109
38 10 30
34 151 71
107 75 50
141 169 25
172 243 89
244 9 20
111 246 238
157 170 71
134 158 194
248 19 125
221 198 3
107 159 79
224 175 2
128 115 217
113 245 98
245 56 135
252 249 239
204 234 9
207 39 4
9 200 202
253 41 141
233 252 34
72 155 6
243 12 120
33 28 198
145 96 237
252 70 211
42 197 196
47 154 240
200 84 67
124 175 232
249 21 131
19 162 162
71 199 166
128 44 182
217 165 3
254 54 21
206 238 79
230 23 209
180 202 68
117 56 240
3 60 174
70 210 69
238 255 210
48 201 247
133 38 47
23 104 184
11 231 71
76 88 60
105 109 118
67 101 100
250 48 145
219 53 252
106 7 147
59 245 183
189 29 111
197 3 26
182 231 19
110 205 64
70 56 166
125 244 135
117 171 136
24 104 178
102 91 25
160 48 214
0 249 45
231 202 255
194 165 180
210 42 171
193 64 95
164 106 29
157 238 176
181 169 103
191 178 178
224 102 71
82 152 137
234 20 83
64 234 131
187 48 96
89 254 163
143 96 10
79 231 116
151 56 138
48 141 144
180 76 206
9 92 76
46 108 210
85 4 69
21 228 100
86 200 159
92 148 35
70 76 248
76 181 86
190 69 208
103 87 173
134 144 198
71 115 22
158 166 58
251 182 189
97 227 100
128 64 141
90 99 235
192 140 107
115 107 105
8 19 6
122 182 126
92 53 21
174 217 101
129 54 3
185 50 114
232 122 208
61 135 90
15 10 229
161 227 136
128 135 52
206 39 183
53 253 189
133 154 71
95 249 88
16 246 74
96 46 109
112 2 19
98 196 21
75 11 107
92 30 105
157 55 168
64 185 107
146 106 137
32 187 225
114 183 40
240 6 164
17 150 170
34 125 61
53 163 248
206 76 144
15 132 224
150 154 171
91 188 249
35 125 161
53 84 41
144 65 43
17 64 31
210 52 221
225 170 121
26 136 133
117 43 2
86 67 85
219 182 172
98 114 122
58 184 126
57 152 95
208 56 189
174 27 231
100 113 1
18 233 204
135 29 110
8 154 250
253 90 159
224 144 172
181 34 250
181 8 178
77 121 189
45 170 84
128 35 26
33 194 103
96 6 56
247 25 114
132 241 102
177 47 125
112 61 196
180 6 188
219 87 96
36 140 148
42 57 58
167 114 221
166 42 87
79 28 9
250 195 0
77 237 243
159 50 95
88 205 28
17 133 77
4 244 181
163 7 211
101 137 66
162 64 175
126 58 0
187 29 67
153 167 16
195 186 98
28 229 95
96 49 131
143 182 76
192 182 174
102 94 211
96 125 187
132 187 182
21 72 32
148 241 107
90 26 70
116 44 11
214 196 225
31 70 2
94 92 176
60 43 83
110 102 170
130 124 23
106 109 69
245 72 199
135 199 255
70 23 162
168 180 129
6 191 232
171 115 130
212 226 226
9 130 227
63 101 137
171 137 253
140 98 245
40 33 121
113 108 110
120 118 8
57 71 127
198 134 19
221 118 112
59 148 248
68 235 169
8 243 26
152 141 71
75 170 195
236 221 217
233 56 75
82 235 80
11 43 32
101 137 204
14 250 126
179 201 99
5 62 45
253 26 117
197 254 222
18 204 1
40 52 45
131 56 219
243 133 251
37 188 26
235 108 93
54 192 85
44 233 97
47 36 76
247 177 0
64 214 40
235 254 221
177 87 123
56 160 112
76 36 140
152 194 67
107 83 92
92 123 149
223 102 234
177 44 222
110 60 196
240 187 254
26 252 160
213 64 203
213 32 168
239 29 191
83 6 58
4 88 180
43 25 9
91 50 128
144 186 127
49 211 198
33 156 177
105 54 208
150 20 196
255 209 85
134 106 23
98 19 239
201 254 126
89 127 212
60 246 158
193 22 55
207 100 26
135 64 28
245 30 49
88 199 48
19 36 207
141 4 105
93 246 230
57 165 208
7 145 24
64 224 115
200 132 78
205 127 51
33 193 253
129 185 65
146 132 202
80 141 207
149 15 202
20 204 132
200 22 167
159 44 102
190 82 210
112 250 186
82 184 46
188 15 190
213 141 1
126 45 225
102 82 111
6 67 168
2 83 190
63 78 46
146 213 53
152 41 94
9 156 147
157 210 157
177 112 112
209 131 127
197 222 187
139 72 207
140 100 242
226 26 206
135 16 213
9 30 25
82 108 153
65 214 164
241 245 105
61 237 59
171 167 155
88 228 126
12 239 131
195 41 65
202 215 154
131 185 165
121 84 144
119 20 63
127 211 81
111 130 199
189 163 74
139 11 200
102 32 225
231 74 150
226 43 35
152 4 77
223 166 220
122 48 114
137 105 195
153 246 220
102 149 139
46 146 22
208 247 150
138 44 52
163 102 61
155 168 245
113 16 99
106 105 231
251 248 107
34 249 233
57 240 100
179 195 233
42 175 100
249 85 192
204 145 66
21 222 57
228 8 7
146 146 167
145 183 215
252 204 242
114 211 211
138 187 192
121 0 146
66 46 86
255 21 13
35 129 6
172 116 136
40 252 80
38 115 59
193 242 10
225 207 60
253 3 136
145 2 4
154 31 27
80 254 54
193 61 248
200 44 126
59 143 10
49 203 7
134 17 174
233 110 218
135 124 28
253 172 145
25 121 146
116 18 70
143 175 79
209 28 70
247 177 233
200 248 74
62 241 191
142 216 44
40 67 36
119 243 140
141 221 163
204 190 100
255 73 70
173 28 32
129 37 220
177 221 40
14 217 123
215 196 113
193 217 197
95 87 68
224 88 64
254 201 74
215 0 165
131 7 227
3 215 48
41 232 70
211 39 2
160 170 174
48 239 240
104 71 65
154 2 161
188 72 172
36 57 104
212 238 104
29 52 238
153 252 150
172 143 157
195 58 157
154 213 92
141 85 68
116 40 211
209 20 117
167 32 124
77 138 158
161 179 1
253 149 214
233 232 113
87 144 143
36 201 225
234 243 40
80 190 140
232 227 40
53 125 107
167 85 91
140 236 137
199 134 229
47 37 48
75 181 108
233 106 58
163 53 12
235 170 37
75 154 89
96 164 56
140 182 39
231 166 200
211 77 225
218 28 0
49 226 163
191 53 141
201 28 155
180 205 137
43 242 210
73 50 90
157 224 250
132 167 182
148 8 218
92 65 8
135 189 99
9 86 59
172 129 79
191 25 214
208 239 210
30 124 36
219 98 103
169 228 196
233 66 59
198 253 155
206 126 62
195 205 229
11 66 155
241 81 221
28 12 93
114 98 162
139 255 67
168 36 94
35 183 249
15 84 63
145 127 84
253 160 219
92 9 92
187 218 255
88 145 188
150 77 160
83 89 192
235 175 148
38 76 33
228 156 201
119 74 115
186 137 160
179 34 73
243 26 76
28 169 104
123 88 114
224 115 150
135 238 249
43 144 182
255 112 105
237 207 74
7 83 251
187 214 155
23 62 4
31 162 166
194 3 41
172 61 200
76 139 71
181 176 69
217 149 211
126 140 81
203 65 162
193 147 188
143 99 218
26 218 113
251 217 220
95 249 189
248 64 144
10 12 213
49 194 115
28 89 62
199 6 124
26 218 220
53 180 39
166 111 189
92 67 10
148 86 123
150 162 73
4 73 86
251 103 19
163 215 136
19 84 69
74 73 38
252 91 124
50 2 90
149 222 187
60 189 73
218 89 229
71 57 22
45 234 81
150 211 219
49 111 7
201 49 32
116 51 230
84 141 37
13 131 96
118 232 254
11 92 47
209 103 96
33 206 22
117 68 157
245 109 46
127 24 33
79 197 24
24 145 167
247 84 252
101 128 143
188 57 132
124 47 240
99 113 245
236 1 195
180 234 115
221 21 13
205 62 36
222 47 82
26 208 140
32 52 16
111 207 79
52 176 33
40 22 47
133 184 134
210 63 191
200 172 197
17 136 190
95 170 78
27 144 20
206 113 24
141 247 197
238 42 152
164 226 234
152 13 97
138 245 229
219 228 58
238 149 4
78 52 34
77 141 211
234 50 111
100 189 122
99 242 125
81 53 146
223 0 168
134 192 179
184 42 254
119 189 174
41 139 18
226 112 138
29 54 101
70 234 86
60 200 112
56 224 108
161 68 227
168 181 246
193 160 140
187 103 126
89 120 33
229 82 170
56 82 215
179 80 115
112 218 225
174 23 137
51 191 217
239 249 121
27 24 50
146 245 233
204 104 164
77 117 125
12 250 183
112 242 121
29 136 26
32 206 33
105 246 12
245 15 83
232 195 117
135 223 233
20 246 10
27 19 155
74 14 63
4 114 132
85 52 10
254 110 20
19 88 204
59 181 69
54 196 47
189 41 143
155 86 232
29 36 173
4 202 122
219 135 111
230 116 161
206 12 17
120 185 88
105 87 206
76 69 123
94 207 207
189 71 154
71 77 250
214 133 51
143 102 64
146 57 14
22 238 28
38 224 78
106 50 10
246 212 132
43 161 116
189 194 41
14 191 132
212 185 109
226 63 174
28 66 240
1 176 133
138 146 25
50 99 30
132 186 48
193 89 209
50 198 248
112 23 164
93 59 84
122 119 33
43 231 254
86 103 35
117 154 243
214 159 238
160 20 170
104 41 40
88 219 58
175 191 18
72 11 45
243 145 170
240 170 104
140 87 43
2 55 226
85 179 163
56 23 62
194 4 202
1 17 185
228 188 66
69 154 23
102 181 116
231 126 161
97 185 246
246 159 36
23 34 132
78 90 40
119 175 204
115 74 118
71 138 94
123 89 197
159 80 237
26 25 244
102 118 248
108 213 84
243 198 28
150 248 12
132 223 206
67 80 29
142 247 127
239 107 226
13 207 218
128 192 230
37 73 232
18 44 44
186 87 210
133 205 51
100 27 68
50 100 71
239 14 190
101 143 3
214 15 4
242 1 34
103 148 242
174 229 163
235 73 32
190 141 129
153 14 195
167 221 242
146 48 81
51 68 9
221 13 144
70 125 58
134 80 88
66 201 65
250 1 146
213 48 184
50 73 13
166 209 23
158 43 229
145 51 110
151 190 51
138 206 108
58 106 147
49 238 110
44 107 124
60 158 236
202 170 238
99 23 25
61 112 196
240 138 171
133 222 51
66 70 9
22 99 4
49 201 25
232 207 6
14 31 70
94 167 45
153 241 191
177 144 95
119 182 26
78 220 162
136 203 134
238 43 252
237 209 246
255 234 154
135 176 99
0 91 247
5 0 19
125 76 228
171 194 134
143 51 124
97 74 206
70 125 250
95 117 194
8 216 114
111 246 173
90 255 171
116 112 208
104 242 179
13 191 112
184 17 139
245 69 238
96 233 152
9 5 6
8 53 178
100 226 45
96 147 86
82 122 182
126 211 185
247 138 167
155 254 159
190 85 34
71 238 59
126 62 145
38 217 162
44 60 238
85 137 48
152 45 71
28 98 163
117 82 7
56 116 170
217 173 245
150 6 116
179 20 132
82 19 81
123 211 78
90 144 70
144 185 95
174 183 197
247 10 112
243 249 11
19 144 215
78 143 107
123 198 125
194 49 103
33 149 10
48 156 52
87 245 186
234 198 69
146 206 65
105 247 158
150 91 25
127 245 145
3 93 45
234 63 155
162 168 49
209 42 156
115 205 244
133 131 216
235 128 102
17 110 11
163 237 54
146 118 68
14 214 115
71 136 84
92 170 22
192 8 206
66 145 240
65 124 154
121 7 244
149 146 190
137 109 36
141 32 235
22 79 162
141 100 47
183 121 167
72 101 46
116 99 214
56 230 76
146 178 79
101 180 229
162 171 188
247 24 118
137 102 46
11 223 143
2 40 73
140 90 159
237 180 121
105 209 220
63 160 17
143 65 130
48 43 128
117 93 175
120 186 176
143 131 172
169 118 207
20 126 164
38 188 75
155 130 180
26 172 46
189 153 242
12 9 8
64 124 4
22 170 23
116 22 169
125 193 29
179 139 250
58 129 244
128 112 175
101 25 205
105 94 69
10 66 222
199 245 228
18 40 2
184 131 89
202 91 124
166 67 254
167 63 128
90 203 229
148 140 201
8 222 42
228 226 130
185 24 107
65 67 252
250 178 168
244 144 189
173 77 33
196 160 87
246 217 1
110 213 182
113 161 9
94 168 188
247 182 250
180 231 114
124 1 33
89 96 115
17 223 88
78 116 250
140 146 128
70 122 193
63 251 123
152 236 105
140 90 122
192 231 125
156 168 197
192 82 113
125 123 179
68 55 110
65 165 1
47 239 169
83 18 124
204 221 147
132 79 224
42 83 111
37 231 128
1 43 215
225 41 109
239 135 220
252 248 165
37 207 77
109 248 72
206 243 166
125 15 176
22 30 59
52 157 181
132 153 127
125 217 174
14 216 91
169 166 194
88 236 44
98 121 128
71 58 107
157 172 22
230 21 205
41 85 218
235 210 206
205 202 199
221 42 30
201 50 77
55 84 16
177 183 80
184 28 59
120 60 44
35 29 63
36 75 128
75 72 2
180 212 34
228 112 142
94 202 96
198 201 42
85 204 137
200 20 20
186 10 133
212 62 17
192 174 77
104 7 3
181 203 56
180 187 112
162 95 98
25 66 107
226 78 111
20 9 229
179 124 53
144 232 156
163 138 14
103 207 67
239 149 214
13 83 4
172 79 245
174 231 32
145 67 159
179 137 217
200 236 80
122 83 161
121 118 90
233 93 79
36 127 188
179 165 138
189 78 217
62 156 160
236 193 26
175 218 244
29 229 195
239 252 178
216 123 59
39 25 162
39 144 114
166 133 225
70 243 167
22 231 121
91 56 226
100 198 151
224 246 58
231 148 54
83 16 143
195 40 115
170 192 206
229 99 175
137 100 133
171 60 82
164 67 250
255 194 1
161 225 76
58 246 124
62 148 241
99 246 108
48 62 169
172 109 205
99 224 238
80 21 101
12 2 219
109 255 72
24 236 161
250 1 128
40 201 212
234 115 36
166 130 225
223 51 88
225 218 164
219 22 197
154 206 151
58 157 61
51 187 107
196 26 216
186 11 189
160 88 22
80 153 159
100 135 2
90 41 168
222 250 38
34 85 208
3 167 239
23 15 91
63 84 155
237 220 123
141 63 221
112 176 32
224 222 149
42 117 158
170 204 135
26 133 178
57 26 155
102 233 197
133 162 91
144 226 162
245 196 6
157 21 247
16 84 208
68 247 105
186 111 53
242 234 203
51 210 77
200 134 181
36 70 9
212 202 110
171 6 163
38 214 41
70 135 75
88 51 70
209 128 225
240 241 39
153 115 79
91 218 68
224 87 192
72 120 116
79 73 103
91 130 68
100 5 75
205 151 177
184 163 193
148 111 97
153 150 208
17 215 38
130 239 185
204 67 7
149 245 197
140 171 12
50 155 24
96 219 18
244 217 241
175 160 129
176 140 167
153 226 13
131 104 205
53 246 151
60 106 63
137 120 8
141 14 100
62 205 34
234 173 160
90 83 164
128 223 148
140 193 237
252 129 163
252 164 116
9 210 37
192 16 119
171 126 235
55 173 162
116 199 182
126 243 198
141 27 24
169 198 42
75 203 248
35 35 4
223 80 5
179 103 233
21 149 46
10 55 5
50 116 79
255 174 127
193 54 79
43 65 22
72 254 98
53 131 139
48 200 65
253 157 47
98 139 189
250 199 243
87 249 242
101 201 218
39 204 91
171 148 34
181 125 238
164 254 181
195 28 36
172 253 56
213 102 152
65 114 233
229 51 87
20 147 52
12 0 162
250 161 222
225 228 107
88 157 103
54 153 106
23 32 243
219 109 220
107 134 229
175 133 20
156 135 69
46 51 93
220 227 152
34 145 88
252 123 181
144 56 194
158 61 45
110 162 42
9 31 147
97 144 114
148 10 253
214 217 205
138 236 83
120 241 54
196 28 5
190 187 207
148 155 84
180 171 12
228 205 35
196 156 98
247 227 238
58 99 69
93 254 228
250 45 41
228 137 225
244 55 223
34 222 127
121 65 28
66 217 84
254 64 128
198 38 202
87 41 169
28 208 2
114 179 23
80 220 251
194 58 159
208 63 159
53 203 198
241 123 119
126 173 52
236 93 43
114 170 23
154 24 102
245 205 77
80 124 32
55 240 206
207 193 193
140 103 73
24 20 175
241 140 202
182 168 163
197 97 115
250 200 81
19 98 32
209 130 22
52 115 227
132 153 164
183 248 177
131 39 204
87 210 22
205 32 93
107 169 84
246 154 135
165 196 213
200 149 67
52 198 112
126 13 57
162 47 54
62 187 84
185 85 121
5 53 102
113 122 147
120 138 18
62 81 85
123 114 194
20 38 69
105 55 2
39 26 92
140 73 124
75 172 216
47 196 22
186 114 52
64 211 47
19 113 153
45 51 48
241 108 195
80 31 171
102 128 13
211 200 161
25 22 80
152 243 37
52 179 62
185 42 247
7 245 220
62 159 51
63 111 138
245 95 41
254 226 118
180 170 28
15 77 95
64 60 229
106 185 168
57 241 197
195 208 144
179 255 43
248 211 255
3 66 22
215 134 108
201 116 157
182 148 135
39 77 120
111 144 218
33 125 61
81 194 39
215 159 81
98 132 48
245 13 150
24 186 218
177 109 244
163 251 162
42 179 53
215 125 144
247 201 191
62 4 130
71 221 156
20 152 29
236 72 198
64 33 85
149 189 6
161 75 202
126 58 56
82 66 147
119 239 183
122 146 187
216 107 251
142 94 235
175 84 27
167 91 6
19 57 71
14 2 245
251 78 163
99 77 116
223 241 7
136 146 203
111 143 225
42 109 227
167 177 41
173 133 165
48 114 129
119 223 57
221 144 38
162 102 70
59 104 115
10 83 179
238 219 161
227 4 249
187 250 49
169 99 168
63 89 243
52 249 43
115 63 134
190 142 104
196 227 206
136 91 30
55 151 38
71 201 231
182 18 236
109 253 224
159 165 117
6 47 135
53 79 152
167 185 36
58 177 2
38 192 142
151 47 145
158 191 172
128 199 79
120 195 151
253 43 46
56 207 47
155 74 11
202 10 67
200 68 59
85 227 134
125 89 126
137 229 112
88 91 34
133 89 139
4 206 132
223 118 200
216 59 246
233 180 229
69 49 121
52 61 161
195 199 173
103 216 198
88 134 116
38 64 161
68 10 251
75 159 136
35 173 33
165 183 71
226 253 75
22 246 177
182 69 244
228 215 10
83 117 202
143 147 216
218 180 158
13 157 19
158 141 232
135 119 125
88 140 226
83 89 214
21 41 70
211 53 12
177 139 254
177 138 39
21 120 154
244 235 3
133 93 74
55 229 73
37 131 88
203 138 118
212 29 197
115 149 193
82 31 223
146 109 248
208 90 250
22 21 205
36 121 191
190 210 39
92 93 59
57 165 76
133 227 241
120 222 124
116 62 160
50 104 8
143 175 63
249 167 235
175 123 49
201 137 166
69 8 222
97 8 247
35 208 81
140 238 125
212 23 78
54 33 189
42 173 38
220 177 223
181 65 18
115 125 207
21 181 139
238 137 205
0 185 231
141 67 67
114 21 68
41 236 221
196 134 63
1 252 3
131 228 33
16 47 250
100 35 184
59 18 180
37 9 183
64 33 77
195 98 20
162 8 204
0 130 103
33 154 112
46 254 201
57 242 253
108 250 35
143 164 96
61 128 53
89 34 58
53 182 184
164 9 169
0 119 49
182 69 155
33 70 38
146 245 77
153 223 90
164 208 211
38 175 189
125 202 119
233 209 155
85 154 211
226 180 28
106 81 103
199 63 79
76 53 98
221 7 44
60 226 61
176 113 36
131 66 92
225 214 52
101 202 7
118 85 30
119 129 237
201 251 178
193 224 234
89 83 76
183 58 104
35 131 213
164 40 172
220 137 20
215 241 110
44 20 125
157 66 61
77 166 233
100 160 244
189 155 24
169 73 176
89 43 225
131 45 122
159 27 115
3 60 98
136 54 19
180 255 138
11 26 102
10 123 169
78 6 201
170 220 63
23 160 8
207 167 158
44 176 24
95 54 13
82 106 6
203 203 165
36 109 38
155 134 143
117 194 208
25 189 250
44 168 58
229 222 156
214 110 133
53 252 90
246 90 75
81 41 19
144 35 25
211 20 69
101 102 167
119 149 83
209 156 29
70 162 157
211 103 213
92 4 121
215 133 221
22 31 98
187 244 114
37 186 34
167 43 82
188 149 177
97 190 104
96 59 115
32 203 134
123 134 71
47 134 29
168 136 172
72 167 227
18 174 117
239 217 170
32 214 29
68 252 42
115 182 206
228 66 28
223 89 89
45 3 9
170 184 181
128 145 221
56 211 234
250 102 160
115 168 78
53 227 79
139 133 90
232 228 28
179 82 135
62 79 19
132 66 51
89 22 130
168 86 58
151 233 191
98 97 4
247 153 103
18 124 6
0 52 134
22 52 146
236 216 64
14 14 215
142 185 59
104 25 210
145 60 30
81 51 239
180 108 141
180 39 2
180 59 73
37 147 239
125 141 151
32 62 152
74 57 10
236 45 59
68 87 6
112 91 106
240 57 110
92 14 24
26 228 128
127 176 83
196 36 206
146 21 231
94 224 40
126 155 24
167 161 223
46 103 41
147 40 214
180 123 249
86 165 176
245 217 102
180 210 134
123 183 103
63 181 50
234 214 97
247 10 213
61 51 217
73 101 186
148 224 234
73 130 150
161 213 78
11 220 149
10 176 233
127 24 108
173 102 216
232 116 23
229 102 56
114 57 105
162 124 11
22 60 230
203 52 24
49 203 50
229 123 206
140 31 13
25 173 5
102 165 28
122 20 109
181 215 22
104 82 47
169 11 91
168 222 68
165 95 209
23 229 246
67 27 3
213 205 108
254 145 137
150 206 234
161 166 54
115 127 248
237 0 117
200 101 241
211 109 87
5 233 112
215 25 253
109 53 53
125 220 143
193 230 41
137 128 3
44 135 138
202 226 247
11 209 103
80 210 165
184 244 12
236 140 115
98 78 218
252 97 68
197 185 61
110 139 82
111 223 177
101 54 95
23 238 122
75 211 26
200 173 141
163 10 9
130 169 79
74 169 106
109 54 240
122 147 217
64 6 77
97 115 155
59 19 176
22 177 119
101 10 123
221 70 247
48 210 18
30 172 143
146 93 147
117 191 50
81 87 25
81 179 148
200 90 228
172 191 11
250 184 130
65 137 95
38 64 85
105 148 80
65 95 67
121 223 19
121 8 156
154 158 3
78 157 216
231 129 149
136 33 224
14 31 24
192 56 8
8 192 221
210 252 3
32 70 72
201 49 171
13 125 3
34 219 184
241 80 201
41 24 149
70 216 83
204 215 13
27 64 149
229 109 119
201 242 103
141 112 56
210 60 55
118 18 180
89 154 64
106 254 133
231 228 107
90 147 28
76 19 136
115 191 97
173 23 143
244 253 126
243 71 218
198 36 32
207 168 149
74 179 244
211 162 124
119 251 135
234 153 37
231 70 41
58 251 86
92 99 138
41 166 95
139 107 126
212 93 234
35 176 76
187 13 217
101 249 79
109 189 86
67 122 234
58 223 231
245 35 92
215 6 130
57 250 115
66 77 149
40 76 212
47 43 25
224 168 155
255 3 14
246 241 161
219 26 89
14 135 167
34 45 126
86 250 19
176 98 245
33 93 193
75 64 48
158 178 29
241 73 136
177 128 82
31 215 61
61 206 64
171 222 15
180 165 36
216 12 89
80 149 17
70 234 88
174 195 239
55 35 33
45 57 146
63 83 163
159 50 174
133 64 157
98 154 244
214 243 232
93 254 113
145 150 254
209 77 135
66 246 199
217 114 234
184 98 189
132 62 158
26 194 161
159 173 225
213 197 45
130 6 220
53 251 229
80 140 63
146 30 235
189 125 128
238 25 8
238 69 62
115 210 192
151 20 78
233 78 204
181 1 194
191 192 40
242 184 136
231 158 182
114 119 238
116 19 91
251 34 185
198 23 50
113 104 176
100 100 251
155 144 219
99 2 224
202 151 87
218 97 40
230 4 168
114 44 50
246 33 154
221 129 39
131 56 195
240 213 90
227 76 129
245 50 64
186 53 76
38 44 157
179 186 214
166 147 179
93 247 229
85 8 5
158 73 87
96 52 135
177 243 12
206 255 57
75 199 32
118 189 200
55 200 236
9 242 182
4 4 226
246 129 157
157 191 49
67 94 184
117 56 122
72 249 151
240 103 17
156 136 244
225 182 199
198 118 188
18 158 144
185 131 187
107 231 46
147 178 245
41 231 193
113 255 114
3 123 213
212 182 150
147 219 150
240 35 7
209 32 115
78 35 187
232 240 153
192 162 30
20 164 99
8 129 119
157 180 56
231 144 111
0 109 216
16 46 242
145 115 99
113 119 15
132 2 149
99 16 78
168 109 0
190 70 115
45 24 247
237 133 51
13 205 119
20 68 169
228 77 168
27 35 223
255 179 56
68 164 155
96 119 196
116 246 166
227 242 187
159 232 135
251 28 78
36 20 162
24 178 207
219 227 104
34 73 218
217 254 130
245 187 142
114 71 27
89 60 138
192 34 179
66 254 203
79 47 218
203 107 246
187 35 77
27 100 131
247 8 29
204 61 13
250 1 238
235 248 168
45 27 61
139 135 130
222 111 1
119 176 5
192 84 70
38 168 251
49 51 245
20 149 78
24 126 153
214 128 66
43 17 170
129 139 92
248 161 106
23 107 198
251 6 143
59 35 158
30 20 88
31 130 169
204 58 231
68 87 86
45 16 142
82 155 163
171 55 128
172 224 73
67 178 89
154 161 3
9 10 252
72 223 155
91 243 140
209 45 163
130 100 45
83 136 216
15 188 166
225 24 7
181 170 173
166 72 44
146 112 27
202 211 44
12 213 173
179 247 247
174 221 148
121 123 230
146 98 245
211 201 217
60 95 29
226 173 138
78 140 101
115 87 230
52 183 103
132 23 28
99 19 205
65 193 67
248 249 134
141 181 9
31 112 77
198 232 213
171 139 11
99 74 175
115 203 61
118 51 215
41 239 159
192 17 226
210 38 117
192 224 114
156 50 223
215 193 249
219 54 245
113 30 37
92 139 229
174 233 103
195 147 89
199 101 65
207 204 157
229 140 32
146 17 101
221 69 192
153 244 6
167 53 228
115 119 205
121 138 145
31 249 58
126 81 85
234 211 209
201 206 13
16 24 179
96 132 217
64 81 221
166 35 87
225 48 251
234 225 21
129 127 250
235 92 116
118 49 19
22 209 38
202 202 183
37 186 80
177 144 152
137 246 69
11 125 219
170 205 64
166 182 166
132 164 56
124 86 130
239 200 13
72 149 215
162 229 177
222 103 86
81 104 3
252 220 64
116 125 37
252 139 148
205 44 146
98 41 185
45 158 65
136 124 199
176 238 225
60 86 81
200 184 253
20 170 53
40 69 60
192 97 184
185 252 163
234 18 21
240 52 130
29 62 120
13 221 156
172 148 144
110 106 113
180 219 109
251 229 244
220 155 168
12 81 99
0 242 19
15 158 245
254 137 93
32 191 19
244 185 217
129 115 140
129 147 242
57 95 241
215 33 133
226 191 176
55 0 96
213 25 53
224 163 195
91 227 60
233 2 70
183 3 15
57 18 108
51 176 227
8 63 18
146 228 228
92 171 31
36 192 116
0 252 98
197 170 235
154 100 72
83 17 212
50 55 142
79 236 230
223 45 196
97 59 69
37 42 186
239 91 49
26 28 1
200 191 85
203 168 61
151 34 50
119 94 129
80 214 87
204 239 35
143 70 133
75 152 26
13 18 124
45 125 229
3 155 88
78 75 127
207 191 202
223 78 31
48 221 167
209 114 61
35 121 124
243 26 153
156 104 174
17 51 69
167 211 23
217 68 140
161 127 202
162 53 229
223 65 149
1 52 126
19 86 232
82 121 70
169 214 63
228 37 2
131 203 140
229 32 216
95 109 119
74 231 99
191 77 236
66 11 28
141 95 134
54 89 129
87 69 215
127 88 64
106 16 22
177 34 202
122 58 75
73 244 131
187 65 227
194 58 140
242 209 21
65 187 200
240 117 205
88 73 189
244 221 46
233 230 96
104 77 57
123 220 235
0 227 25
167 89 42
103 108 20
188 120 252
134 255 23
237 78 241
124 209 172
225 189 223
181 139 59
90 240 1
161 102 36
127 41 146
178 117 30
100 53 150
172 141 206
154 154 196
44 141 38
14 142 142
41 165 223
58 67 89
110 250 192
228 163 115
177 183 78
169 238 100
223 154 76
62 140 193
81 207 113
227 154 243
78 142 245
68 45 107
172 251 94
140 178 206
2 77 239
128 215 212
130 23 214
215 44 126
149 18 139
124 162 13
123 108 222
158 211 242
230 28 0
214 149 148
58 15 177
85 142 159
197 250 33
175 52 82
113 148 205
174 88 137
52 216 236
44 99 138
165 253 238
182 107 201
93 41 119
37 255 191
153 81 10
64 155 59
107 16 78
206 49 243
245 237 159
101 184 31
89 251 251
98 84 52
65 153 57
187 115 172
47 200 94
199 70 43
227 251 203
133 15 107
59 229 236
138 241 117
84 250 117
0 176 74
50 87 48
165 20 19
29 202 8
20 111 20
55 156 23
11 38 114
59 41 80
224 238 181
152 52 188
73 239 205
193 118 26
176 81 98
184 24 204
144 57 123
69 174 82
2 221 247
132 112 76
166 221 237
106 222 248
125 136 225
3 182 236
3 100 238
31 234 63
166 27 217
43 63 110
194 93 13
43 235 215
12 90 161
161 216 93
93 97 177
65 166 236
36 43 80
188 94 203
65 53 175
235 234 61
246 87 224
56 185 103
232 233 255
99 166 203
253 254 186
25 30 164
122 171 168
116 73 247
24 26 49
24 227 70
27 227 208
231 139 210
46 23 231
172 164 192
147 255 81
78 18 61
244 119 163
148 246 45
141 8 26
56 237 183
241 146 45
202 23 165
249 133 147
157 97 2
80 97 65
15 202 84
94 139 196
125 212 188
29 56 126
219 62 45
61 237 26
86 60 26
82 0 192
179 165 75
60 63 34
188 86 138
8 70 89
69 192 29
156 39 36
129 46 157
173 76 209
79 108 219
229 18 156
41 159 153
185 255 38
83 228 238
135 193 13
213 146 75
1 155 136
209 248 250
229 83 105
137 51 113
95 177 170
186 23 116
189 184 252
22 199 226
250 141 138
14 59 18
206 142 251
30 158 114
226 133 204
86 50 146
56 21 69
238 148 187
192 242 11
246 245 229
183 126 151
90 133 162
18 171 190
118 143 21
47 163 16
29 224 129
127 144 223
72 84 187
70 53 178
172 140 112
146 171 75
229 102 211
208 230 214
155 105 10
62 210 50
254 79 135
144 32 77
107 154 73
84 106 222
99 97 214
198 248 39
228 24 16
68 93 142
45 194 4
113 135 120
131 129 214
62 50 151
255 4 45
186 251 178
41 132 80
127 56 228
239 204 202
125 199 125
159 171 121
212 252 95
244 17 142
171 23 76
144 209 129
8 109 242
147 42 143
198 29 225
244 224 8
18 1 113
48 242 145
243 24 110
245 110 201
18 130 227
101 209 25
131 201 135
45 46 18
210 28 183
198 242 11
225 8 40
40 152 77
233 208 163
155 207 12
206 224 27
79 113 144
234 17 216
163 30 45
24 211 27
18 58 138
27 98 55
113 32 122
90 226 193
243 25 198
97 240 51
54 95 131
148 194 115
42 237 214
173 5 174
130 26 91
18 116 212
108 75 28
96 204 222
214 215 139
69 101 64
61 10 110
204 111 223
95 193 106
155 203 54
228 170 216
248 0 245
75 58 194
221 54 42
55 59 67
194 149 42
87 168 33
181 28 124
188 61 109
114 192 79
158 211 7
137 184 216
192 253 188
242 185 226
144 180 193
36 21 42
225 62 229
168 77 115
87 88 159
17 129 205
117 240 142
237 1 219
128 211 63
168 128 126
70 28 107
246 56 244
71 109 72
161 189 38
80 183 101
144 253 31
132 232 121
142 91 152
0 129 168
217 190 87
67 226 241
117 126 71
215 126 9
192 234 220
192 82 101
39 41 77
238 57 244
0 195 94
113 203 235
114 64 230
86 159 213
18 128 64
164 120 170
95 138 175
65 66 217
26 115 9
123 30 187
222 184 16
225 45 187
164 3 6
216 104 61
41 205 143
166 125 226
222 24 231
97 148 57
228 168 234
44 210 27
164 49 140
111 249 195
63 21 83
86 222 102
24 199 217
254 155 129
56 160 139
1 31 76
154 226 187
189 161 155
120 223 120
75 118 2
166 160 221
117 251 148
32 174 41
140 48 148
208 254 113
68 223 233
163 238 228
133 225 217
145 169 163
61 165 158
155 155 44
139 155 205
189 239 167
12 99 2
199 3 114
33 165 206
43 187 74
30 164 17
52 124 108
65 252 82
139 169 223
154 157 44
114 59 71
229 227 237
147 236 34
89 45 169
225 139 189
104 36 173
166 186 217
176 104 0
20 135 28
176 148 171
239 66 228
22 91 180
172 92 221
21 188 8
252 179 85
132 38 187
110 64 144
209 223 216
56 51 194
196 0 143
46 49 61
48 56 158
57 181 238
173 24 73
3 53 22
108 133 11
215 234 33
235 221 196
5 179 100
53 60 206
253 2 173
161 235 205
188 56 52
196 233 154
224 97 24
189 145 146
210 178 220
210 200 138
9 77 249
127 95 18
89 210 52
64 240 120
64 58 175
45 118 137
38 229 63
6 143 232
232 157 24
204 196 230
108 220 99
38 69 5
250 133 180
190 69 114
120 229 34
173 144 170
49 194 119
112 205 172
131 217 79
180 153 107
59 114 128
225 186 159
142 54 254
2 180 240
210 73 77
255 191 144
50 98 186
172 224 56
68 64 119
80 109 57
160 117 121
173 121 162
217 169 113
212 22 67
220 182 171
169 245 85
107 170 31
33 200 61
27 36 60
56 53 243
88 87 206
154 140 190
132 25 140
176 13 169
86 106 36
246 207 247
167 0 58
105 210 213
87 250 11
61 62 26
222 247 24
50 153 193
12 250 93
24 50 211
31 40 134
233 73 20
75 115 235
15 28 9
216 34 101
156 167 54
21 36 174
4 43 93
200 228 55
87 67 115
180 31 15
111 103 85
219 87 91
168 15 241
12 254 49
128 13 71
13 103 238
74 165 20
189 106 81
191 123 177
126 46 125
40 20 62
38 10 207
141 8 153
205 63 203
225 165 108
105 196 62
65 214 106
129 239 102
0 48 139
144 215 131
79 100 35
178 190 125
228 101 101
234 58 169
12 149 255
200 240 207
240 33 56
91 205 69
149 125 226
143 140 224
37 210 155
234 159 7
204 226 246
86 156 46
146 168 131
57 225 183
48 40 65
54 202 232
166 184 33
51 255 190
219 63 62
62 28 198
62 144 22
233 119 25
170 120 57
227 191 233
211 90 99
157 169 59
171 149 245
150 181 74
204 129 7
22 237 187
164 149 120
32 215 221
156 209 68
41 123 252
172 76 126
164 207 144
141 80 215
47 21 124
43 149 42
68 30 99
171 39 228
126 77 21
141 3 13
67 168 241
192 93 100
253 217 92
57 197 240
148 209 82
82 145 231
236 34 201
186 120 8
99 26 181
155 120 126
84 71 141
0 26 235
201 102 55
159 148 2
37 157 246
241 248 44
124 94 234
147 0 79
61 54 81
214 31 96
73 177 148
80 240 156
58 57 208
94 45 155
92 68 137
81 95 85
199 236 55
214 161 74
34 235 197
175 30 11
77 222 169
52 165 219
153 75 46
3 212 212
234 76 138
221 224 47
53 214 32
187 73 68
227 185 185
183 240 103
82 200 197
250 147 89
143 150 37
235 190 79
245 222 74
111 61 52
249 53 73
158 232 54
195 254 2
243 160 247
231 103 99
31 50 61
4 113 229
8 103 244
15 102 89
121 125 189
85 43 62
90 38 149
225 149 207
79 254 25
0 174 185
23 139 159
29 235 52
243 51 18
129 165 52
88 149 174
34 205 228
60 251 209
114 188 73
143 138 67
237 187 229
247 223 210
235 19 248
140 154 120
62 149 118
12 57 75
187 241 20
149 83 237
104 181 183
229 50 157
39 217 111
210 181 145
128 28 171
188 201 148
213 165 38
189 247 55
93 157 146
32 59 142
67 140 79
131 195 92
63 140 192
76 156 123
50 34 216
125 166 44
104 219 41
88 88 29
126 142 128
59 178 48
250 89 29
188 57 154
244 19 105
6 165 176
146 136 39
85 119 34
168 4 194
248 71 156
3 23 65
93 106 217
20 212 5
197 198 10
127 25 69
108 131 172
138 138 112
39 198 111
150 67 161
214 6 162
71 218 226
217 78 34
112 13 203
38 254 109
108 237 222
132 141 38
98 165 244
6 148 81
138 30 125
216 41 108
228 241 69
133 102 123
164 83 166
233 141 63
118 57 231
215 125 186
160 70 61
54 72 155
101 139 130
67 1 142
83 4 138
76 14 80
15 66 235
16 93 109
25 82 195
137 88 227
91 226 56
163 17 126
29 150 196
143 254 222
43 187 255
151 171 228
41 196 218
254 61 205
237 251 97
127 241 224
42 36 165
97 132 145
233 217 93
220 169 105
167 231 145
128 236 137
87 14 117
45 185 12
31 224 95
13 38 114
233 63 253
148 243 53
231 134 235
65 111 51
129 255 168
85 140 195
170 178 25
75 109 231
253 250 230
214 177 240
150 86 202
124 238 100
223 195 184
149 116 1
142 210 219
169 53 98
106 153 126
183 230 224
168 90 100
22 200 90
255 250 39
196 211 147
236 79 150
136 243 40
18 4 152
139 76 49
103 100 166
205 203 36
8 40 22
141 179 142
50 240 32
9 84 218
92 112 96
10 56 220
148 238 220
1 177 66
184 92 218
42 7 255
255 2 12
75 104 14
206 223 61
0 108 124
196 42 157
38 24 123
7 59 164
61 118 100
148 225 245
197 221 63
193 161 104
246 188 36
107 87 152
18 85 101
28 210 239
65 221 153
204 213 180
44 176 19
112 84 175
170 76 104
216 249 253
92 121 182
39 72 190
222 217 64
20 15 207
4 89 165
203 114 54
58 188 140
40 231 185
145 86 178
22 111 236
215 192 245
29 59 142
133 115 215
94 57 67
85 160 238
117 113 11
74 142 142
131 251 197
173 10 201
231 179 4
225 216 215
81 160 187
81 108 31
63 2 229
124 161 166
237 106 247
71 79 79
194 215 251
191 43 73
209 121 207
81 120 182
254 191 113
164 42 236
163 100 107
252 148 73
40 151 103
201 180 32
155 12 95
244 223 188
172 207 95
192 29 108
111 117 95
160 105 124
103 162 25
23 182 12
101 94 216
44 45 184
143 112 102
130 91 199
116 153 67
224 212 87
128 209 187
61 191 102
255 29 37
122 30 222
203 173 14
255 201 173
129 248 161
8 18 61
171 73 145
111 126 236
128 60 12
97 7 165
121 177 93
205 249 105
167 10 155
115 104 70
67 79 121
251 71 140
4 138 41
106 12 215
160 6 113
151 98 95
17 107 148
136 158 5
142 21 191
19 141 116
86 32 34
162 118 92
247 128 59
181 192 163
89 185 120
112 66 111
112 151 189
186 117 83
199 54 66
32 172 198
202 2 255
144 232 127
217 150 129
81 63 133
174 126 201
91 252 129
185 35 145
113 116 8
153 108 226
45 123 58
215 180 186
77 126 31
86 207 180
134 3 153
10 29 1
240 15 81
240 91 170
6 120 129
233 96 237
183 211 227
76 44 207
66 100 3
109 233 122
8 51 162
186 73 49
204 45 91
51 108 22
255 56 178
165 91 95
227 22 60
178 219 176
167 129 70
98 233 227
165 170 248
226 173 146
41 11 27
16 197 192
72 1 48
33 247 194
3 179 77
2 1 46
212 217 41
92 78 78
220 14 16
84 248 40
193 54 172
53 128 191
37 2 5
50 175 196
164 22 199
65 194 209
34 110 66
219 217 227
240 69 55
53 196 226
211 135 189
38 162 160
43 80 77
235 7 73
93 103 47
138 185 61
36 90 88
227 120 0
60 62 207
156 9 200
182 216 197
246 229 120
166 235 6
197 106 187
82 164 150
141 223 136
103 126 138
53 152 0
43 255 116
69 144 210
183 112 154
21 105 135
19 72 239
132 134 85
116 97 120
187 25 174
141 14 94
53 220 20
249 224 43
5 114 27
60 174 194
104 72 174
36 193 18
151 232 35
215 8 71
19 19 226
35 159 207
145 172 127
160 28 207
179 122 56
100 155 207
189 159 78
111 247 243
248 35 146
224 10 166
48 169 126
102 83 202
74 117 231
109 4 137
133 226 121
75 34 25
32 54 60
206 81 27
105 53 79
47 26 208
81 120 38
98 55 86
144 165 115
187 56 189
204 236 218
242 100 243
178 197 177
89 176 44
140 149 125
54 34 196
148 103 54
168 82 23
251 249 131
215 229 73
122 178 162
102 131 213
241 177 102
39 36 17
213 111 161
92 193 118
232 191 83
70 174 233
89 51 131
10 238 3
110 118 114
177 226 102
241 99 48
196 9 174
146 1 55
164 236 234
25 79 39
50 11 237
34 135 178
144 163 202
235 5 76
21 78 117
176 243 140
155 227 194
242 114 57
79 253 192
248 230 102
81 92 177
64 46 0
93 203 124
119 25 204
166 249 175
1 45 213
20 85 19
51 74 193
7 255 174
252 155 38
67 44 73
251 80 78
171 115 196
173 219 52
172 168 177
228 96 240
163 30 193
110 225 11
31 63 177
185 120 32
159 246 169
44 64 225
184 48 96
235 110 47
8 199 15
153 216 92
36 109 131
25 71 246
55 25 114
40 11 105
232 125 119
236 168 39
53 142 178
112 187 58
135 248 16
248 52 22
205 79 255
30 178 225
213 42 160
1 65 118
67 247 132
231 208 48
209 85 4
41 97 113
28 79 87
178 130 63
20 230 35
225 36 158
253 37 176
217 124 231
154 69 129
117 85 42
237 144 212
144 76 180
96 164 96
58 253 31
103 9 178
42 225 253
251 209 62
225 142 170
100 94 28
48 190 185
189 57 248
62 154 59
141 148 185
134 192 221
170 246 43
44 218 142
23 18 21
3 112 93
39 232 102
181 54 87
72 36 248
11 210 246
145 229 174
99 130 176
227 226 89
253 58 28
8 10 190
210 82 171
209 223 109
81 104 170
237 228 39
50 233 213
46 66 65
175 165 193
140 156 4
146 49 156
146 45 52
95 147 61
54 52 29
168 92 190
212 201 112
36 211 218
212 179 237
206 53 248
209 80 164
247 239 229
183 19 219
153 252 44
97 192 41
212 149 10
63 72 165
64 110 152
61 20 25
53 132 118
249 201 201
237 77 109
202 87 137
117 167 81
127 33 15
196 205 174
80 244 227
129 10 212
0 25 80
152 154 165
46 147 132
18 195 183
83 178 141
167 55 82
138 139 80
221 142 214
206 23 195
28 253 0
58 49 229
49 234 99
16 27 142
20 252 161
183 107 3
116 165 41
124 154 214
227 210 164
107 33 28
9 121 176
91 100 102
242 160 198
53 121 230
225 250 80
36 132 65
145 77 86
18 254 100
68 37 113
45 158 190
208 135 31
216 242 122
194 164 107
130 200 127
70 251 63
190 51 7
194 159 254
13 164 189
242 242 9
195 44 199
192 242 48
43 15 80
49 230 98
217 214 39
8 157 234
8 6 167
194 24 183
112 206 158
246 143 106
72 34 176
233 245 17
24 76 220
185 215 105
159 247 71
139 7 197
180 1 2
86 185 110
26 38 95
38 249 19
53 93 102
249 46 214
225 21 160
17 87 215
237 213 69
80 167 123
178 219 92
124 125 64
17 0 234
192 176 38
138 23 106
114 225 42
141 33 21
224 197 254
135 183 211
48 168 106
186 90 112
207 56 68
123 44 83
96 3 47
80 10 197
121 137 113
184 199 227
235 123 80
56 191 99
244 55 187
99 71 17
56 29 34
60 107 21
248 76 63
42 116 142
241 156 13
4 212 117
90 84 210
59 119 16
157 214 22
246 227 69
26 215 205
134 50 33
225 172 126
113 30 227
82 167 44
59 247 53
144 164 21
14 67 179
5 79 1
143 92 50
254 246 96
132 235 195
107 115 151
46 112 65
34 202 186
135 85 70
186 100 138
44 240 25
135 145 246
251 201 3
205 66 18
218 175 84
133 58 40
1 168 99
246 127 46
54 210 210
28 158 94
80 139 190
196 149 78
102 6 157
33 119 190
123 235 201
49 71 112
124 116 236
168 126 71
105 212 55
75 105 121
179 59 253
193 5 167
7 1 131
67 29 165
3 148 135
150 216 16
19 53 57
18 223 166
128 180 19
81 233 137
143 213 129
195 170 252
159 129 83
116 241 70
12 132 127
94 120 74
149 143 52
36 175 255
62 172 212
109 60 30
138 113 121
130 147 37
173 65 135
136 154 152
174 146 54
17 118 95
41 75 84
151 42 119
213 242 114
218 184 193
110 191 22
30 113 89
244 145 225
179 125 87
88 5 241
140 219 76
90 82 61
253 142 16
84 86 219
0 208 55
150 73 19
49 124 50
254 19 39
47 6 137
175 221 212
100 68 109
72 8 180
210 72 66
49 227 101
119 167 21
196 40 197
94 8 138
119 53 1
112 213 91
113 114 169
165 232 40
217 154 165
239 143 166
171 91 156
34 28 120
182 89 43
185 248 151
204 2 11
170 5 150
40 228 110
211 97 19
155 224 239
45 107 8
97 137 234
141 226 29
173 123 97
33 196 112
129 167 212
139 213 3
26 214 198
110 88 172
81 202 200
67 211 73
19 92 170
110 96 133
200 91 145
66 199 75
86 213 148
176 136 190
20 87 185
19 80 108
36 39 28
30 126 120
6 83 38
246 176 12
171 212 59
63 238 207
34 121 21
234 96 82
148 55 238
206 82 228
69 196 108
175 19 142
15 67 255
60 119 20
32 63 136
249 151 85
135 184 172
62 165 235
191 71 198
152 115 45
11 69 111
68 236 98
63 35 63
105 195 169
122 184 254
215 229 214
74 125 120
56 17 3
222 24 71
24 243 103
136 103 6
192 175 57
24 101 87
180 23 19
217 14 215
119 119 237
52 30 243
88 105 71
36 3 215
32 150 59
204 149 70
6 255 58
108 228 236
39 156 217
137 19 118
123 81 62
123 157 100
214 200 55
194 140 43
234 185 167
217 154 199
61 12 76
42 65 177
193 77 178
120 10 2
122 41 149
150 240 94
235 226 150
104 104 70
72 145 218
37 194 83
54 54 7
13 10 228
202 83 2
43 138 175
47 221 100
39 37 162
54 9 122
90 232 37
110 187 248
127 169 252
217 160 239
200 124 250
9 232 58
80 10 60
18 39 218
62 162 249
112 98 147
94 231 84
71 224 125
1 237 115
187 238 95
48 183 66
64 23 183
77 178 170
202 243 254
186 165 208
252 215 90
230 1 31
228 80 6
165 120 142
207 125 73
220 169 28
250 1 43
74 70 209
33 216 39
84 183 29
213 181 8
59 158 246
206 213 141
35 131 147
243 128 239
73 169 125
143 165 255
196 210 40
126 68 62
98 37 104
121 90 151
75 242 153
45 141 189
40 215 112
116 224 89
218 129 48
111 0 130
175 228 114
129 133 32
40 50 181
6 46 62
154 40 252
234 96 51
61 254 91
210 82 151
126 9 17
55 165 253
111 137 33
65 25 181
101 29 38
166 125 182
92 58 231
215 152 222
246 153 43
37 137 162
138 25 47
107 177 180
148 71 202
40 205 99
231 21 105
51 244 90
205 206 130
196 213 138
129 227 167
104 61 230
36 208 41
245 197 157
248 154 244
253 87 45
8 180 15
41 71 54
97 7 159
42 73 66
99 221 254
116 46 235
119 202 39
76 58 177
217 35 108
19 188 150
61 193 224
28 182 221
158 119 111
144 177 76
155 168 243
122 39 98
229 75 71
146 101 237
118 113 213
92 16 67
14 17 31
120 83 176
112 179 29
197 54 116
129 218 247
157 145 99
198 221 180
230 129 68
186 53 253
99 120 217
111 135 174
129 232 135
87 62 212
243 68 19
73 156 218
250 13 56
176 212 160
246 121 33
185 2 2
28 88 241
141 216 83
233 23 103
194 78 18
177 111 13
29 213 10
102 208 174
101 106 7
251 9 45
252 167 144
159 217 96
66 131 92
100 116 107
212 109 179
160 6 103
133 178 238
80 56 157
126 83 159
88 245 20
143 144 44
86 33 241
196 156 192
254 103 204
201 66 180
66 70 123
14 3 112
242 178 207
243 215 204
240 157 242
122 127 36
28 140 108
223 118 34
220 81 59
208 236 172
38 230 191
235 245 243
87 223 211
151 106 17
41 139 142
141 54 194
251 239 27
188 3 170
154 108 78
185 150 216
9 0 129
67 146 214
183 186 193
223 211 102
248 123 133
115 242 33
90 8 34
31 214 85
66 202 248
171 209 243
32 42 237
155 202 96
81 159 155
70 148 235
40 207 229
166 39 17
132 76 210
205 3 56
233 60 42
63 174 1
131 74 160
38 9 207
47 106 255
136 169 81
252 64 138
75 90 161
134 48 43
18 89 254
69 179 85
92 47 249
81 16 153
169 83 79
72 197 30
134 168 157
84 60 207
155 85 114
29 203 27
164 229 6
197 61 159
240 25 210
45 27 84
181 4 182
177 195 210
53 135 74
2 86 195
1 95 170
32 223 145
115 210 21
173 125 161
203 149 101
199 185 71
68 7 130
107 205 115
147 209 208
227 35 99
159 89 44
204 121 26
213 100 14
68 206 172
186 152 123
145 250 70
46 238 85
240 93 92
65 251 236
36 88 29
170 74 29
6 210 161
187 45 247
122 255 17
250 189 116
75 216 64
27 247 215
96 62 56
60 93 54
66 72 244
92 86 123
50 106 177
33 252 251
110 11 80
152 22 182
55 175 102
212 184 42
135 51 207
123 142 205
97 87 108
113 180 1
194 250 81
54 128 240
83 117 95
223 96 47
47 187 37
182 206 196
39 27 8
59 67 239
170 142 8
235 164 249
238 142 190
73 179 146
254 211 176
26 182 106
17 245 101
230 255 20
68 214 172
223 77 82
47 85 131
230 98 140
136 168 175
249 207 76
227 138 226
18 242 215
234 228 7
127 87 239
167 151 154
29 190 49
104 152 32
107 22 37
76 136 110
1 63 103
101 210 204
229 250 151
189 251 134
235 104 194
106 41 44
127 241 84
222 131 43
220 252 57
228 51 14
85 176 10
175 118 97
150 80 209
165 5 140
23 254 233
215 211 53
150 205 195
162 9 83
19 199 54
68 52 114
233 116 21
216 127 43
74 114 162
11 202 63
97 62 109
38 29 232
0 100 182
116 167 64
127 19 194
163 137 16
111 192 144
157 59 58
32 134 73
35 22 134
92 64 101
151 137 158
119 127 4
80 31 130
169 221 15
68 71 12
109 57 144
148 128 171
221 198 4
228 98 254
80 76 131
211 110 121
255 167 31
31 141 173
113 131 154
78 13 55
187 11 86
70 198 166
32 82 243
140 253 26
253 12 0
232 188 72
20 112 127
215 186 212
75 66 16
137 202 165
77 32 73
184 60 10
173 90 81
102 85 231
65 133 62
105 123 215
133 64 11
133 92 230
60 66 178
111 40 12
239 121 127
62 107 89
3 109 143
253 216 159
69 233 131
172 7 32
176 86 178
153 130 194
154 182 230
11 91 135
33 107 139
133 92 47
146 198 34
243 104 125
91 253 121
49 201 14
129 218 151
146 192 175
209 126 154
139 34 35
126 235 54
95 45 68
24 219 183
83 162 179
178 136 61
180 128 108
148 237 248
127 82 188
196 54 123
151 164 102
202 123 137
42 191 109
138 209 116
85 153 104
4 95 88
230 48 141
5 179 115
184 248 123
244 25 115
112 160 77
215 140 234
106 9 135
25 174 197
141 240 3
98 7 190
159 19 96
112 135 200
227 73 202
73 111 224
120 107 212
77 1 121
94 76 60
24 167 188
248 78 112
203 35 127
249 103 166
164 64 139
100 33 248
36 74 47
108 7 100
239 249 201
82 250 48
69 118 247
79 109 72
159 186 168
94 130 157
26 55 137
251 168 233
175 167 244
37 67 200
2 112 163
52 40 190
162 132 120
201 50 205
0 187 67
197 226 243
235 246 109
43 29 165
147 54 237
65 20 31
159 75 62
22 202 110
10 89 114
236 183 211
111 158 162
128 212 131
1 150 243
85 66 45
216 115 102
153 5 48
37 166 188
31 54 253
230 34 134
24 44 225
154 171 175
7 203 64
185 205 134
159 14 25
161 149 216
216 86 138
77 60 29
132 23 143
195 233 86
135 204 135
161 148 96
41 139 246
168 179 141
145 22 4
38 71 190
107 214 198
57 47 232
2 244 217
93 149 36
253 242 62
94 10 146
190 109 141
61 43 130
187 215 213
238 18 135
223 41 48
160 225 249
131 132 34
67 21 141
14 153 166
177 65 237
10 155 24
227 148 44
247 155 165
69 30 15
50 197 68
92 108 233
139 173 1
175 209 190
141 243 162
221 177 12
175 187 52
140 186 65
47 191 195
29 216 3
39 74 121
197 9 58
53 191 204
42 194 46
13 23 118
80 126 91
13 110 26
91 233 47
165 163 88
138 155 2
156 27 66
115 84 188
127 39 109
224 81 239
28 21 215
184 137 117
92 95 175
97 36 76
117 209 137
109 5 45
48 140 57
47 168 59
180 29 73
203 54 57
113 19 204
175 146 193
36 144 114
180 157 130
198 116 48
150 86 206
68 193 246
109 225 249
165 158 119
107 67 13
161 242 217
205 95 145
22 110 59
74 11 5
118 103 50
188 210 225
113 61 202
112 121 188
113 197 79
171 1 165
0 181 70
192 109 127
226 218 95
7 122 218
83 50 116
222 58 113
12 151 107
153 98 39
225 237 102
39 182 38
117 194 88
162 152 2
190 218 128
139 199 85
158 251 45
237 10 156
32 83 8
227 30 122
125 213 132
95 158 96
38 60 206
159 59 83
179 220 33
37 228 220
248 83 138
149 15 54
56 215 60
180 198 130
254 172 123
75 112 62
21 40 217
173 147 61
50 20 164
243 92 31
113 206 113
21 219 244
166 128 245
22 146 107
245 155 68
218 180 67
39 198 54
198 99 67
215 1 57
27 95 85
236 61 238
4 243 234
185 206 3
218 182 141
95 63 113
44 214 0
187 180 43
241 118 250
25 206 158
152 252 18
148 127 29
251 213 251
209 93 46
140 195 117
78 160 40
10 214 161
102 212 168
115 165 16
34 36 8
217 142 37
129 165 167
12 85 141
222 45 113
155 134 80
189 180 196
194 39 114
167 230 120
133 58 232
240 146 208
72 168 213
204 192 134
253 16 109
108 191 120
247 228 106
159 243 96
210 240 111
45 196 43
28 127 103
54 101 6
84 192 159
200 80 146
74 175 58
186 11 224
2 88 232
232 33 177
6 5 214
9 58 224
114 186 197
48 57 182
243 39 111
40 145 84
153 234 249
21 83 90
74 178 110
122 23 224
74 234 3
65 34 176
97 7 149
89 147 96
21 27 177
63 5 217
150 79 209
42 249 22
252 76 18
110 142 152
20 27 10
55 21 118
25 240 114
3 37 50
166 30 156
193 44 89
185 148 72
96 47 165
71 121 205
98 172 197
164 43 185
220 22 136
209 88 115
117 163 139
5 76 161
169 225 13
221 109 37
45 215 139
209 105 42
246 153 182
158 90 250
20 205 38
1 92 68
85 137 24
184 188 84
19 109 163
230 93 199
190 210 103
76 251 158
77 139 154
188 165 117
24 188 219
204 248 232
164 143 123
171 96 244
96 20 229
35 53 202
245 230 193
98 164 141
228 231 100
182 230 52
39 88 36
214 148 46
106 76 197
88 83 255
103 20 78
88 18 41
207 204 116
252 64 131
191 69 208
109 25 67
206 83 126
32 6 185
85 28 80
31 123 161
1 147 192
173 133 89
233 26 195
170 5 86
64 90 233
65 164 176
125 231 63
247 188 162
164 129 212
88 87 33
243 213 139
19 27 50
139 115 209
184 93 237
249 172 129
50 70 107
136 179 214
158 61 105
191 71 24
49 141 30
208 156 64
228 55 236
117 147 191
129 129 115
144 111 249
155 82 113
73 230 121
249 37 186
46 58 197
186 100 1
144 50 138
136 234 229
138 211 91
72 152 47
166 13 96
136 79 36
59 94 91
100 18 29
166 2 104
254 31 114
138 88 22
160 240 76
193 172 68
78 117 82
57 224 176
67 25 100
238 170 29
38 221 164
230 150 93
115 11 80
97 86 79
129 176 79
245 55 239
215 157 152
71 193 82
237 167 151
126 208 14
109 154 180
86 149 42
180 244 46
169 43 101
25 69 8
126 203 62
229 65 193
243 84 10
94 63 0
156 234 195
203 146 115
76 180 233
42 241 249
71 218 101
53 154 251
26 103 14
150 119 223
194 85 228
91 74 193
18 237 93
147 109 85
67 65 248
19 142 201
197 198 43
164 130 143
62 125 66
116 158 41
237 144 239
171 168 45
195 125 145
205 195 154
200 199 71
168 73 103
246 219 157
150 138 245
221 164 161
10 53 47
49 30 255
243 183 8
236 48 121
140 65 73
66 112 5
168 164 53
31 12 252
121 92 14
41 168 143
197 244 130
43 49 86
166 82 26
63 221 86
171 193 108
123 54 5
58 79 120
49 54 39
206 155 91
3 249 254
151 62 187
85 196 28
44 149 111
127 49 111
249 203 56
13 251 134
95 159 177
44 246 151
56 71 152
8 210 149
8 135 247
16 67 124
219 90 56
3 16 160
71 20 92
203 218 26
120 4 92
211 64 214
155 65 175
102 63 129
114 178 249
228 100 106
34 104 30
248 178 152
208 55 91
22 103 59
201 162 82
30 233 6
58 154 2
85 238 168
107 127 28
47 242 108
172 24 60
244 149 32
228 34 76
124 41 161
52 112 235
185 84 112
255 251 220
116 243 153
231 11 201
110 212 107
227 16 95
120 31 126
37 251 15
165 48 231
196 214 190
121 209 85
187 139 5
19 208 124
144 22 106
177 118 207
166 204 5
36 97 173
138 104 255
112 90 160
43 177 20
88 83 218
220 9 44
231 119 232
204 254 200
163 148 19
254 238 230
106 209 68
200 202 190
77 112 139
1 135 185
53 231 133
65 126 144
104 153 175
200 107 2
160 152 137
4 96 63
169 86 68
68 39 234
202 59 182
149 120 245
167 187 254
207 244 156
177 176 6
81 9 115
172 38 207
153 165 59
52 222 130
32 102 47
188 221 245
152 243 90
66 44 182
23 153 8
123 52 163
177 227 244
166 240 103
218 2 122
119 165 117
62 230 75
122 139 189
185 123 34
184 200 137
30 213 226
204 187 76
18 69 109
44 51 13
157 136 175
98 107 63
75 219 186
237 199 161
63 196 13
90 50 121
218 121 102
156 134 22
29 90 247
3 18 153
12 165 43
38 190 210
105 236 233
199 150 59
216 139 94
76 187 56
217 147 73
225 2 254
43 23 199
144 193 22
46 136 21
123 2 69
185 9 193
227 190 227
139 211 200
227 206 108
161 134 53
195 96 71
17 21 58
196 4 111
184 135 121
115 90 50
202 208 157
198 101 33
12 93 46
230 173 14
44 235 62
44 100 121
118 239 131
58 63 97
20 86 44
151 5 111
120 203 110
40 67 176
9 210 165
43 122 193
35 171 112
230 111 233
195 223 71
10 166 98
146 89 30
194 81 167
205 240 132
123 178 104
95 0 73
122 24 185
190 103 97
245 44 104
2 62 121
207 223 33
196 55 119
142 65 161
48 117 83
203 93 60
236 249 123
102 96 128
208 197 98
124 230 54
8 157 161
33 26 229
17 30 130
184 64 56
99 110 153
73 140 225
45 82 102
159 173 210
34 157 110
121 43 19
56 197 80
77 181 123
208 252 59
219 218 248
49 35 63
166 94 117
181 182 87
187 186 21
3 91 3
231 61 14
134 134 30
122 63 154
151 213 128
67 128 219
37 214 253
234 246 131
3 205 232
200 6 127
165 52 1
112 89 74
65 29 93
223 84 43
133 115 174
161 89 204
48 131 47
125 197 121
82 136 28
2 117 25
224 125 152
223 58 6
104 56 253
217 111 26
166 200 107
205 230 155
156 204 159
255 44 0
167 186 243
91 85 96
203 146 170
108 32 33
233 19 141
138 170 63
227 168 22
209 78 45
78 54 75
167 178 225
26 121 188
66 13 245
198 248 159
129 36 84
254 23 125
199 170 41
69 189 233
227 2 34
196 67 207
46 40 90
200 64 91
36 120 252
22 9 204
69 147 38
160 93 31
161 15 73
177 44 86
41 237 9
27 179 12
243 236 143
27 186 5
117 77 217
75 206 56
146 199 241
158 87 22
230 102 207
182 250 162
64 173 75
122 92 196
99 134 49
143 46 236
204 232 107
147 93 201
165 226 3
57 45 30
141 219 23
197 78 127
207 18 154
72 200 26
190 148 195
137 229 186
192 62 164
21 200 230
40 9 180
6 30 83
161 229 201
149 187 134
71 23 108
242 158 233
125 119 67
248 78 101
3 140 136
208 209 147
104 234 198
251 40 4
182 169 114
231 57 57
216 222 24
25 146 174
44 192 73
156 203 63
232 85 46
58 235 43
141 0 177
89 185 181
155 29 149
171 163 13
63 205 238
253 98 240
41 255 140
49 170 228
226 175 201
229 43 83
18 114 56
187 54 88
98 109 18
164 150 204
157 177 84
126 164 11
3 219 215
60 222 240
71 87 254
130 233 62
22 146 202
102 91 239
252 6 242
27 22 235
99 13 30
142 114 176
58 111 196
251 233 151
27 18 113
73 235 149
233 184 133
196 190 114
89 150 57
185 23 11
141 184 126
163 124 124
191 54 195
95 220 11
134 143 189
38 26 234
145 178 116
3 209 126
35 26 223
65 43 122
158 174 114
136 3 21
179 217 196
145 176 82
25 227 235
136 197 187
37 85 234
186 68 90
151 72 91
217 118 247
180 219 235
16 217 87
242 208 146
59 166 136
211 102 157
190 237 204
204 252 175
229 121 97
22 137 35
72 132 82
47 108 32
199 196 104
211 115 76
176 75 9
33 141 118
186 223 42
254 225 128
72 91 144
156 40 211
18 238 141
113 228 96
243 6 182
219 151 123
46 80 177
10 214 54
195 100 22
191 246 133
129 173 222
155 207 173
86 16 93
156 189 97
129 107 79
174 238 57
5 39 114
142 62 26
206 172 60
15 253 50
215 42 70
48 82 245
75 185 104
14 39 150
140 166 215
211 133 92
160 190 150
96 189 181
124 143 171
42 249 49
145 158 202
130 173 108
28 60 94
174 164 177
195 178 0
150 87 89
106 89 32
117 108 131
171 22 166
235 117 129
74 120 241
190 161 223
195 207 159
240 204 196
141 128 183
150 220 218
133 161 116
231 10 194
166 142 154
42 20 51
171 222 145
119 86 108
120 140 231
158 158 136
143 229 49
69 45 25
187 124 243
95 169 217
103 191 136
249 15 65
221 163 147
47 128 117
77 8 96
222 252 231
253 145 241
84 136 86
11 107 118
113 60 174
190 222 228
230 225 202
66 112 6
24 138 95
127 163 4
17 241 6
136 159 213
190 46 129
116 61 29
175 104 193
192 194 51
58 214 0
146 165 203
86 232 196
133 5 38
112 212 113
201 49 130
245 239 177
248 213 236
140 43 245
92 196 48
247 63 20
153 172 153
156 29 10
92 158 57
238 132 44
153 168 49
7 213 103
204 242 147
43 216 7
216 185 24
96 121 137
224 29 163
8 102 202
23 90 127
116 159 136
254 209 128
115 157 85
97 231 170
175 192 34
99 172 151
242 168 145
200 240 52
33 141 128
138 197 64
183 123 220
4 190 213
137 181 3
98 110 177
72 186 234
2 35 171
51 64 23
23 208 91
233 55 246
194 74 208
242 141 224
133 147 255
211 227 153
95 77 194
148 167 187
78 130 205
9 81 20
193 128 35
200 58 87
196 166 104
91 247 173
237 169 88
249 207 67
79 93 126
31 29 179
152 54 195
152 48 63
110 66 155
50 0 14
34 190 38
233 112 68
3 118 131
191 217 205
136 130 221
186 138 185
61 246 66
0 195 239
181 135 127
181 174 239
212 45 200
132 215 52
60 120 84
1 102 201
58 57 205
153 40 203
105 18 230
109 38 26
240 183 232
24 203 49
237 180 4
250 221 171
0 1 22
225 180 209
110 15 177
210 5 82
42 110 42
229 129 127
28 111 248
115 93 147
43 206 123
22 19 218
245 8 107
138 240 185
175 168 143
135 16 216
23 34 239
92 176 158
44 227 162
169 227 5
29 170 201
8 95 54
13 32 2
90 34 38
72 225 253
187 3 215
34 60 185
149 207 187
201 219 210
234 144 109
72 184 27
217 138 184
171 101 160
131 18 119
4 63 109
237 2 23
205 200 191
239 2 80
58 213 0
123 227 210
16 47 76
21 174 203
25 67 242
227 214 44
183 10 203
218 224 202
145 139 200
122 11 252
168 48 226
88 133 233
141 10 34
132 179 247
131 194 254
170 159 28
105 209 222
78 156 54
240 117 145
6 38 82
139 199 222
196 112 84
207 80 141
102 198 24
223 57 163
84 81 76
172 4 202
126 240 220
161 145 121
122 68 150
123 38 75
223 232 8
253 94 255
69 154 139
145 144 28
118 109 133
210 41 89
95 8 246
209 107 90
227 179 217
12 104 56
65 57 154
11 125 252
55 116 48
114 44 242
168 88 67
63 19 216
110 200 45
195 223 50
238 201 242
247 179 208
1 108 167
238 146 86
176 61 51
202 231 253
123 218 38
86 26 15
134 2 1
77 61 9
146 68 85
25 117 134
105 152 216
162 216 116
151 110 132
113 83 247
182 245 111
108 237 200
4 128 196
93 105 106
95 173 71
48 49 53
142 207 94
231 171 160
214 132 163
213 148 194
233 171 59
151 49 84
92 241 173
69 248 162
84 121 36
1 3 94
141 159 254
255 137 57
144 141 210
228 106 13
84 154 126
137 191 20
189 248 236
48 105 5
249 13 135
170 124 137
190 92 24
158 35 240
149 81 124
86 129 100
243 128 18
105 139 101
157 169 67
218 221 125
191 51 146
96 144 123
204 9 150
247 242 24
72 81 48
105 198 114
24 198 163
140 163 158
2 46 189
167 139 97
200 98 9
248 217 160
94 179 155
193 143 90
63 231 197
226 207 219
250 63 149
197 255 104
237 113 35
191 0 20
165 113 51
210 94 130
187 210 243
147 78 198
139 206 155
113 25 200
29 122 112
75 4 140
212 53 201
54 138 27
228 179 183
65 240 249
41 111 10
124 54 127
165 200 20
184 122 9
184 50 118
111 147 223
3 87 110
210 69 222
112 123 252
252 126 7
167 182 83
191 147 16
103 53 77
26 76 47
139 151 62
70 73 226
153 53 243
45 147 237
230 205 72
244 67 66
170 26 176
238 115 115
11 224 143
180 78 17
118 135 95
160 5 147
252 128 171
233 12 137
161 139 154
98 228 170
213 49 208
233 41 193
17 47 180
216 210 236
93 185 187
252 205 183
219 115 136
150 241 165
61 22 10
234 41 211
230 148 94
139 119 154
63 29 46
18 157 99
245 82 153
183 174 70
54 213 150
188 91 128
32 198 102
135 117 21
46 106 56
97 133 211
112 144 215
251 59 167
197 65 233
150 37 189
21 242 157
223 185 77
34 226 126
146 13 246
119 153 241
119 181 220
223 16 183
172 238 160
67 234 243
207 4 115
97 0 102
219 226 29
57 82 110
150 44 22
145 178 209
82 222 237
42 43 138
125 23 78
116 234 16
193 197 215
185 48 127
28 123 77
55 63 64
174 243 100
212 98 99
208 125 254
94 91 138
41 43 71
250 248 173
124 96 22
178 71 232
172 217 58
209 9 10
88 202 121
129 9 157
47 28 251
121 24 148
207 21 103
161 107 225
117 12 111
5 150 187
219 181 148
25 101 88
234 64 201
89 71 204
239 194 42
184 176 158
163 219 27
213 203 149
71 247 205
216 186 27
10 95 99
75 210 222
241 86 46
173 220 120
146 250 145
178 216 146
48 250 144
203 234 246
137 168 112
9 131 58
94 65 145
44 78 72
248 58 59
248 219 50
103 27 177
155 229 167
98 6 233
179 252 57
232 121 143
3 48 26
142 85 100
89 141 43
36 180 170
3 123 223
243 139 40
212 162 101
7 81 93
239 73 10
2 134 164
137 167 228
130 45 154
48 136 156
1 67 161
202 67 241
54 39 85
149 199 111
32 170 152
177 62 249
55 197 140
189 55 95
56 56 97
166 168 133
93 130 168
168 236 21
18 130 79
139 153 0
58 113 123
208 58 51
130 61 233
76 42 114
78 114 105
72 1 138
241 183 253
230 55 129
167 117 9
14 204 223
178 239 192
22 125 223
103 158 223
20 151 110
14 183 7
191 189 33
205 246 221
46 164 127
228 77 238
112 144 197
155 105 194
240 190 126
100 104 93
70 154 205
111 79 203
151 34 32
125 30 185
159 100 200
147 187 110
28 191 78
101 102 76
97 125 202
118 180 251
248 126 66
154 82 90
115 50 62
111 102 238
181 75 33
46 80 100
241 223 161
98 1 63
166 122 174
54 68 135
53 76 78
53 88 94
0 173 247
203 220 216
182 151 55
143 13 62
16 124 66
240 112 23
68 54 26
78 70 24
216 55 142
189 7 151
195 136 186
64 22 235
203 103 22
99 191 103
189 87 249
246 254 180
231 42 29
203 221 31
112 38 229
3 202 153
106 193 253
232 26 221
17 32 14
144 191 239
56 97 229
185 205 201
168 221 218
232 115 81
254 204 253
160 214 128
110 175 75
32 194 146
155 170 254
29 85 222
120 191 184
144 237 144
85 0 181
137 146 153
50 107 130
156 170 80
30 14 129
233 62 192
74 124 155
187 168 201
49 137 69
25 45 139
166 246 146
169 226 125
216 197 255
120 228 61
194 233 245
11 0 100
213 55 197
11 121 48
121 133 149
35 174 89
218 114 80
98 147 53
175 89 24
113 66 234
154 44 39
100 24 253
79 31 39
104 236 112
97 137 245
243 153 207
163 239 135
191 254 47
32 60 1
106 78 175
196 115 174
140 114 81
209 250 78
163 59 104
40 3 4
106 121 57
168 151 231
168 38 76
156 24 163
94 199 156
38 43 249
88 71 57
67 68 0
101 177 139
154 159 98
174 224 156
136 108 14
144 166 147
26 62 43
40 45 180
75 104 249
248 57 137
46 220 241
197 0 11
188 59 209
139 156 200
199 117 5
202 144 12
237 90 164
0 165 92
108 221 92
66 102 206
248 170 103
94 39 96
156 23 75
176 79 221
186 41 37
135 97 171
7 215 200
74 89 68
120 192 180
195 219 47
210 48 118
68 211 225
35 160 117
135 56 210
12 77 145
10 128 146
95 42 124
214 236 80
29 176 221
3 4 156
121 225 67
112 167 69
232 150 70
161 241 16
16 57 171
6 255 213
26 79 86
169 107 61
129 87 42
170 33 191
181 0 145
131 54 219
86 231 57
117 51 172
220 34 157
157 73 7
228 22 202
75 251 193
154 216 76
128 71 146
199 141 173
78 183 232
131 143 39
58 30 177
24 194 207
101 194 123
201 109 237
129 246 37
10 190 150
113 42 173
100 163 44
44 169 190
84 80 2
58 134 22
49 8 253
233 196 167
163 158 138
200 26 110
201 204 69
98 87 68
220 18 154
198 192 248
72 25 135
168 60 14
211 13 194
205 57 118
78 85 175
87 233 246
158 75 116
73 108 58
182 76 91
221 11 22
66 162 100
10 208 212
49 189 151
83 118 148
194 65 41
239 160 251
81 161 76
112 217 183
76 17 169
209 142 196
90 149 121
119 253 112
161 205 62
113 9 17
104 109 4
203 63 34
243 176 50
84 110 212
130 18 235
121 1 87
195 14 136
123 223 75
28 120 82
50 151 253
195 173 1
2 171 188
181 225 108
227 158 103
80 213 39
25 142 91
160 129 3
175 239 253
39 218 190
6 1 155
121 237 253
158 55 79
184 131 121
71 201 90
68 102 138
57 17 54
44 177 185
192 129 177
44 92 175
53 70 119
61 209 161
7 110 82
32 175 239
101 143 0
222 57 135
115 136 163
60 94 97
157 60 110
116 118 241
170 94 30
95 200 37
6 13 87
183 232 181
80 225 231
63 8 242
96 102 106
151 95 47
76 102 42
171 50 214
165 29 37
41 136 97
229 67 196
112 102 171
37 221 93
52 46 205
145 57 125
10 57 183
112 248 212
236 250 43
74 130 255
17 190 143
192 123 139
195 168 105
192 129 105
101 163 3
69 78 15
114 40 189
154 185 184
104 78 56
49 179 98
144 230 52
69 204 165
43 187 108
79 241 21
183 22 133
193 64 232
59 36 141
24 253 242
115 29 243
215 59 99
14 239 100
249 147 101
171 150 182
99 213 78
102 235 124
97 79 54
58 35 142
254 181 159
7 148 143
155 214 191
53 20 77
5 48 108
194 47 248
50 26 41
34 97 191
156 200 224
101 152 239
220 94 111
199 212 116
251 108 151
64 52 145
238 152 35
177 59 20
229 190 119
161 31 238
129 241 34
22 65 97
16 107 177
23 174 201
52 73 113
247 44 146
210 201 67
67 249 168
11 15 101
180 69 132
84 147 228
173 114 41
221 112 95
200 41 96
61 171 158
148 94 254
136 218 43
17 161 11
162 136 173
112 186 71
109 223 251
158 196 135
253 36 239
164 151 186
72 74 107
28 139 90
37 190 240
207 237 145
148 127 225
181 138 5
197 140 183
52 44 39
62 120 215
78 32 41
33 255 102
1 125 12
212 78 146
127 78 250
80 174 196
109 31 184
49 186 24
206 210 120
70 164 126
121 96 108
226 247 247
249 215 13
154 186 128
78 32 47
66 13 97
238 26 68
121 171 44
59 179 38
78 24 112
200 17 17
92 10 109
85 95 219
59 117 231
123 62 150
77 43 95
39 45 27
253 253 71
194 251 73
15 199 167
150 231 146
164 138 203
25 81 14
252 244 62
23 234 149
129 134 114
149 129 192
226 105 101
41 201 218
187 76 124
75 226 196
206 64 141
197 120 134
27 134 86
41 209 138
216 112 183
95 90 193
108 219 224
210 43 11
221 124 253
254 5 224
47 0 199
45 194 8
196 223 133
185 241 87
47 126 121
28 251 163
157 245 20
184 197 173
65 131 157
206 178 49
226 157 152
85 14 207
147 123 155
28 252 160
169 241 37
205 186 67
48 17 211
13 192 143
47 98 218
236 0 164
191 109 165
247 132 96
33 26 50
199 28 175
157 23 23
232 133 127
29 180 142
129 30 140
79 186 176
233 158 183
213 64 43
158 22 104
207 28 69
22 78 220
75 74 156
196 107 226
175 55 109
3 230 61
216 54 117
86 60 16
64 179 156
135 152 159
8 30 141
160 164 30
229 46 135
11 31 52
159 151 234
233 230 16
171 127 99
29 250 182
115 225 5
17 42 6
67 95 73
185 129 153
30 201 107
127 250 159
194 115 107
158 30 75
24 3 21
103 27 177
44 202 207
147 206 48
124 245 119
129 30 124
142 177 120
90 223 68
46 161 78
193 62 165
93 80 155
49 137 133
197 244 202
132 107 103
3 121 213
204 46 62
173 171 203
39 125 215
206 13 133
235 201 245
230 250 248
79 121 215
208 104 27
77 105 10
23 19 7
55 24 41
194 84 9
173 128 154
220 81 200
205 78 194
133 85 252
181 106 167
231 144 28
174 137 158
107 80 131
67 90 242
113 183 56
87 250 215
45 91 95
247 1 194
91 53 220
16 158 35
238 54 217
77 90 63
246 208 46
19 119 141
65 174 49
153 201 61
161 142 135
43 102 31
211 208 224
150 0 141
141 220 223
52 144 158
210 246 161
219 3 13
138 63 157
194 20 135
180 129 232
0 38 169
139 90 237
254 134 117
139 137 54
45 224 87
61 88 53
24 182 25
33 162 114
67 187 232
15 106 64
74 99 177
185 244 62
166 53 30
76 178 54
120 0 59
69 245 141
234 200 55
28 151 100
176 85 9
5 69 6
109 34 97
130 41 8
14 5 210
120 156 175
250 136 192
70 22 188
100 166 111
197 191 193
100 152 210
184 143 237
220 49 230
53 157 224
194 206 35
33 137 77
118 0 173
148 57 103
113 55 167
62 194 192
151 249 26
205 101 146
175 47 238
65 184 73
77 243 104
249 137 149
127 176 23
253 28 239
228 73 215
77 165 208
65 13 119
71 52 140
132 130 120
33 182 130
149 224 225
80 30 215
165 18 190
62 6 81
24 61 189
182 61 166
70 227 70
13 149 101
23 205 253
81 77 135
87 36 185
134 23 81
23 215 137
118 168 131
24 22 132
80 195 250
75 152 178
21 21 70
89 69 222
136 88 74
40 223 197
226 14 181
180 72 129
42 113 167
186 140 160
163 84 163
117 216 109
224 115 227
143 11 52
255 49 14
97 38 140
230 153 131
39 240 107
16 105 99
228 24 33
81 215 164
137 128 186
179 152 196
172 126 100
195 1 93
144 145 37
247 132 217
194 43 52
146 84 144
30 224 164
194 228 191
127 16 16
2 152 141
65 254 62
189 22 108
4 134 42
76 81 100
142 70 228
74 54 113
93 63 97
133 251 102
179 204 248
107 152 68
148 58 222
243 201 135
59 37 38
238 107 99
199 180 112
129 243 58
213 27 24
55 248 214
101 71 254
63 26 255
35 99 53
203 152 100
39 93 83
16 68 155
64 172 92
58 50 190
5 239 56
96 56 167
204 110 48
181 63 230
23 94 48
71 106 76
45 151 226
253 88 23
192 164 203
111 223 226
205 39 243
193 197 12
8 117 43
235 102 99
239 9 27
144 63 143
206 201 57
250 56 175
168 51 98
255 95 172
60 11 208
233 249 39
247 8 169
53 51 33
157 214 19
3 207 169
222 17 172
36 72 170
243 129 73
201 223 42
233 49 182
206 119 129
84 36 109
7 115 121
74 185 49
78 233 14
199 149 194
209 135 226
48 157 98
47 79 238
244 253 163
109 252 5
163 128 205
207 54 210
211 76 140
232 131 235
50 43 104
22 164 75
186 5 167
85 40 16
85 10 226
173 35 141
76 88 238
230 136 118
125 215 194
95 209 120
124 133 34
20 163 32
150 134 243
203 238 15
128 83 22
230 241 236
37 74 145
244 6 51
247 233 50
173 141 199
124 236 193
73 249 169
153 19 120
139 120 191
97 170 110
148 148 237
162 247 97
42 156 154
17 150 253
162 154 11
158 163 253
99 246 9
105 246 120
74 0 135
64 132 147
248 196 190
73 138 89
164 126 168
245 122 5
35 60 232
229 3 171
56 158 251
31 105 9
23 110 178
213 172 85
157 8 157
150 147 179
141 111 112
119 245 3
233 188 178
174 86 160
149 121 149
249 120 93
55 178 63
199 243 4
200 181 70
189 207 135
72 87 250
247 4 254
156 45 242
61 152 187
153 75 175
157 119 100
166 161 251
103 130 213
174 139 24
56 6 14
214 178 37
14 230 14
133 128 103
221 215 177
8 152 232
40 233 211
240 57 248
227 2 174
200 78 107
124 182 189
21 184 236
73 41 21
38 11 113
97 152 149
46 156 231
114 19 177
174 145 122
50 181 37
7 24 135
155 6 191
24 158 42
134 138 123
172 189 123
73 200 53
209 244 115
89 81 141
162 208 135
232 103 31
141 180 105
193 240 31
216 13 36
226 245 89
45 96 242
192 209 129
72 201 155
238 157 90
254 95 41
161 72 222
22 60 77
234 222 114
176 89 21
233 83 107
139 219 62
41 33 111
42 85 117
27 104 224
186 186 162
184 19 59
124 80 2
16 122 142
80 57 182
87 101 15
224 3 204
96 70 114
126 53 134
94 20 10
247 96 54
226 41 187
32 231 208
71 32 227
207 222 238
238 227 165
168 175 42
230 29 53
211 219 8
17 253 134
47 80 33
81 76 200
231 77 122
24 24 151
85 203 175
204 40 168
190 19 94
16 110 115
129 224 159
143 110 225
249 89 12
185 4 136
82 164 64
202 191 1
172 203 64
189 128 217
73 67 157
194 65 53
164 26 50
162 185 135
168 5 54
164 105 240
46 241 102
254 4 21
238 240 78
199 231 250
139 170 91
109 88 159
126 158 5
221 223 4
209 83 36
8 222 19
183 2 194
172 118 237
221 64 230
246 143 244
70 111 125
9 30 205
90 249 237
97 135 226
147 4 71
72 212 199
108 64 215
105 145 86
147 40 93
238 50 6
131 47 62
99 210 124
4 221 8
22 160 238
29 139 63
8 135 167
113 123 230
225 155 251
148 221 237
156 190 5
174 162 125
73 148 169
182 201 205
171 96 84
158 221 42
164 206 47
64 217 192
151 197 192
61 14 70
61 107 219
94 52 11
146 187 128
99 88 250
75 62 213
204 135 40
222 111 250
94 30 77
213 234 164
184 120 17
62 247 223
244 183 119
94 158 84
219 252 98
212 144 234
26 255 122
110 182 171
57 133 27
129 75 15
41 233 48
99 24 134
241 113 63
7 13 231
64 252 185
194 78 19
44 221 57
141 65 147
244 41 174
252 104 60
154 197 160
118 86 48
57 19 131
30 189 62
157 3 67
48 70 41
253 206 241
75 237 5
11 251 60
128 221 64
20 75 239
187 235 200
35 151 3
254 216 120
146 251 17
48 214 157
137 154 11
199 44 0
160 176 155
81 36 34
122 151 150
252 47 186
205 220 125
115 34 83
202 42 141
70 71 56
98 113 197
126 95 118
102 239 130
113 113 90
6 123 70
211 139 84
101 60 255
147 203 116
118 163 1
134 1 178
129 87 152
157 133 77
215 175 73
194 174 20
179 79 175
105 245 183
110 125 91
88 99 231
177 152 73
211 71 227
75 23 180
152 194 128
2 245 64
52 186 49
125 30 208
219 53 29
178 62 197
244 82 246
43 143 74
188 187 13
92 197 57
126 125 194
248 240 47
170 227 192
87 107 211
51 80 113
68 184 112
43 116 232
150 108 216
24 114 16
88 3 145
248 12 237
185 150 162
77 158 169
7 45 112
58 124 156
145 93 102
138 28 128
139 254 124
126 205 227
130 231 71
164 198 191
177 43 220
186 70 218
60 120 96
189 76 161
25 122 68
173 91 160
103 117 15
158 106 197
143 235 52
198 206 61
44 198 17
50 133 210
171 179 65
250 47 59
8 40 172
149 119 6
5 95 221
124 242 190
4 29 140
29 173 197
65 98 22
134 219 220
175 77 47
14 64 234
237 73 129
124 88 211
35 158 32
251 101 7
193 165 67
69 35 25
231 107 203
87 253 177
244 18 141
62 109 105
179 222 186
189 207 112
132 197 216
203 12 245
64 33 173
23 205 83
160 103 195
210 47 137
36 135 97
42 118 149
0 52 17
146 78 103
174 43 111
85 114 140
90 72 18
195 64 97
182 237 167
78 111 255
233 22 248
255 60 213
132 255 0
197 12 51
161 211 174
58 145 132
123 145 249
50 216 246
117 230 25
246 253 41
169 40 214
104 147 125
120 6 41
134 190 37
0 20 62
231 71 249
42 44 226
187 107 61
89 123 36
188 145 214
87 145 14
224 37 249
42 94 159
131 110 54
226 215 174
45 48 84
79 112 243
20 168 38
114 198 233
27 38 176
105 160 109
137 81 104
86 242 163
46 111 163
151 116 1
82 141 178
96 63 34
153 245 172
25 146 186
93 28 241
117 135 10
4 117 64
137 62 221
178 254 25
189 216 24
35 110 142
74 195 37
212 108 155
2 30 181
249 39 165
6 112 219
161 185 44
50 137 162
169 251 46
47 144 29
223 174 177
42 119 154
139 176 217
236 247 87
230 13 194
115 166 225
121 13 37
17 160 138
10 121 127
217 226 170
6 145 21
246 127 62
221 206 233
40 74 49
183 245 29
30 94 59
92 48 52
8 10 85
195 195 37
57 223 96
8 136 167
32 111 54
10 194 223
7 193 14
156 46 231
65 93 71
126 137 186
94 136 216
29 75 51
216 95 214
163 172 87
230 35 242
222 38 66
101 188 145
239 55 163
148 162 110
38 87 222
99 8 101
211 67 15
185 2 229
209 203 150
122 124 241
96 220 200
171 219 209
178 68 18
230 9 205
185 29 210
153 48 132
113 30 158
201 249 165
230 86 43
61 77 78
92 54 254
54 203 185
238 192 238
247 176 129
195 170 216
100 146 6
219 182 220
68 222 43
70 78 230
236 219 231
185 132 127
99 73 187
198 44 65
24 223 85
54 202 153
239 124 20
162 95 209
71 201 219
115 37 72
200 151 72
145 121 118
96 178 30
8 89 5
122 74 131
197 177 243
129 215 60
155 95 175
193 10 164
172 164 219
48 124 92
35 75 134
203 255 208
134 122 26
176 47 20
101 12 2
116 171 57
65 100 125
167 79 159
109 160 94
204 102 59
39 54 162
104 19 109
46 55 86
170 156 5
148 58 90
187 75 140
144 105 45
110 139 22
35 61 186
203 227 249
12 24 96
32 191 108
189 205 104
43 252 35
140 118 252
95 166 7
197 225 71
225 107 160
166 150 108
237 186 114
69 76 184
84 103 243
101 147 57
78 92 149
67 54 86
229 236 86
234 79 29
96 175 78
177 241 36
241 14 254
230 192 179
118 165 242
49 227 89
173 117 228
105 223 134
238 251 55
76 161 60
128 69 48
163 81 254
141 56 55
249 27 203
169 209 51
91 182 207
32 103 249
171 228 116
219 94 28
173 185 8
19 113 22
57 128 131
27 196 187
132 210 164
174 73 29
182 188 235
153 123 3
164 129 111
5 149 127
245 202 97
254 200 121
248 228 134
35 13 84
217 254 109
39 210 209
187 243 68
170 231 119
42 81 200
142 177 151
106 9 78
61 160 219
91 90 41
172 203 78
209 78 180
238 164 199
175 99 105
52 62 232
199 242 176
190 100 80
209 162 251
170 180 225
34 46 150
240 253 217
159 88 41
192 150 122
62 123 12
132 120 246
54 247 7
78 106 239
70 15 171
225 197 254
175 147 66
195 105 61
46 70 31
141 162 158
173 136 186
25 152 189
86 58 249
185 38 224
215 54 201
24 55 113
110 220 237
242 2 222
67 157 89
80 129 171
104 207 25
89 255 241
180 106 204
15 116 132
96 83 148
196 242 248
152 61 226
138 164 147
112 184 20
149 86 38
141 237 236
169 124 14
99 167 112
209 253 217
237 139 207
84 59 56
110 149 246
245 161 90
60 21 155
215 226 169
125 95 175
30 247 4
136 76 165
68 156 221
105 239 13
134 174 104
76 15 156
226 252 183
244 182 183
8 246 41
33 166 36
121 207 58
82 123 187
86 28 102
54 230 31
52 245 97
33 119 197
199 195 239
233 47 191
88 223 31
52 211 85
246 174 178
38 2 239
167 244 11
132 220 252
7 44 222
201 175 252
215 93 82
14 193 43
233 224 198
179 60 43
11 58 115
52 74 88
237 186 92
81 117 28
240 195 200
50 175 78
40 28 233
108 142 146
187 24 173
164 177 85
214 185 228
105 26 23
120 4 142
136 159 172
205 43 10
11 186 110
252 197 144
36 80 215
27 93 30
63 170 140
105 27 158
192 154 104
232 115 136
161 29 74
133 173 161
81 45 172
101 60 10
169 43 213
9 173 7
91 159 98
134 11 227
215 107 178
143 199 223
246 121 165
203 207 146
189 189 86
215 52 220
37 90 35
150 36 175
76 30 74
70 179 45
214 169 202
189 52 132
103 48 84
26 171 162
100 141 142
198 5 247
78 33 137
135 228 8
112 235 208
48 243 53
19 146 11
20 145 10
36 202 122
165 204 177
104 121 156
146 214 44
133 99 69
110 48 135
114 193 191
215 87 142
37 245 175
232 230 146
135 230 31
205 213 144
77 124 179
50 255 174
107 59 33
244 80 231
238 60 181
188 9 159
26 160 191
56 60 172
89 194 142
9 225 109
111 104 164
130 229 32
99 207 166
152 25 218
168 159 168
39 230 50
184 116 116
226 109 12
135 44 36
241 147 184
29 79 14
1 78 8
142 252 76
64 57 175
230 193 25
17 79 122
141 108 51
9 149 202
173 243 255
97 129 109
238 94 3
26 192 219
54 239 113
150 161 212
117 16 140
249 132 59
166 60 114
48 12 28
157 222 123
85 51 197
103 12 15
127 182 177
47 239 88
157 105 135
192 45 78
149 226 176
63 178 243
35 23 78
56 86 193
18 166 165
119 27 113
98 79 147
142 207 107
171 26 69
59 173 37
195 162 6
10 207 133
132 4 247
185 31 152
88 177 113
78 200 7
11 200 33
10 112 227
249 127 212
210 230 200
120 150 131
86 194 39
3 16 220
2 179 57
164 103 255
238 137 92
153 28 172
212 184 225
10 23 52
134 124 170
167 233 143
212 109 64
245 122 83
176 178 125
249 197 26
239 100 39
251 159 78
180 203 164
24 41 195
9 248 96
57 22 159
128 195 239
61 125 184
107 84 201
194 120 165
177 35 85
169 42 186
1 78 28
82 150 15
115 210 217
93 67 152
255 114 81
26 131 254
32 114 141
244 181 95
142 245 76
251 128 152
201 72 146
46 7 133
214 158 50
252 114 62
158 203 229
82 39 66
100 77 40
93 221 253
41 17 56
122 211 108
216 26 143
135 110 206
129 224 160
173 173 181
128 82 74
136 87 184
233 177 146
237 59 36
34 172 195
126 101 59
117 43 89
132 143 95
56 154 62
30 98 98
20 199 152
117 174 167
150 69 18
192 17 251
110 148 146
194 26 192
22 136 121
70 130 238
213 217 52
115 93 198
98 85 164
20 97 79
202 60 181
171 177 187
155 198 17
201 196 112
136 3 111
109 46 172
164 220 80
43 128 166
17 229 179
176 128 136
233 10 64
53 118 54
153 198 79
69 214 57
136 181 27
180 171 106
6 83 71
128 111 150
8 23 220
240 245 187
112 112 156
242 181 106
138 95 109
233 24 27
120 5 15
2 98 17
228 184 148
174 131 253
40 113 179
65 92 250
33 144 169
59 242 253
36 52 208
205 80 120
119 181 173
168 89 222
197 105 216
231 37 27
26 98 4
74 7 110
87 74 84
20 127 131
75 60 44
155 178 213
9 22 68
183 226 214
36 124 80
64 42 42
215 34 224
198 58 92
215 197 170
182 85 18
85 86 132
6 44 12
132 95 57
92 154 228
227 165 40
183 156 242
114 201 67
170 35 152
101 25 65
91 64 132
106 38 89
102 191 26
121 193 208
159 244 29
16 76 33
164 173 161
87 113 21
100 59 194
122 127 44
27 74 81
198 22 57
29 8 43
0 53 196
73 68 143
214 167 134
139 147 77
170 245 157
200 3 19
32 160 209
76 23 23
29 115 240
101 253 47
42 233 221
223 138 6
93 124 174
247 185 81
82 204 108
4 107 55
188 237 190
18 15 29
55 65 205
130 251 13
188 14 88
216 221 224
0 168 110
72 83 71
137 195 63
177 57 163
196 230 80
149 102 41
145 109 131
229 227 35
99 152 64
138 255 97
222 10 125
46 28 14
18 77 32
47 90 62
198 177 10
5 104 29
17 81 161
135 42 93
196 83 83
178 112 64
72 81 123
137 56 34
188 56 155
239 154 53
156 7 235
26 39 77
182 183 79
218 26 169
57 157 14
195 50 79
154 104 124
87 123 243
241 129 173
154 16 76
88 66 86
194 25 207
60 94 78
82 235 143
255 189 131
27 204 58
63 229 145
184 103 196
186 132 248
23 87 170
221 52 228
24 99 46
17 34 198
198 230 36
246 229 154
146 98 154
95 208 29
188 243 149
105 180 223
200 233 13
144 10 147
239 205 68
57 78 173
66 117 91
123 100 99
196 193 76
210 4 233
4 246 201
248 81 145
79 81 149
69 244 64
237 98 233
4 194 141
15 93 175
241 236 161
162 49 48
253 55 125
158 67 244
55 91 57
16 198 93
97 207 30
115 99 90
16 175 232
208 83 119
105 162 233
204 121 243
251 225 182
57 238 197
68 224 130
67 138 126
243 194 165
91 177 174
28 243 170
219 24 91
32 26 44
66 74 131
167 82 172
15 241 244
120 200 154
38 211 112
220 95 207
158 150 209
46 59 201
138 17 200
136 94 133
37 92 164
25 65 20
156 185 158
131 255 144
192 36 15
147 133 224
176 59 214
195 224 99
122 104 72
188 144 8
40 25 222
167 148 159
150 130 118
15 139 177
110 136 93
192 76 193
114 140 189
248 234 115
45 39 207
33 90 68
151 151 8
76 127 26
19 102 235
67 51 79
201 30 130
192 44 178
229 125 113
148 31 79
206 56 96
131 212 208
124 110 243
15 123 53
178 141 31
26 46 71
17 22 60
190 59 160
104 92 76
43 114 55
226 217 196
133 102 59
213 100 245
80 19 5
147 111 171
201 143 131
203 58 239
104 63 203
170 250 162
238 187 35
162 168 163
97 220 53
186 227 10
29 75 215
15 147 187
219 152 213
225 190 123
95 139 223
57 215 228
198 69 216
102 172 228
23 45 199
60 129 220
193 5 105
56 79 208
92 52 193
184 222 218
13 27 76
145 20 27
211 167 216
236 217 235
209 94 146
215 54 0
200 133 150
240 171 80
208 229 34
20 190 143
172 183 29
171 251 116
184 131 221
150 172 198
76 38 19
25 183 187
11 66 116
137 238 83
104 225 152
108 135 239
166 217 87
224 160 65
234 92 82
74 35 166
172 210 102
175 199 239
65 4 239
132 98 227
237 249 121
255 42 253
174 211 27
161 220 122
121 180 27
114 230 158
26 253 31
144 36 140
72 161 61
53 194 40
219 83 139
160 254 49
105 113 185
184 185 132
15 64 33
176 106 3
233 223 68
36 69 102
138 191 155
238 25 96
87 26 76
1 196 61
27 29 228
121 209 107
184 227 156
248 183 159
104 118 3
160 193 203
137 194 56
160 151 255
111 201 53
108 199 116
49 117 144
128 220 153
56 156 234
58 133 90
34 47 74
203 79 234
206 102 116
7 16 77
86 153 86
64 137 226
31 62 87
177 169 150
70 143 133
137 26 188
204 234 1
190 102 80
224 13 43
227 0 168
57 250 215
18 28 22
58 124 166
106 87 101
164 232 8
105 147 133
119 43 137
205 102 28
98 198 70
15 228 252
76 9 22
163 241 11
216 191 0
238 64 92
76 116 145
146 9 13
157 225 65
51 11 100
172 70 49
134 25 139
255 253 200
107 52 83
185 6 0
11 4 79
17 13 29
185 53 63
8 141 79
226 171 81
241 206 132
229 244 9
94 175 212
61 140 52
95 94 188
61 133 203
101 78 131
158 18 60
54 34 111
182 224 71
215 116 201
218 46 175
139 142 139
250 250 78
105 177 91
101 1 137
9 8 56
52 26 155
70 93 33
151 155 97
62 241 192
172 43 52
72 103 142
238 214 121
227 224 143
170 132 124
174 109 143
184 211 183
156 229 92
148 172 201
90 15 188
229 196 171
166 99 245
12 77 185
184 44 237
180 165 37
47 30 150
133 251 125
164 127 81
32 51 46
101 21 53
155 239 162
104 160 9
57 220 39
204 209 110
111 37 39
57 111 23
4 159 238
135 205 154
68 162 58
83 223 99
141 182 140
236 31 239
183 123 90
159 135 30
219 251 22
93 180 77
18 208 222
166 219 95
41 233 173
245 64 107
168 62 230
82 121 114
143 158 65
157 106 35
134 201 169
122 30 214
255 243 36
204 235 206
6 102 250
1 64 155
94 194 205
214 148 1
204 115 199
18 226 77
50 42 230
88 198 161
216 166 106
78 60 58
19 166 29
96 12 50
243 21 170
140 88 73
177 41 132
36 251 51
126 131 126
206 101 184
79 184 170
98 175 90
116 243 202
27 152 193
173 109 253
49 245 206
114 51 59
163 105 207
194 12 168
77 145 108
67 156 205
100 219 181
157 60 3
33 13 239
237 20 128
172 237 125
143 179 168
175 26 28
124 182 173
27 95 61
3 233 90
149 115 6
63 212 60
197 72 119
27 232 94
93 7 208
47 216 69
118 34 23
17 251 141
6 54 9
245 170 195
65 101 155
156 131 240
126 33 217
18 227 162
211 157 244
254 204 140
75 155 48
250 187 92
19 243 27
159 34 30
55 20 21
222 218 181
85 102 223
88 63 81
114 164 191
121 254 26
35 55 8
107 0 22
178 174 237
46 33 214
166 109 153
167 114 110
89 185 119
114 93 209
236 252 238
127 132 87
65 109 54
191 208 249
223 164 64
48 99 163
176 155 234
174 192 40
14 196 205
158 112 62
12 189 176
4 32 138
239 235 116
16 59 217
54 149 97
212 248 6
240 45 114
72 2 79
236 151 120
175 141 177
13 213 82
111 131 43
187 57 100
38 77 210
137 148 228
109 80 244
18 39 109
119 149 86
88 118 178
154 70 17
52 70 144
158 251 77
21 162 183
105 251 118
5 48 217
213 232 189
138 38 66
108 60 91
179 154 149
99 235 238
36 96 14
118 194 242
217 21 169
204 145 154
35 116 255
173 205 87
57 173 28
12 42 5
47 17 136
201 153 150
17 244 27
72 175 149
16 107 54
127 18 134
105 16 83
151 33 46
248 145 95
166 167 244
36 80 174
108 111 39
21 84 91
111 72 210
127 85 219
224 30 175
122 126 231
122 111 222
132 227 92
181 250 0
45 97 190
239 87 174
138 23 96
18 121 217
75 71 40
185 221 29
41 221 175
98 190 79
129 6 216
127 206 234
149 74 143
3 88 57
214 213 230
152 47 174
138 139 88
52 149 195
38 131 161
112 217 32
210 50 0
46 193 155
226 90 65
116 187 158
107 167 79
185 97 82
206 234 111
114 225 171
3 217 139
41 52 183
45 244 93
225 204 215
18 188 36
61 117 166
184 164 11
161 156 94
142 187 72
98 193 222
103 208 88
249 83 107
191 108 128
252 30 14
33 145 37
81 241 180
96 130 74
122 60 4
44 147 76
185 211 139
39 238 69
126 235 167
141 24 91
136 227 208
181 104 14
146 194 246
65 229 98
243 120 252
242 6 84
11 14 7
14 87 174
189 114 215
135 54 136
88 68 112
49 183 130
211 216 117
234 148 1
75 231 7
144 251 231
142 251 226
189 164 74
170 115 232
50 79 4
121 47 91
130 77 184
164 128 209
46 36 192
96 249 120
169 76 150
21 233 223
86 212 224
124 91 174
69 26 125
50 35 124
232 66 55
13 108 137
80 94 231
211 194 218
179 248 23
216 105 124
116 125 161
236 200 87
195 155 161
235 8 16
22 181 205
148 171 175
81 187 38
100 145 93
120 251 150
168 36 143
163 138 184
232 86 244
247 207 115
231 20 232
51 142 215
120 1 42
45 28 96
94 113 209
234 130 192
0 88 4
81 25 159
20 167 61
92 222 17
129 105 69
160 51 132
0 211 86
184 120 202
54 228 97
56 41 252
92 114 204
152 196 218
4 136 18
61 199 200
207 223 11
132 2 247
75 251 196
59 165 112
116 142 145
184 154 183
27 134 50
127 46 78
85 162 180
120 161 189
242 34 19
228 150 25
187 15 152
237 154 48
193 100 145
72 81 230
178 195 242
186 240 139
216 166 62
234 249 22
6 140 249
90 44 130
98 177 4
192 17 185
246 2 157
184 187 55
139 199 50
192 67 97
201 16 26
240 110 34
55 90 237
174 64 6
61 253 243
24 97 81
238 180 133
139 226 123
16 78 222
168 107 204
111 148 99
2 183 141
245 39 81
255 82 166
219 204 168
243 26 59
214 242 108
92 83 33
147 209 12
29 255 23
78 234 93
203 155 226
101 118 47
74 15 78
83 196 148
189 23 253
104 111 171
78 153 28
237 252 9
28 189 50
160 244 98
244 68 253
203 90 200
104 197 48
197 108 138
38 221 196
40 175 177
39 171 69
111 150 24
249 13 11
27 242 176
175 242 244
7 213 5
241 4 176
159 184 246
217 204 127
144 166 176
213 122 43
64 250 5
56 151 72
201 210 246
123 18 105
131 200 77
8 62 220
219 234 127
121 253 227
124 113 51
100 194 136
186 194 9
192 35 81
158 72 62
40 52 143
58 21 137
120 138 28
102 124 216
97 156 187
83 9 102
94 184 11
108 62 128
10 29 48
178 249 18
72 215 99
244 243 210
224 43 151
236 194 96
97 232 123
240 230 52
37 37 123
60 7 238
190 181 93
74 179 66
31 248 223
73 137 212
15 164 97
202 110 156
252 254 96
209 166 47
97 146 112
35 247 75
97 4 160
17 21 134
17 105 181
188 186 252
10 72 93
17 37 222
150 64 235
17 105 7
32 55 91
29 12 252
43 51 75
173 49 176
51 156 136
91 187 35
125 180 99
150 162 59
91 223 106
121 6 57
138 151 17
160 72 25
201 219 156
125 210 249
235 41 83
116 222 179
232 51 93
77 3 175
64 13 137
99 16 223
86 115 214
166 47 55
189 40 119
89 36 186
166 143 86
243 17 114
197 45 112
252 8 121
73 211 246
49 243 172
202 129 132
12 127 198
224 30 139
95 117 212
80 79 220
240 181 87
146 29 202
76 169 235
173 178 56
252 93 218
77 80 46
175 211 102
13 52 140
212 52 66
49 10 167
78 197 163
120 112 148
234 153 242
219 129 22
34 177 18
106 18 46
194 239 105
43 253 89
103 153 200
66 97 149
141 248 178
55 193 177
107 225 126
24 114 44
148 112 124
71 224 228
117 170 158
105 26 115
159 17 106
245 116 135
163 116 234
132 124 46
78 79 49
26 144 224
226 159 209
174 186 15
179 196 80
86 96 96
6 106 48
239 162 11
38 53 75
54 130 249
243 101 79
221 38 141
96 151 126
113 189 10
235 56 172
142 209 2
89 231 58
121 52 0
220 185 16
122 53 82
17 139 234
131 0 12
58 64 51
135 28 125
68 158 122
70 37 154
187 74 225
211 222 220
111 238 75
41 190 169
114 8 155
117 73 128
209 184 147
242 35 146
148 193 127
33 106 168
143 174 58
64 217 2
20 61 30
191 193 202
160 54 37
121 92 226
78 103 96
68 204 12
64 128 209
176 96 219
145 192 95
165 240 7
41 110 194
101 242 224
165 63 92
18 124 111
74 202 41
23 109 1
189 186 15
226 143 68
131 158 94
176 118 209
42 33 128
243 138 170
4 213 179
115 125 46
18 198 103
62 201 150
161 50 210
50 186 106
162 112 138
88 28 226
173 145 167
100 178 21
163 222 193
236 157 57
125 126 105
17 89 238
182 122 225
95 60 248
47 169 121
25 138 94
198 138 126
136 223 10
185 50 131
207 95 205
210 7 184
183 23 195
5 37 220
244 186 43
199 158 199
98 247 148
140 54 231
101 191 159
180 131 12
185 206 180
230 225 158
194 197 42
49 139 131
19 79 13
121 159 82
87 121 34
55 19 38
45 6 195
11 176 107
194 100 75
125 126 233
57 132 90
107 242 100
61 197 167
151 183 187
220 40 122
110 148 251
130 16 75
239 144 74
90 243 0
90 123 117
166 80 237
237 176 96
247 220 86
121 225 178
72 210 188
140 11 71
187 75 194
34 140 2
121 234 216
32 203 118
62 30 98
0 66 145
78 20 192
205 71 112
17 124 181
1 228 93
34 188 98
234 176 121
62 124 183
43 156 116
63 130 30
23 235 114
170 168 114
203 43 180
51 228 190
185 83 184
11 219 43
230 59 109
141 80 144
102 148 114
129 242 134
212 232 1
213 201 187
117 118 29
42 214 248
227 149 205
157 149 80
78 139 16
102 89 86
27 111 161
244 167 220
91 105 129
91 155 65
245 253 228
240 174 155
44 47 35
244 160 233
229 116 59
224 144 57
194 230 147
227 166 75
204 16 109
144 58 228
239 173 27
212 42 240
189 240 167
255 77 166
42 163 246
7 233 8
131 193 230
66 233 14
132 30 59
246 180 33
169 19 3
97 130 209
125 139 21
4 196 185
72 12 7
231 19 20
131 52 56
28 81 69
17 171 49
206 94 243
115 246 207
5 118 222
99 48 207
75 181 173
51 189 192
51 211 133
109 10 151
131 98 199
249 196 0
6 239 82
147 54 0
53 135 248
179 242 146
126 40 84
241 175 13
58 181 40
242 57 210
134 249 151
61 14 47
13 85 31
93 170 85
233 245 71
238 179 43
233 80 60
31 214 184
153 24 216
44 89 34
19 191 247
249 150 246
152 174 176
15 177 197
239 19 210
32 65 16
254 45 125
134 62 194
109 120 152
9 230 102
132 79 2
66 13 147
133 136 105
54 206 77
185 191 68
55 30 117
43 172 52
15 201 27
9 154 13
73 247 101
239 9 185
50 106 75
91 133 249
188 203 81
188 151 135
203 230 8
63 92 185
241 123 88
192 157 200
90 160 190
41 82 227
186 67 56
20 21 26
137 176 126
227 71 194
92 194 28
118 167 188
232 138 90
179 9 121
33 145 118
3 79 217
192 52 146
226 239 221
29 44 127
141 34 40
86 232 160
162 136 9
107 226 176
133 33 87
75 73 161
55 98 207
36 205 132
14 237 223
164 82 84
74 67 219
13 47 50
215 201 184
90 130 86
217 139 85
55 168 244
154 116 32
153 93 193
58 198 143
166 144 183
100 39 45
154 82 197
212 54 193
89 32 71
59 102 107
131 115 75
166 231 8
132 66 127
223 12 42
245 107 99
69 178 248
244 246 220
179 228 212
90 249 141
18 82 199
198 47 120
102 23 169
229 213 50
65 98 89
36 123 189
151 3 204
200 155 1
185 240 2
206 4 252
95 211 21
137 208 24
71 194 180
72 134 46
124 87 232
109 201 137
93 21 144
136 71 248
173 193 51
158 180 148
216 4 53
206 191 214
247 105 239
73 199 254
224 207 215
74 102 233
53 94 1
44 17 29
6 15 31
83 57 48
116 112 115
19 35 101
127 243 101
151 124 182
152 216 242
212 159 164
214 188 149
238 36 2
202 232 112
10 94 170
131 189 159
76 126 230
142 35 35
46 218 12
159 203 30
76 245 184
64 122 68
63 164 165
135 75 114
227 216 100
104 56 98
109 225 173
131 226 97
144 167 86
66 163 90
147 53 255
83 2 106
230 17 223
241 112 66
90 9 201
134 194 240
212 18 44
222 178 218
171 133 251
57 16 35
200 29 88
128 127 93
140 99 71
66 80 140
156 237 242
199 246 83
14 143 123
72 106 178
19 121 106
249 95 233
191 246 92
46 247 156
53 220 107
191 233 222
60 215 14
206 147 106
180 134 122
10 124 12
160 11 201
162 162 68
134 249 159
78 196 180
87 143 212
194 37 148
164 107 141
137 252 101
87 78 91
184 40 144
45 29 50
40 74 230
182 99 149
225 90 143
99 213 166
103 88 136
0 213 75
72 169 192
56 234 220
192 94 93
69 121 209
53 93 238
170 73 215
18 104 187
43 44 77
10 144 83
187 186 119
252 48 241
94 23 93
217 68 122
190 69 165
89 233 121
207 13 226
16 224 198
21 214 82
103 152 138
240 31 105
194 2 153
126 17 226
5 189 8
179 188 113
206 195 67
9 60 144
51 106 198
113 119 2
80 215 177
223 227 149
63 174 80
117 152 106
71 64 216
207 187 2
18 226 62
198 68 139
233 51 209
138 57 22
6 32 11
39 144 148
130 115 225
37 123 232
84 215 96
250 128 70
98 152 136
131 122 75
215 228 96
216 40 43
22 123 216
157 139 39
0 252 161
4 252 98
117 225 4
84 83 49
61 57 103
101 51 221
152 247 6
13 209 233
141 2 101
229 70 91
11 241 45
248 128 134
156 208 75
120 38 133
250 241 197
98 78 182
49 71 200
54 123 146
26 196 211
14 110 79
68 242 179
200 249 136
87 213 161
76 151 232
100 165 241
75 99 183
210 139 110
75 161 56
118 106 114
145 169 195
149 251 156
40 186 186
47 31 56
181 179 227
23 201 26
111 148 111
196 202 51
230 40 59
221 173 97
161 194 45
44 158 245
195 81 232
125 82 252
63 109 210
102 28 122
207 255 174
112 174 204
231 47 52
97 100 157
242 13 53
145 211 27
54 49 108
255 20 204
143 156 181
125 128 194
23 187 159
149 157 146
190 197 94
168 72 172
247 64 146
121 44 161
156 8 160
101 67 96
49 34 200
238 212 113
105 115 143
112 23 83
207 111 164
81 113 57
146 118 173
201 246 204
247 114 167
174 76 166
132 10 193
155 170 47
78 152 100
232 206 86
205 59 223
160 232 69
131 65 177
186 47 7
118 11 135
154 4 46
108 197 38
146 20 94
69 186 252
104 198 99
147 172 145
217 208 140
58 138 195
229 108 199
103 60 251
77 149 132
120 85 173
191 107 86
211 116 122
234 187 102
131 128 174
155 44 18
81 225 13
22 234 128
203 70 158
138 205 245
77 251 158
9 133 128
138 242 203
100 64 54
115 199 248
116 183 242
245 18 220
103 156 102
150 12 129
195 2 55
242 87 196
126 93 34
112 15 201
25 198 22
209 18 255
160 59 63
135 193 19
235 80 181
58 52 139
79 44 195
132 6 138
1 5 67
137 156 10
215 196 161
45 56 120
177 161 41
54 219 113
202 122 224
223 205 94
241 198 251
230 56 107
31 42 238
183 202 44
198 36 250
208 53 96
105 33 244
7 43 78
246 44 253
51 107 229
126 65 233
197 208 112
56 107 16
128 57 209
77 255 249
233 175 11
86 87 164
196 51 228
152 97 84
3 169 107
85 168 82
22 131 184
122 33 160
236 149 31
183 122 13
111 110 41
44 163 124
86 67 29
73 196 69
49 147 42
65 81 164
38 1 157
11 201 71
92 30 180
7 143 124
163 218 48
34 217 142
67 60 134
155 48 71
166 171 228
232 14 115
76 23 128
92 169 170
146 182 117
238 150 172
123 144 164
143 254 89
165 153 73
196 218 166
201 219 69
124 75 7
29 223 204
0 9 41
203 136 73
45 93 147
137 45 219
166 5 196
167 35 152
223 158 86
27 142 184
146 253 231
42 152 40
33 18 119
164 216 99
189 241 76
135 52 20
23 151 158
208 95 23
247 254 64
53 229 51
217 210 198
192 162 17
16 37 214
180 91 193
209 214 196
172 198 249
51 21 186
4 146 61
33 5 207
240 227 160
152 64 135
3 3 35
7 88 137
71 115 180
118 116 207
195 84 197
130 134 238
216 111 255
184 129 205
88 109 66
240 47 34
241 100 172
26 99 251
188 36 73
21 156 77
102 161 57
8 1 50
241 49 73
251 113 36
4 123 103
59 212 236
147 193 61
155 224 17
25 159 195
158 120 151
68 178 24
106 200 34
208 178 106
42 107 97
53 177 112
128 102 106
248 63 147
208 18 4
198 200 173
94 72 211
96 45 104
231 212 118
95 234 243
206 75 159
29 177 33
252 7 182
113 112 101
26 235 204
52 201 235
79 222 25
113 0 74
91 39 221
76 89 112
224 1 180
10 4 104
186 159 222
7 192 27
97 138 165
187 187 107
162 132 134
108 227 127
181 36 228
87 135 240
108 232 52
136 121 42
147 188 14
244 186 93
234 220 58
213 55 206
114 164 218
227 21 241
59 141 203
237 180 232
132 52 65
233 141 87
221 123 89
187 53 21
240 141 50
117 47 189
229 53 180
83 226 250
163 125 184
104 77 189
211 124 92
120 49 81
162 212 52
68 234 151
247 218 207
131 186 245
13 29 148
212 1 239
184 21 138
0 163 159
253 47 158
247 245 243
185 110 56
108 241 52
173 241 27
86 45 96
182 58 158
211 99 235
138 88 134
43 110 31
153 193 205
88 239 237
56 2 58
254 199 107
253 210 107
198 5 8
239 60 154
40 254 56
126 137 242
151 185 215
241 47 193
156 112 212
238 174 146
175 125 134
184 154 216
214 14 86
191 77 237
211 170 218
99 41 131
129 88 187
26 252 63
219 121 36
1 248 254
21 207 36
120 231 209
101 123 93
171 141 78
68 87 148
150 148 37
73 93 146
242 53 146
224 109 171
221 114 79
87 47 95
75 41 162
214 126 28
71 196 163
203 191 13
146 200 132
59 219 85
4 104 69
39 181 75
100 218 55
149 17 249
205 106 94
85 98 181
91 216 177
229 73 216
159 8 95
124 229 138
141 236 241
0 125 183
24 156 12
32 246 168
22 231 207
166 110 27
146 154 150
71 228 185
164 167 5
105 224 59
0 232 75
68 82 49
152 44 243
100 209 242
33 245 195
16 39 222
36 59 7
140 153 143
25 174 67
87 244 93
172 104 24
31 68 170
103 233 205
53 234 223
54 240 220
218 185 129
41 125 32
78 145 113
91 168 89
136 106 169
28 6 94
145 255 126
98 199 250
68 84 28
55 188 175
145 68 139
114 159 60
220 23 79
250 164 89
144 163 218
242 111 34
13 141 56
45 164 61
181 160 131
114 129 196
51 139 148
111 95 175
223 75 188
52 241 42
134 38 136
157 157 247
35 59 136
19 213 238
125 252 195
192 123 247
247 12 77
115 221 23
90 150 247
253 54 180
40 135 157
253 75 239
153 219 11
206 163 209
118 234 250
137 183 62
138 232 179
167 62 19
95 9 139
132 244 122
90 240 200
253 37 57
134 142 148
108 92 206
28 211 127
49 176 110
53 225 235
201 124 61
187 212 192
125 82 133
247 214 31
28 61 53
174 101 143
140 41 57
7 104 236
171 39 100
31 215 152
139 160 18
91 147 9
56 140 252
57 88 77
8 248 164
167 241 208
215 246 164
190 235 122
239 118 219
154 197 101
175 231 34
201 104 133
94 132 8
236 44 200
19 163 217
57 108 65
230 231 137
15 122 119
138 240 35
141 3 85
38 37 254
5 77 16
129 218 99
163 22 188
251 136 0
43 134 105
190 27 16
139 46 245
240 186 57
171 237 89
142 41 215
154 19 70
158 86 223
20 38 239
223 184 235
213 154 238
215 221 14
241 103 40
42 206 165
251 26 206
11 108 252
0 153 37
167 150 73
80 138 32
238 89 105
239 246 80
197 52 91
113 40 101
138 113 76
106 208 242
59 9 191
173 164 57
163 31 246
33 151 138
1 169 190
137 42 251
14 138 204
190 132 98
118 173 221
130 131 126
250 167 103
19 111 13
177 60 216
236 170 141
102 243 216
76 192 43
235 143 176
67 254 253
62 69 253
81 199 104
253 235 142
102 3 158
70 44 140
213 204 38
52 219 219
39 130 175
18 208 243
183 22 215
64 141 203
213 213 114
184 77 124
127 169 146
150 18 110
64 196 57
114 223 88
59 58 204
161 24 135
190 105 216
14 199 50
250 51 67
185 73 52
156 11 134
78 131 112
247 235 229
124 79 35
12 133 239
125 202 96
179 191 116
88 247 136
108 139 21
20 55 119
118 42 245
72 221 208
239 2 178
199 78 169
99 3 133
135 19 211
225 234 214
158 205 191
86 84 185
125 248 214
29 202 70
141 57 189
105 76 243
1 137 81
199 49 63
165 165 6
251 32 51
130 30 160
83 62 173
193 171 231
46 167 80
156 30 191
116 188 18
233 185 158
43 212 220
193 133 48
185 216 238
238 148 12
155 197 77
146 123 21
142 52 66
102 189 234
10 51 102
158 128 88
237 173 24
202 125 155
170 104 237
234 8 64
30 24 179
207 103 247
25 227 247
71 135 18
26 198 103
177 96 55
53 233 11
234 64 252
67 60 1
216 198 130
124 143 65
114 88 103
187 182 125
174 40 69
153 124 151
247 13 93
65 216 2
193 142 11
187 26 225
52 109 146
102 130 195
215 4 198
153 124 37
190 239 43
133 187 229
183 144 192
123 32 56
228 124 35
70 8 218
201 67 184
15 16 177
75 157 210
178 100 104
153 85 148
9 105 10
144 8 162
124 215 186
203 119 52
82 242 171
205 99 240
48 210 83
57 90 175
142 140 110
11 168 83
239 252 189
166 108 13
157 180 235
84 223 21
149 49 97
114 169 209
229 160 191
141 176 105
190 68 187
237 127 229
28 217 224
126 47 169
252 176 225
182 79 238
227 154 176
25 233 44
144 155 158
179 48 109
224 147 49
83 123 192
250 156 152
220 168 0
236 219 90
224 191 124
8 228 216
96 148 220
144 4 253
77 1 92
52 147 2
95 146 245
221 178 131
229 48 208
198 92 89
66 246 172
100 168 187
116 117 23
138 83 167
247 107 145
245 51 139
64 198 220
112 55 216
29 252 169
31 71 170
109 246 163
75 115 150
251 71 86
135 26 35
207 37 94
148 142 90
208 19 6
97 243 120
5 188 137
113 42 182
128 82 6
203 252 110
127 34 109
81 171 105
158 53 92
74 141 140
79 94 170
219 21 216
166 201 116
20 9 229
202 47 73
114 214 254
113 2 3
84 117 30
52 6 232
212 7 65
110 111 195
101 205 199
162 133 191
32 44 187
243 30 32
151 224 198
11 244 142
252 229 16
90 242 125
72 21 27
69 179 68
90 88 203
3 51 28
230 241 124
55 254 64
34 240 100
15 61 22
122 233 60
77 62 217
56 124 187
105 177 57
178 6 243
0 148 237
222 143 249
145 136 119
111 211 251
254 225 7
106 214 5
32 229 205
49 139 105
14 73 66
82 73 127
246 154 64
5 160 31
67 248 3
155 77 145
195 89 228
96 216 58
180 75 249
235 56 1
221 62 127
84 212 117
119 71 191
157 253 37
100 158 222
153 253 123
112 109 6
122 214 131
229 98 223
109 235 93
95 21 219
198 52 105
139 173 132
164 131 15
137 216 123
226 173 103
212 103 174
96 131 206
239 156 187
96 34 220
87 93 20
192 150 88
213 136 181
101 10 255
59 230 58
253 6 73
7 251 116
164 50 104
141 254 20
218 254 106
120 160 219
161 137 84
148 138 106
178 157 233
197 159 75
252 243 195
163 201 86
217 70 57
84 14 162
173 123 104
74 134 175
224 137 94
203 219 71
240 92 123
189 202 0
113 146 254
200 159 202
137 28 193
118 36 211
195 216 245
53 13 56
143 246 99
104 107 61
91 43 237
199 221 104
85 155 250
189 117 43
124 76 101
111 77 249
64 108 233
102 88 131
83 178 129
111 154 115
164 233 172
131 189 165
117 243 12
39 218 121
249 205 241
250 251 248
8 244 136
189 150 221
207 160 13
172 51 230
67 253 112
239 243 70
118 42 108
11 61 200
61 64 92
228 179 10
97 34 254
231 194 148
36 201 139
74 201 197
251 149 191
244 20 72
201 142 64
178 21 253
2 85 233
129 146 156
230 186 158
13 241 17
129 99 94
54 194 168
160 60 240
240 135 183
75 104 46
200 234 73
203 200 2
252 79 132
168 168 240
146 179 143
232 40 108
82 15 30
216 239 45
146 87 47
90 106 57
33 85 88
209 78 173
209 106 244
36 94 1
103 221 69
49 194 45
123 177 139
210 225 225
59 141 211
82 28 224
19 230 224
150 88 21
229 30 48
250 140 220
10 247 33
142 196 64
213 160 205
167 101 158
108 31 80
79 2 92
241 39 120
117 69 204
240 105 89
66 29 182
131 17 36
194 79 197
122 183 24
57 109 170
117 231 3
108 234 224
180 78 98
143 54 232
200 52 254
200 188 116
219 33 229
23 212 48
191 71 188
235 122 191
9 118 135
252 67 99
107 31 105
3 200 176
64 90 225
233 205 254
187 232 254
181 70 213
189 140 16
157 153 1
90 185 76
0 106 20
207 28 100
212 21 213
193 44 95
242 53 234
67 168 151
214 28 212
185 140 43
63 120 73
42 65 24
110 248 250
225 201 92
208 76 143
146 48 229
230 107 140
253 142 64
105 78 38
108 211 1
177 111 64
190 216 201
240 172 227
16 49 57
29 88 229
119 20 124
230 239 71
207 147 217
225 132 65
23 191 159
143 161 227
191 158 83
66 118 91
89 60 111
48 204 92
3 29 134
166 245 221
238 59 195
22 224 53
151 21 20
49 206 200
171 101 221
174 91 215
184 63 83
173 194 10
144 191 66
203 177 27
185 210 82
173 136 217
68 74 173
181 198 226
173 196 177
169 27 221
225 248 153
46 29 191
10 164 25
128 83 127
143 0 139
50 239 137
141 182 254
238 102 145
77 157 115
112 53 215
61 212 244
26 129 120
201 57 164
184 185 50
105 61 240
78 213 199
78 97 115
215 86 94
3 210 89
216 69 175
10 196 95
148 106 146
158 204 138
125 11 188
105 202 182
101 94 204
42 216 188
11 43 138
157 123 43
2 227 224
187 247 50
220 242 133
175 48 45
171 5 180
206 120 49
215 59 21
250 210 218
101 174 157
56 63 143
15 108 8
204 255 22
153 162 127
237 231 33
174 25 148
172 156 15
152 86 224
60 227 158
15 77 90
4 180 213
74 124 45
56 232 217
2 171 73
52 239 15
216 167 32
32 4 236
60 153 4
213 130 138
7 191 196
235 172 1
224 212 4
234 197 151
18 90 218
166 190 168
207 19 140
251 93 17
96 8 118
52 22 99
74 98 145
212 65 94
221 192 241
243 175 77
3 106 181
136 119 234
144 250 130
58 19 87
94 255 88
151 63 91
11 26 70
181 187 81
247 73 212
233 214 111
38 90 90
208 146 151
57 172 43
211 49 128
92 225 83
28 135 34
36 213 121
120 116 49
172 198 53
193 201 171
48 70 78
28 98 26
83 87 72
129 220 165
246 43 4
4 187 157
103 236 29
71 82 1
142 9 58
94 76 175
168 77 81
151 248 28
156 208 195
236 83 217
11 232 67
5 164 96
6 87 163
195 48 172
154 137 76
11 171 67
200 106 23
110 14 44
210 60 137
21 238 2
240 156 162
87 181 72
124 137 150
130 83 156
176 82 224
235 61 137
180 93 160
250 254 115
92 198 133
245 58 18
230 4 73
185 185 23
9 235 217
133 96 208
215 143 181
208 208 40
99 165 182
217 48 33
143 31 226
20 42 155
103 21 125
2 169 155
31 154 85
91 109 105
125 177 42
49 215 231
179 215 187
185 27 26
219 47 67
208 133 114
19 186 254
248 180 128
98 25 210
73 16 177
157 79 99
8 113 177
89 168 70
17 224 119
176 86 140
37 170 13
95 29 17
27 215 168
252 200 78
251 191 161
237 10 194
53 255 251
217 174 220
126 141 19
36 184 205
115 125 30
160 153 143
0 153 188
22 71 28
58 57 42
32 58 119
71 215 83
136 109 172
223 46 205
87 195 182
50 146 188
129 81 209
65 91 194
58 35 10
215 188 207
233 215 86
169 149 192
231 158 95
243 140 211
220 4 131
170 168 36
91 205 210
184 101 29
120 45 132
125 221 193
164 36 77
124 174 214
144 97 4
70 126 4
80 166 43
95 117 116
163 123 151
51 103 63
188 198 69
167 219 31
88 145 175
182 9 177
198 85 241
255 214 113
53 82 169
45 193 222
234 115 159
40 172 178
132 53 32
12 179 213
158 29 228
214 42 5
132 233 208
116 181 10
243 229 219
105 184 43
56 150 250
6 14 32
153 196 179
54 216 255
155 199 37
14 15 19
225 255 177
247 136 58
132 152 179
59 112 14
31 214 151
75 180 177
194 145 66
106 124 12
195 232 60
20 223 252
102 74 134
0 152 222
166 33 159
232 137 250
141 118 247
109 141 25
195 104 177
58 24 226
214 77 212
138 72 171
214 216 155
241 28 126
206 90 182
164 12 109
128 238 96
250 247 176
203 91 7
25 31 3
123 177 155
197 55 201
107 126 237
166 88 93
115 53 101
206 46 178
65 168 145
123 138 154
235 174 74
238 15 105
66 181 207
131 150 130
150 118 215
140 211 37
180 148 106
169 69 118
243 43 80
157 4 253
90 111 170
187 193 112
36 150 16
67 98 29
118 96 132
88 121 83
161 90 161
132 134 214
178 214 168
195 213 185
100 69 167
40 131 104
221 234 34
210 136 89
66 108 182
198 173 215
87 233 73
227 37 204
203 7 227
60 161 117
212 129 45
70 55 7
11 130 12
211 169 141
126 239 238
209 117 234
27 162 32
185 246 103
106 133 109
208 100 143
84 87 112
121 82 246
163 229 51
245 71 17
72 47 238
238 33 197
221 36 40
84 7 98
64 113 25
5 209 154
77 150 110
31 121 7
74 151 200
114 244 111
155 190 52
174 120 102
108 227 191
253 66 252
184 122 182
210 68 242
246 115 70
213 249 204
126 126 156
197 113 29
225 115 149
71 255 165
31 97 206
88 30 71
59 255 184
76 209 217
239 100 160
98 83 138
89 243 250
71 22 3
3 170 197
83 109 140
30 149 103
45 109 124
101 202 157
85 168 125
222 233 233
37 213 153
80 135 71
7 27 76
195 83 46
248 29 195
201 148 214
250 123 205
135 188 8
183 135 46
75 136 93
0 171 153
29 11 157
68 0 162
39 80 183
172 75 23
113 24 187
142 90 133
146 73 129
56 255 33
39 131 192
182 127 46
136 165 87
214 223 0
160 84 225
48 86 31
22 214 120
249 13 171
246 99 242
30 60 93
32 255 163
206 168 119
192 215 19
203 56 170
209 156 209
89 216 234
150 159 226
132 31 188
46 20 85
212 197 133
45 118 88
107 147 71
37 229 254
204 194 121
20 149 103
224 89 3
178 251 20
129 20 111
52 33 99
211 155 184
71 12 126
118 89 20
151 205 130
181 253 216
81 16 236
120 148 192
219 73 204
43 229 211
162 128 227
226 27 194
3 15 107
172 46 64
122 144 118
60 159 133
127 214 29
41 108 255
72 147 118
73 170 79
50 101 81
215 130 55
186 47 184
108 164 205
175 77 52
219 173 118
142 59 123
139 78 6
210 129 98
192 48 18
248 109 150
88 46 23
182 219 107
232 137 209
6 201 249
205 180 224
203 183 216
119 201 236
30 160 67
23 214 29
66 201 127
195 121 232
193 74 100
130 124 6
48 120 39
195 208 24
156 167 177
198 57 29
251 185 86
172 71 51
18 137 72
239 147 44
180 209 6
155 103 68
45 129 107
67 154 34
193 190 178
83 111 230
63 149 21
159 152 170
76 207 7
139 113 166
42 199 0
164 237 62
125 249 229
141 63 55
28 187 111
221 132 4
168 155 133
133 55 252
222 2 236
151 75 248
245 89 27
230 83 75
114 13 191
19 214 80
94 73 91
230 6 78
155 182 224
152 62 143
120 22 28
79 162 168
55 61 134
2 183 119
52 126 34
78 183 225
119 71 220
230 65 112
196 111 198
217 71 149
196 155 134
52 148 15
42 101 118
44 32 151
63 14 214
177 67 1
8 80 89
91 202 144
15 73 208
50 12 95
73 202 213
191 64 213
94 85 219
151 96 9
247 190 158
182 9 7
75 193 251
230 69 208
186 96 254
149 121 84
219 187 1
94 184 43
13 187 13
193 184 120
142 131 109
116 155 121
77 104 125
110 221 196
235 3 78
165 143 23
92 242 252
88 231 26
75 226 179
116 6 33
92 28 167
181 19 82
144 214 51
251 246 182
173 141 196
34 52 226
195 79 47
180 12 13
161 13 14
129 120 224
217 66 251
235 182 195
20 226 66
32 172 46
218 236 48
54 3 40
34 77 74
114 141 176
46 47 251
237 98 179
26 55 228
125 116 221
207 43 190
148 21 255
39 165 53
69 128 224
241 37 106
83 243 52
197 73 126
31 44 209
37 254 228
219 255 213
132 58 12
140 17 204
195 36 17
131 207 201
112 81 11
2 173 61
119 252 28
231 91 230
19 255 138
27 33 231
219 86 224
178 147 61
3 7 135
121 150 160
19 23 164
36 230 247
55 44 51
172 68 153
76 50 161
4 127 123
113 214 204
142 213 20
67 185 170
23 55 212
113 60 205
26 224 252
19 62 1
223 240 157
22 30 65
246 68 190
0 163 244
165 102 213
126 150 58
181 236 217
7 89 82
46 216 247
65 53 249
173 18 182
152 49 175
244 89 113
207 80 92
76 94 242
105 50 81
181 24 189
115 105 181
70 91 87
157 170 111
121 61 82
226 188 243
164 90 245
40 227 254
141 183 11
187 17 126
43 5 83
135 115 140
179 218 8
147 151 56
126 158 237
45 250 158
133 163 85
210 246 94
175 154 117
125 154 171
200 236 203
21 44 174
58 12 206
243 30 191
151 51 71
72 250 12
56 187 38
101 1 182
48 119 70
38 114 131
19 73 155
172 60 142
69 39 231
8 25 54
217 98 55
161 63 164
217 103 39
50 18 226
85 211 113
11 67 66
1 97 100
125 203 209
104 217 191
9 168 20
195 214 149
168 114 7
43 249 34
219 41 219
11 210 47
152 213 167
35 230 183
171 68 223
174 114 48
254 163 230
93 93 234
50 14 182
167 114 221
236 215 108
174 210 249
229 215 3
184 14 55
196 107 15
167 14 87
99 199 138
237 207 83
14 57 145
211 180 253
208 182 42
161 39 246
240 23 17
21 188 205
62 168 77
170 247 212
192 95 117
216 5 110
47 46 242
35 92 60
76 92 77
0 85 35
197 143 138
62 182 195
129 133 134
213 189 133
145 36 169
96 41 42
105 100 201
209 37 85
7 0 143
85 31 25
110 137 205
90 135 89
66 253 164
6 168 206
60 141 75
37 137 70
62 211 181
182 160 190
12 248 194
22 28 123
38 44 123
191 29 197
19 174 19
235 138 44
175 221 85
93 174 165
136 139 34
184 196 94
27 166 66
240 58 160
151 164 123
161 180 9
30 94 63
100 141 1
216 162 96
112 94 5
142 201 16
221 1 8
235 120 70
233 91 153
155 33 74
119 54 17
177 13 10
135 77 27
136 228 175
230 246 42
162 37 3
46 21 214
31 39 63
128 172 35
137 38 174
45 155 164
41 6 36
141 130 111
27 151 22
197 0 131
185 136 152
69 191 196
26 202 83
140 61 93
231 233 68
153 114 144
204 151 121
194 60 244
158 6 168
248 14 241
37 61 68
169 157 153
120 115 177
243 114 195
193 149 95
79 70 206
166 78 232
223 244 98
78 95 156
126 102 154
28 43 148
83 141 74
71 70 40
215 66 93
76 142 109
191 85 61
29 30 249
175 152 232
36 170 66
113 229 106
239 55 139
179 165 90
170 166 59
202 37 227
220 68 218
114 186 166
127 234 106
119 46 106
88 57 103
121 137 89
130 45 78
121 54 54
14 25 198
253 91 88
95 84 119
13 198 236
90 245 50
2 180 152
52 210 124
7 19 77
45 253 51
146 146 254
174 63 234
41 47 134
33 13 199
91 217 81
198 94 43
248 15 95
65 13 198
67 129 234
206 157 213
142 201 4
194 31 213
238 91 127
8 21 161
103 79 71
156 173 37
182 243 100
138 105 4
55 81 180
171 84 130
129 160 174
55 119 173
102 236 76
160 184 113
146 132 110
140 125 105
57 127 108
118 11 225
96 115 211
172 139 134
222 129 202
100 117 31
205 59 151
166 165 69
17 146 155
12 124 42
20 119 65
100 180 244
133 25 56
82 131 145
90 198 110
169 219 20
252 182 60
85 81 82
181 5 55
22 77 36
103 26 126
168 172 247
86 98 238
199 185 145
173 195 98
201 7 6
83 151 68
221 240 31
31 166 86
121 79 131
223 188 158
75 244 130
162 22 217
250 75 166
128 30 211
127 187 239
161 21 44
154 85 73
238 70 181
6 25 86
79 125 130
235 20 26
135 254 109
33 242 103
25 101 203
202 12 140
6 158 192
6 246 80
30 10 245
78 112 98
120 222 16
158 244 159
189 232 26
26 238 158
50 66 52
253 72 32
223 54 84
55 54 225
218 21 85
152 180 198
214 44 89
195 34 10
130 177 101
234 155 160
110 7 189
211 63 89
233 115 169
143 116 209
247 46 92
78 152 48
142 1 56
241 104 52
45 236 109
178 146 255
84 168 103
120 157 240
126 38 77
119 175 108
68 69 76
82 53 27
169 81 150
95 26 153
99 202 135
240 130 19
73 63 205
174 119 124
196 252 212
31 152 4
149 87 8
204 227 254
227 247 104
67 162 111
118 1 41
173 171 201
11 88 35
184 238 67
243 173 121
110 233 105
137 28 60
68 251 173
167 10 130
42 99 147
239 24 95
155 224 199
191 98 85
210 43 29
60 57 84
47 210 103
122 50 69
64 82 214
222 216 135
199 232 192
16 37 94
57 6 141
252 210 203
241 154 207
48 236 109
1 5 122
190 196 37
164 81 143
87 157 119
85 215 78
202 10 55
214 129 242
156 150 74
227 83 163
108 227 156
145 178 16
116 163 36
23 138 183
255 60 159
155 142 98
76 213 175
71 18 249
52 164 216
144 233 56
199 90 26
30 100 59
226 97 4
140 228 241
36 16 253
206 126 108
182 133 152
65 217 245
191 227 203
236 68 245
156 247 7
72 113 192
116 79 222
17 150 101
92 103 89
24 170 11
28 167 7
107 40 124
54 164 162
162 183 208
167 252 210
111 79 125
108 166 24
207 189 203
25 9 36
168 121 195
233 48 186
254 2 90
213 85 97
174 181 54
125 0 79
205 16 186
159 141 81
85 247 101
34 184 152
229 37 197
17 151 163
21 178 63
82 195 179
217 11 122
232 236 159
170 172 195
158 238 93
248 28 37
134 151 179
112 27 116
57 141 154
168 162 35
16 118 123
176 215 112
23 122 63
221 48 198
174 223 107
60 161 88
93 115 133
60 57 103
21 38 178
126 218 142
179 91 163
171 2 164
84 124 230
85 223 198
196 162 111
98 203 130
100 140 179
183 95 35
138 235 13
69 230 116
120 88 113
48 65 144
229 28 243
130 218 205
73 204 215
242 240 124
96 209 232
82 89 155
250 156 93
191 214 10
52 254 18
194 187 192
29 112 241
94 72 67
97 17 161
137 107 113
255 153 205
199 69 153
246 63 93
113 222 236
62 36 54
93 207 21
148 178 136
157 91 79
76 82 50
172 214 239
226 71 184
215 183 98
210 116 215
20 54 116
18 172 104
183 118 218
47 229 243
166 38 249
138 35 0
60 81 240
126 113 194
239 191 48
171 86 196
17 32 109
240 202 84
243 224 61
202 255 10
153 154 145
198 30 167
214 213 53
67 37 166
238 170 162
48 152 186
70 25 28
66 179 64
104 60 4
213 80 155
229 123 32
127 51 220
84 167 100
218 240 87
228 77 238
98 182 27
112 9 152
251 201 248
226 122 230
212 214 145
254 114 14
104 33 49
42 45 75
253 196 103
46 75 13
156 114 69
236 203 174
145 12 255
46 133 235
159 216 31
96 117 141
197 27 142
26 122 41
242 23 41
75 140 14
152 50 156
119 69 2
168 247 133
70 89 237
196 236 152
85 170 185
36 253 70
75 44 6
144 232 71
161 140 235
92 60 36
211 114 34
140 18 45
104 247 4
116 97 67
182 63 232
120 15 112
160 52 175
193 57 157
255 139 154
234 95 95
220 22 201
44 246 236
122 7 250
197 239 31
72 21 254
70 66 93
42 187 118
140 226 24
172 198 218
164 201 198
59 18 166
27 98 255
38 107 215
33 150 100
227 248 179
229 37 80
151 110 137
236 173 197
228 26 166
1 144 240
197 192 211
59 236 64
146 163 155
32 37 158
25 190 212
208 21 1
45 44 49
3 164 77
46 183 137
4 34 240
41 216 118
1 46 19
54 195 155
251 196 23
124 87 174
191 195 21
109 196 3
99 208 33
198 133 162
130 180 144
86 247 0
153 28 253
121 170 165
155 66 21
69 70 88
247 49 210
215 193 103
225 177 52
100 70 7
207 13 216
139 72 154
68 150 216
233 184 85
158 153 36
133 129 137
242 99 140
80 61 35
87 114 46
216 75 214
127 171 134
211 71 220
22 52 69
74 43 174
180 21 48
190 162 246
55 42 32
178 13 219
203 208 42
86 29 129
182 2 244
29 170 80
127 133 225
208 197 239
127 33 226
41 74 250
239 180 169
122 74 43
78 242 33
34 168 59
192 123 98
208 171 13
86 240 66
147 190 23
73 18 37
159 76 26
107 240 233
56 95 204
213 127 39
197 211 156
23 0 101
201 136 179
23 199 41
71 226 38
156 244 24
33 235 52
200 57 242
48 191 217
155 66 88
207 208 152
181 223 246
185 101 53
42 174 227
144 201 69
210 136 196
196 58 132
57 11 212
247 161 239
33 187 154
138 159 58
208 181 13
139 30 196
35 60 47
157 160 158
188 133 227
96 206 125
105 80 6
121 185 237
163 240 33
97 52 59
247 33 143
173 207 227
255 218 235
43 68 174
91 254 214
205 138 208
194 213 104
137 250 243
243 210 177
240 200 112
21 181 117
195 117 177
251 194 41
46 10 3
104 115 98
99 147 201
126 22 89
246 7 4
21 95 136
242 66 109
129 249 25
70 60 186
61 35 229
189 188 90
6 173 170
186 41 115
208 199 214
245 234 41
145 10 206
104 147 65
110 148 212
28 139 29
231 88 105
107 186 243
229 192 48
119 78 189
107 102 151
177 25 192
111 89 225
158 37 136
188 227 231
68 211 253
98 239 63
36 165 234
186 164 102
84 95 192
69 11 203
183 143 149
41 65 147
18 154 216
31 212 67
109 221 139
57 69 10
78 233 147
224 212 96
241 107 181
232 112 239
168 246 78
77 72 91
9 39 76
147 189 100
184 183 104
230 220 153
116 124 235
197 73 190
92 191 99
57 216 150
134 209 68
99 154 231
140 42 126
134 180 173
198 56 132
164 194 60
64 13 52
145 240 176
223 182 244
232 47 38
253 107 253
175 94 73
114 20 55
48 46 92
157 3 249
190 108 209
25 6 39
169 252 40
54 199 0
28 97 246
22 180 39
76 78 163
164 56 11
119 66 128
87 184 13
109 33 104
222 188 216
78 113 95
51 81 65
197 164 61
110 216 242
175 67 61
129 186 233
78 138 170
246 34 169
218 105 160
41 226 90
89 47 150
188 81 76
99 72 242
157 204 233
45 25 233
120 135 26
71 200 120
78 181 150
64 214 63
28 163 36
89 245 40
142 100 135
228 64 107
252 196 250
54 67 155
161 48 120
206 149 209
136 102 211
235 9 211
250 131 172
138 205 21
219 35 74
53 17 85
180 3 38
240 175 49
150 104 4
66 173 172
200 213 9
170 227 50
102 172 34
32 255 177
91 161 150
139 101 77
43 223 98
42 149 250
213 146 105
118 136 200
52 109 125
240 220 247
3 175 93
200 141 190
18 86 121
230 25 152
71 163 7
226 121 255
215 179 121
124 17 165
202 31 195
115 64 135
214 244 203
43 156 218
81 114 155
84 113 34
125 238 250
47 170 169
101 138 203
244 152 69
111 209 244
140 250 206
215 214 34
240 207 134
212 11 109
188 21 197
36 8 114
55 86 73
216 26 19
200 247 171
190 48 241
138 6 208
186 11 132
141 239 132
37 172 19
160 254 104
76 213 22
124 117 59
110 244 2
42 129 47
15 96 20
188 42 97
240 77 83
183 157 107
163 219 96
41 110 241
187 51 1
102 212 80
120 147 218
126 133 135
226 247 212
132 187 44
109 158 221
223 58 68
246 242 35
184 204 128
196 97 48
156 34 33
104 29 52
169 211 85
207 147 191
59 3 228
118 211 210
145 216 216
129 17 44
150 131 139
15 58 6
2 243 169
56 69 195
53 92 184
29 60 23
179 180 172
218 30 247
39 93 235
77 37 17
0 211 91
125 254 135
92 157 174
111 41 182
39 57 103
73 54 113
17 14 17
187 137 29
193 89 181
52 238 82
129 65 14
104 29 6
199 195 24
173 141 207
116 37 61
168 95 110
199 216 247
28 97 105
87 225 50
38 135 227
12 235 98
165 129 44
246 148 101
94 118 58
129 215 40
58 80 45
133 65 37
193 212 154
172 249 145
207 234 86
122 255 133
163 154 133
235 153 93
168 11 52
162 14 83
82 186 77
23 100 9
152 106 13
145 45 147
155 195 24
109 181 41
20 249 113
85 191 16
173 20 23
237 85 93
154 226 65
11 8 149
234 111 29
169 252 218
69 139 14
81 238 240
93 233 74
143 47 90
144 200 44
117 213 210
150 182 12
17 160 77
156 37 199
11 130 92
53 236 224
180 31 206
105 223 44
134 27 35
36 82 27
5 80 43
201 197 235
196 38 126
26 223 114
178 254 31
95 242 121
250 37 118
118 29 169
224 145 114
77 94 187
193 78 80
142 249 83
37 216 243
106 204 102
199 97 249
112 15 81
3 48 30
41 209 36
188 157 68
195 243 217
71 216 52
11 109 19
139 190 145
200 99 107
144 8 15
79 140 63
251 242 25
156 208 175
216 154 198
253 145 177
52 188 204
65 73 27
75 113 39
118 144 235
32 157 71
212 83 47
20 123 29
29 63 14
150 39 85
15 11 126
203 9 162
213 30 44
120 146 208
236 97 67
22 2 157
127 19 65
10 111 210
127 116 74
36 198 60
186 126 124
208 49 189
237 63 200
123 199 97
40 141 29
236 50 39
10 93 199
176 37 250
214 119 187
161 243 42
229 49 110
139 18 190
119 153 220
122 96 6
22 236 224
83 7 173
244 149 200
197 28 59
206 55 239
128 235 104
126 155 190
85 214 151
139 31 108
225 212 25
168 245 241
61 74 87
24 195 117
48 108 86
138 85 203
47 228 7
214 73 105
37 59 133
3 72 249
170 132 205
189 247 29
247 38 221
103 10 217
78 11 134
36 225 131
120 133 5
125 109 209
30 133 173
9 75 158
84 196 221
197 94 175
227 200 99
1 188 129
48 177 53
162 98 65
100 201 21
97 169 9
227 76 180
105 89 198
118 23 214
175 119 186
241 157 74
10 23 138
135 18 174
45 178 242
218 47 30
227 109 205
57 183 99
129 41 252
53 56 177
124 52 189
232 172 62
150 137 16
123 100 29
108 106 248
246 154 224
141 43 132
37 81 169
111 239 161
106 239 39
193 129 11
204 76 60
160 82 80
5 169 86
136 110 71
95 245 160
176 144 189
35 60 225
127 130 2
122 82 33
220 44 27
38 124 199
50 110 122
165 126 97
149 10 161
33 178 121
192 102 126
166 164 107
255 242 168
106 33 195
154 169 10
117 39 104
121 80 1
78 165 242
90 48 30
199 191 40
65 97 64
210 225 111
140 219 152
62 216 240
24 24 0
213 82 130
228 64 52
129 249 253
121 197 5
86 140 221
104 116 7
28 103 212
175 97 203
251 104 16
116 196 221
32 135 175
10 250 66
182 202 54
121 16 248
254 87 193
216 106 186
25 252 19
242 133 106
95 217 65
173 181 205
23 205 37
50 107 73
114 63 95
70 217 122
30 183 125
140 16 16
239 197 145
224 191 21
18 110 171
72 22 184
151 80 221
190 204 77
75 174 50
2 34 132
238 62 78
226 75 235
71 247 144
110 24 169
210 161 190
88 252 22
75 238 231
155 16 229
74 233 163
101 193 151
39 50 157
109 27 162
152 63 124
232 83 73
112 27 192
187 2 23
131 159 152
157 148 188
204 91 49
34 29 52
90 144 230
151 229 190
89 2 209
11 237 226
201 90 178
140 89 59
62 97 159
177 155 96
198 191 230
80 226 240
115 189 128
178 246 182
210 78 182
51 148 215
206 41 155
166 188 138
252 216 92
206 65 20
86 181 101
221 28 247
14 12 251
244 62 114
163 243 240
184 114 222
219 45 193
150 62 171
25 65 112
27 188 217
5 132 112
130 73 254
72 240 75
27 49 127
203 8 68
79 244 50
21 48 103
212 172 107
32 65 54
15 114 145
77 158 152
86 167 168
121 114 250
79 227 166
39 175 252
185 87 73
102 202 77
137 217 9
30 78 167
216 119 28
23 216 127
129 28 184
31 113 98
129 196 6
164 146 242
97 48 211
252 193 100
235 202 235
241 17 22
119 81 34
59 225 70
171 52 252
156 188 143
10 245 174
97 53 12
222 168 82
83 68 81
17 34 214
40 42 182
168 43 242
234 154 117
157 250 97
195 219 244
233 195 190
19 192 31
63 21 105
34 111 82
48 118 146
170 96 90
220 140 173
79 43 169
179 70 180
204 217 4
168 9 157
156 93 193
151 138 21
121 188 198
30 245 101
40 170 142
46 165 128
124 20 165
8 174 24
147 249 38
186 208 253
230 118 32
74 109 254
200 6 81
103 244 166
31 95 252
234 245 30
121 62 94
119 35 175
4 88 154
127 253 17
179 28 147
90 25 201
197 188 90
165 115 92
187 58 125
224 15 187
93 39 141
90 5 14
187 22 77
23 147 119
125 79 122
202 217 243
179 125 136
130 86 59
201 25 3
20 76 227
104 119 86
62 49 120
49 191 56
86 243 211
148 73 162
11 20 70
204 181 21
238 34 1
124 14 237
130 114 215
171 183 236
226 110 110
5 197 155
91 206 165
4 43 57
135 204 137
10 38 31
215 201 175
13 193 180
128 151 84
74 17 232
143 244 255
224 173 35
40 27 12
191 132 253
43 209 38
55 195 13
135 234 122
59 229 71
122 35 75
66 50 115
143 188 33
169 59 18
234 203 81
119 197 81
109 139 7
105 4 186
253 123 103
97 97 199
115 231 227
189 198 179
114 45 244
83 99 150
218 91 73
116 135 169
106 47 195
190 244 175
169 68 17
158 24 172
38 203 18
150 129 9
26 130 188
119 248 66
36 94 105
155 216 160
91 143 232
71 32 178
34 60 191
180 92 52
4 175 32
83 33 197
107 152 190
199 32 131
130 212 143
236 22 174
28 197 86
130 216 21
3 154 52
238 254 90
252 175 247
100 213 5
104 136 128
54 78 246
138 215 100
247 87 204
97 79 159
12 249 45
162 113 184
14 92 43
48 42 208
109 16 83
123 175 74
114 48 156
34 127 217
189 195 254
52 247 158
205 50 16
80 95 232
244 243 149
208 56 244
1 196 16
49 36 163
232 51 137
1 0 191
80 217 182
194 79 106
12 109 154
112 110 23
76 204 162
102 64 173
169 75 120
207 252 48
7 180 61
195 212 34
39 222 144
58 138 208
240 140 55
162 54 136
230 190 65
253 221 43
96 134 35
8 240 71
226 110 169
108 163 98
61 78 158
4 169 60
128 91 184
168 224 6
176 0 117
74 218 65
251 172 162
195 252 177
189 246 175
132 17 234
117 142 12
78 83 246
34 83 163
214 147 37
73 76 226
34 180 167
185 112 229
124 108 235
156 232 142
186 7 48
113 218 23
96 59 43
117 101 158
182 146 146
240 65 129
175 154 184
153 50 250
34 188 211
210 204 66
126 49 162
209 135 61
245 179 71
211 74 168
83 176 98
154 128 216
142 2 88
37 54 8
195 85 229
108 209 54
60 246 116
239 254 29
124 191 226
123 174 159
242 151 180
70 111 124
226 150 81
107 200 92
217 223 159
197 11 77
28 224 115
64 219 61
37 177 255
34 234 119
13 150 179
160 173 11
128 43 232
74 214 118
137 61 145
63 143 148
170 135 228
25 146 83
67 34 70
127 124 11
142 16 60
182 37 73
154 237 134
216 15 30
80 214 59
92 61 41
1 63 243
126 131 220
6 32 18
214 4 102
222 185 33
68 193 89
190 54 34
173 176 18
13 124 57
244 195 242
42 101 185
226 108 38
120 159 248
117 101 45
208 32 196
82 90 206
121 110 171
89 179 255
248 22 60
89 227 140
201 9 247
253 206 215
105 70 137
105 198 73
182 50 195
30 94 152
6 33 53
55 75 104
44 186 222
131 254 83
229 173 189
159 78 234
75 30 229
57 84 161
99 58 38
69 238 149
111 50 214
191 67 69
173 79 127
171 142 40
214 42 49
47 129 67
110 115 71
121 53 160
252 163 153
207 241 120
71 76 139
154 255 100
23 140 12
68 75 16
218 22 184
32 16 207
175 22 108
122 77 202
46 219 93
207 36 123
174 79 56
179 82 155
213 181 221
58 226 100
182 171 47
123 203 54
145 80 83
130 222 179
187 136 242
57 133 58
230 196 183
37 49 179
192 246 103
50 5 238
35 51 42
116 88 110
53 48 225
182 182 42
162 9 11
94 219 155
236 181 173
77 192 221
241 187 111
232 236 212
22 139 52
166 14 52
141 245 129
144 204 232
237 236 123
101 146 85
117 129 207
113 96 23
142 199 53
37 115 189
194 89 21
57 10 178
6 17 83
58 218 106
142 21 78
211 68 247
224 63 31
183 157 255
114 59 57
206 125 201
84 108 244
83 233 205
106 102 50
68 54 107
241 220 197
228 5 22
41 210 16
127 195 105
5 212 233
197 121 107
56 164 44
148 88 49
80 86 206
247 125 217
86 222 121
87 153 135
102 27 92
102 239 4
7 169 196
14 24 138
219 108 199
23 132 187
251 42 193
181 29 29
66 206 208
87 155 59
23 61 50
2 134 34
218 84 123
229 181 144
40 193 135
22 22 43
169 170 169
89 137 143
231 137 234
106 119 84
110 12 61
217 252 24
221 204 204
30 103 52
132 189 43
101 205 114
45 51 6
120 92 223
0 11 190
19 47 80
235 224 38
29 243 91
220 107 4
223 221 166
164 82 113
202 244 4
64 75 192
115 66 87
134 82 0
188 149 48
144 185 59
216 127 29
179 34 83
22 88 0
53 168 242
125 82 138
23 34 219
142 68 4
255 27 111
148 116 168
153 12 25
5 150 73
209 119 156
187 200 179
155 142 85
46 144 215
119 253 85
55 153 223
246 117 217
155 63 225
219 123 45
113 205 32
233 32 171
208 88 255
56 242 64
105 142 223
66 247 254
113 215 34
97 9 10
215 29 3
130 7 124
86 167 177
218 183 49
36 135 160
159 64 129
215 116 201
155 187 244
30 47 86
85 78 154
141 200 120
166 210 114
205 163 228
152 254 30
54 194 95
8 161 141
191 131 166
159 79 7
212 91 88
205 136 222
221 138 249
251 165 128
66 226 230
120 24 79
204 59 158
127 251 239
155 146 210
253 205 202
62 137 147
166 44 74
95 127 105
87 192 158
189 50 13
29 200 159
82 139 175
213 224 132
62 49 6
24 67 71
127 73 84
22 91 157
149 131 85
222 92 110
200 207 5
118 221 91
234 21 5
22 153 18
85 65 236
26 197 224
171 132 234
28 100 167
81 117 219
117 13 52
120 91 96
141 67 39
92 86 21
186 67 214
142 243 202
55 69 84
192 201 86
174 221 91
158 139 225
60 102 166
118 102 162
5 49 118
130 26 79
223 234 145
191 186 172
114 45 155
179 253 255
207 212 195
234 160 42
142 249 206
27 124 95
169 238 81
139 2 167
45 183 28
97 144 46
94 177 255
29 79 191
147 129 194
114 184 11
209 189 71
124 119 71
167 15 5
2 6 8
246 232 180
226 8 20
189 237 177
48 68 178
122 74 176
2 155 9
103 20 126
222 210 120
14 42 135
28 146 93
173 87 89
1 229 64
168 249 32
55 64 238
215 155 7
35 213 217
67 30 94
120 73 46
199 179 117
73 167 3
103 112 140
26 226 250
215 52 115
253 21 195
131 252 197
92 42 170
232 236 137
26 189 31
99 182 152
57 238 107
184 221 204
228 167 105
30 144 231
46 224 43
119 37 243
22 28 212
23 83 2
224 140 122
194 246 75
43 204 252
164 180 97
226 24 46
94 15 101
35 180 158
229 137 98
5 145 162
248 73 199
19 190 104
74 57 189
54 197 49
31 51 213
249 192 231
252 14 203
111 98 164
186 13 167
48 37 8
45 12 141
163 188 216
163 6 95
143 148 141
67 67 126
232 88 38
67 111 193
55 204 227
26 222 203
151 86 131
45 177 85
45 144 155
4 129 184
79 126 14
168 89 66
91 64 28
128 116 245
155 231 113
45 116 191
183 100 215
129 195 80
207 39 11
230 34 60
122 117 70
188 82 253
122 92 84
24 66 200
255 185 213
148 126 156
122 208 24
137 40 163
119 166 240
161 214 65
146 156 97
109 137 131
202 77 78
220 113 128
13 214 40
159 169 98
29 144 234
122 207 3
156 194 129
77 33 77
204 37 204
2 194 106
84 215 242
252 231 216
53 73 228
141 208 124
218 93 145
188 92 157
65 39 194
116 26 109
137 33 148
57 198 68
195 32 196
128 162 97
224 2 226
217 163 255
223 129 217
234 100 102
253 159 213
234 8 203
111 223 199
148 102 219
69 11 40
133 204 221
73 90 227
11 45 107
27 4 47
201 210 97
208 91 119
146 73 77
177 230 255
51 185 179
248 156 41
92 147 65
31 47 109
59 34 194
126 113 169
130 51 165
176 30 42
243 114 219
4 191 12
9 223 244
20 115 33
178 168 253
14 123 177
110 62 119
99 75 160
67 47 192
186 131 111
120 232 217
221 148 24
4 34 243
247 112 106
173 41 224
46 66 1
229 101 142
136 110 50
230 128 239
240 107 127
44 116 29
77 125 49
137 119 158
7 164 102
194 14 246
81 68 253
159 107 245
57 47 128
147 200 115
94 200 235
128 97 226
3 244 228
19 45 63
248 70 181
56 238 27
45 231 195
206 87 216
26 247 16
175 66 0
16 229 79
26 87 62
140 72 127
28 35 54
22 225 22
246 254 0
183 117 21
142 17 254
202 155 232
217 219 11
206 192 32
200 9 233
61 23 24
215 188 37
160 179 204
25 114 11
146 119 211
110 213 236
1 103 69
6 141 172
110 108 113
232 155 31
69 57 106
27 10 138
225 139 196
103 26 52
6 202 121
64 155 17
80 182 12
20 112 120
76 247 170
73 46 160
217 38 6
50 172 27
132 204 255
202 178 251
157 151 30
123 127 250
211 25 58
45 139 42
80 221 56
51 241 17
61 123 82
246 159 177
202 72 134
117 165 183
42 171 206
29 95 243
192 252 185
117 131 80
126 17 98
32 7 1
57 0 45
214 117 3
21 219 159
135 25 151
136 227 63
69 40 26
255 99 49
49 87 12
243 245 195
158 194 103
193 16 88
137 26 143
64 131 78
155 240 94
16 37 44
188 48 239
212 58 100
79 68 40
191 84 71
218 204 30
201 52 167
238 67 200
185 168 192
200 189 232
240 55 57
187 162 223
145 133 208
72 218 234
241 95 5
114 192 173
12 11 11
24 23 182
31 3 7
157 19 199
212 234 90
0 163 11
6 236 49
75 112 235
151 151 224
1 75 143
66 152 134
134 230 146
75 253 153
166 140 146
136 131 137
64 201 12
209 19 212
121 209 185
11 106 150
244 205 224
129 99 13
121 199 170
134 39 13
92 121 94
28 157 193
139 180 223
103 176 253
222 215 95
238 92 127
192 163 201
134 62 176
97 124 83
50 70 49
205 123 24
135 94 32
6 39 110
69 222 211
155 12 75
126 139 141
57 173 44
226 14 181
22 199 234
228 82 167
37 0 21
152 190 95
143 43 211
170 227 85
221 39 197
176 58 66
76 207 112
220 9 151
121 27 184
64 91 228
126 229 121
204 163 73
146 6 25
32 81 20
212 43 8
53 247 151
115 246 83
62 68 124
60 252 244
15 194 34
241 143 44
166 7 49
24 150 198
11 255 115
199 82 184
179 224 226
235 197 71
199 175 192
111 49 145
113 182 233
92 181 160
8 186 102
230 54 96
19 94 66
31 215 212
192 140 59
165 253 25
44 52 0
191 182 137
78 169 148
162 35 152
185 189 62
228 105 58
147 165 12
221 217 216
119 43 215
41 156 61
236 191 157
164 154 241
166 91 60
200 8 63
129 12 179
140 26 16
225 190 197
121 18 21
16 95 239
217 148 241
208 108 166
60 87 125
159 128 95
254 221 237
212 69 8
22 208 250
77 28 216
193 130 201
219 67 101
163 31 158
255 77 85
232 131 79
23 212 203
29 215 113
67 75 0
63 140 111
180 9 15
116 188 18
225 116 200
239 61 68
220 149 59
53 160 0
8 109 86
147 182 135
170 142 227
29 186 210
214 197 108
12 39 194
77 175 135
232 111 123
227 191 216
247 227 158
47 78 101
77 56 7
179 223 188
20 33 56
156 204 221
154 55 197
231 74 111
173 209 72
222 67 37
33 62 33
232 176 171
5 31 89
246 74 49
86 150 171
160 39 204
32 15 26
147 174 216
47 220 144
197 206 159
207 129 95
119 119 99
155 103 213
13 200 101
20 30 149
204 156 235
89 178 139
238 194 86
108 108 120
208 231 215
198 237 225
249 158 174
130 139 224
189 58 137
72 19 162
193 102 46
33 210 107
54 46 16
84 56 255
16 246 130
185 29 206
43 45 251
119 144 38
55 106 255
64 180 23
129 38 12
68 208 0
131 127 127
102 27 181
99 242 99
218 249 221
195 230 3
102 93 194
167 12 18
45 249 85
208 12 95
32 243 199
174 151 204
68 146 208
251 122 108
10 184 86
11 45 172
208 158 180
124 32 192
43 170 44
160 14 98
167 20 132
167 179 86
65 30 181
245 162 119
4 49 108
107 158 11
217 211 201
0 222 92
110 115 159
166 34 216
150 12 183
168 26 136
176 225 158
142 188 214
105 96 201
147 241 31
111 75 18
19 217 106
105 254 71
79 71 233
77 221 108
13 57 202
253 11 54
137 38 248
1 200 91
209 198 16
188 26 19
4 100 134
159 174 235
178 185 131
84 95 55
171 25 164
216 13 125
104 62 80
239 90 205
231 45 0
59 190 214
78 243 24
88 16 21
2 234 73
63 47 198
125 196 164
77 215 223
170 228 196
103 239 14
102 218 232
198 215 225
149 243 7
182 204 232
66 173 134
224 204 107
178 39 45
34 179 219
89 155 72
49 70 85
197 24 227
76 7 59
171 17 101
238 232 246
70 67 145
114 76 175
208 153 13
165 165 114
123 236 251
139 83 104
153 20 136
39 194 194
24 109 76
162 43 177
44 182 195
156 195 137
53 116 166
116 105 233
250 132 132
82 210 29
24 92 125
45 65 58
99 244 253
152 106 215
112 152 81
183 8 29
193 196 182
92 248 103
147 23 142
188 158 226
152 118 61
163 135 53
122 131 41
195 107 145
66 26 49
83 81 52
58 141 156
43 17 50
223 171 98
2 125 176
66 142 179
208 166 2
23 252 21
43 40 184
12 236 33
65 18 134
66 77 99
108 183 95
137 77 206
9 83 195
32 42 34
37 165 86
219 161 174
55 119 11
212 176 244
232 114 149
160 58 159
72 17 136
146 96 150
232 25 43
78 244 171
115 70 210
42 167 233
107 161 157
144 146 80
71 208 40
151 33 198
102 74 181
130 238 70
117 201 101
220 172 231
77 60 101
240 46 95
137 138 25
107 191 26
31 142 27
156 39 160
126 197 43
205 147 207
37 244 80
180 172 22
84 29 148
80 26 164
152 121 8
150 136 64
73 237 24
133 28 32
9 90 27
146 0 173
71 192 45
130 59 34
183 185 124
242 204 194
25 196 98
245 36 254
78 116 147
194 149 110
253 131 200
115 187 85
152 114 53
188 166 225
159 190 31
1 105 212
102 165 126
89 129 237
44 73 94
161 125 105
72 112 85
109 61 98
124 100 84
62 102 145
160 64 143
183 236 156
38 31 164
100 255 55
104 28 201
169 123 137
125 82 14
90 9 200
121 208 231
204 132 187
244 39 66
96 78 252
159 153 107
53 182 187
2 206 111
212 176 28
187 244 244
88 35 230
59 8 239
9 191 189
178 40 28
28 62 29
199 213 182
115 17 20
235 200 74
85 191 148
27 215 83
157 234 44
124 169 30
33 45 154
9 1 242
86 145 161
168 153 57
91 113 63
21 195 246
33 211 131
234 29 109
141 15 169
95 87 167
226 134 128
180 90 76
82 47 225
38 16 136
82 112 61
30 68 100
157 247 195
149 170 198
236 237 178
47 83 36
35 140 6
164 49 156
167 158 33
106 15 81
224 177 131
139 64 196
180 107 127
54 106 172
19 231 222
233 38 11
246 12 105
52 79 193
171 144 66
65 107 253
194 19 188
253 209 210
216 147 144
14 80 21
186 36 4
157 64 57
22 174 42
207 120 2
145 180 24
56 64 81
32 37 39
43 213 56
52 136 181
104 92 248
70 108 151
48 20 66
34 52 96
148 138 170
64 168 46
222 73 4
104 213 208
40 34 112
208 142 60
46 193 174
174 24 100
45 45 60
124 133 47
249 99 17
74 76 225
20 191 162
86 189 15
126 137 253
183 34 245
1 147 132
62 252 189
97 0 251
32 42 92
201 255 107
190 73 103
191 14 150
125 119 59
80 123 242
14 120 196
32 75 102
196 160 15
68 252 41
25 137 210
159 91 66
52 11 230
150 18 126
153 151 141
48 135 228
7 5 25
12 32 151
143 43 217
137 187 127
44 31 158
187 34 118
12 101 119
172 121 160
71 249 102
242 137 197
70 150 4
65 200 170
95 146 207
220 241 83
204 167 113
171 189 234
207 140 41
143 16 249
91 254 108
235 42 92
71 244 103
142 126 1
118 31 93
16 3 26
127 17 216
162 151 36
220 124 25
154 182 202
97 237 178
249 196 202
58 204 160
197 25 27
18 7 234
13 104 198
8 149 151
33 216 76
50 51 41
120 162 114
212 147 7
76 139 245
137 192 212
218 22 13
236 202 32
196 2 183
16 115 67
123 104 166
134 212 92
186 253 201
100 226 164
227 222 201
185 24 243
133 7 20
8 255 82
220 62 141
118 224 42
100 43 176
190 168 124
89 32 248
175 86 36
169 133 18
0 240 199
242 24 193
227 199 18
155 115 134
180 37 55
103 32 176
199 236 19
229 66 46
241 120 223
140 51 35
13 105 21
174 16 96
190 88 91
245 82 66
108 102 7
44 174 95
236 171 246
28 177 113
122 163 130
63 117 31
101 201 46
198 79 114
162 116 236
114 178 217
76 111 172
135 60 13
224 92 32
149 73 45
115 142 252
31 154 248
177 51 5
0 135 193
184 195 67
20 38 195
132 100 221
198 200 66
220 171 117
59 229 192
180 14 220
162 39 104
119 3 197
136 4 97
219 53 73
62 188 77
76 148 251
126 74 203
74 255 185
188 207 27
157 234 23
106 227 37
111 173 171
231 7 62
210 140 248
95 8 92
48 115 232
141 73 9
152 140 229
88 152 120
43 19 254
1 202 218
36 119 172
113 134 79
190 126 92
6 68 24
154 253 120
176 200 20
178 4 153
95 183 182
37 133 144
173 63 43
127 18 110
163 85 35
65 127 111
208 140 215
53 228 48
81 197 223
52 34 93
37 183 201
62 150 147
112 127 173
88 48 126
148 229 244
145 187 144
232 8 115
153 114 92
246 65 118
197 140 225
108 125 101
184 201 168
12 37 88
251 124 122
31 64 251
146 174 100
68 119 27
37 14 159
224 102 70
178 172 161
0 63 183
129 103 174
65 1 253
123 40 196
133 54 243
246 238 171
84 19 230
174 154 239
215 74 143
243 1 92
136 90 168
44 5 108
141 212 167
123 193 149
253 121 251
166 178 243
151 223 162
222 126 4
52 182 109
64 55 240
196 24 29
48 143 212
0 61 4
143 106 91
45 154 135
91 231 17
155 91 90
9 254 206
14 9 40
20 198 31
55 1 230
116 8 139
241 128 232
237 89 226
8 78 47
189 45 101
200 218 185
77 39 162
21 70 81
179 87 43
9 211 161
73 196 124
101 92 207
183 25 55
12 82 210
52 102 117
145 25 94
174 206 159
243 28 29
171 179 149
169 223 85
66 175 153
237 167 140
206 213 106
9 93 84
127 77 159
24 69 72
161 47 91
18 195 128
166 110 22
50 197 54
162 31 167
58 92 126
189 127 222
22 29 136
153 202 144
57 73 42
134 240 62
29 172 160
60 196 123
135 227 51
50 35 228
240 196 222
174 15 82
20 176 14
47 56 182
199 9 106
7 65 152
75 172 146
187 143 99
215 22 46
31 131 120
201 140 217
176 60 177
252 213 188
53 136 75
67 203 142
128 126 53
132 126 229
205 200 160
231 53 178
246 54 106
65 15 99
77 153 182
112 115 75
186 54 53
58 185 169
208 124 182
174 11 182
116 191 116
254 182 216
190 31 212
14 178 238
87 48 84
176 150 200
107 0 185
99 31 202
88 201 117
246 164 166
254 137 205
92 210 118
128 236 18
70 183 138
67 238 238
238 65 200
106 185 72
141 197 109
86 20 99
32 36 254
124 69 102
226 87 38
60 218 209
189 225 248
35 173 93
237 181 246
206 196 21
157 229 86
42 238 8
201 167 77
214 54 165
70 85 48
202 67 88
68 27 84
176 105 83
199 58 175
188 6 188
245 36 105
159 169 58
97 90 240
53 168 151
111 248 80
209 192 189
166 7 139
143 65 89
90 199 239
178 214 176
83 44 171
155 36 219
9 63 202
129 142 34
210 82 88
74 184 171
126 138 189
103 40 182
24 134 222
242 214 144
134 131 69
56 140 32
122 2 197
78 247 69
140 94 246
159 12 139
61 244 137
152 1 99
64 226 26
194 131 72
215 228 75
121 83 117
96 55 229
116 202 207
4 209 245
61 113 222
117 196 218
249 189 37
123 179 75
208 113 217
148 168 178
14 60 21
183 232 183
69 220 74
226 108 169
134 182 0
239 108 24
36 139 249
16 200 35
60 158 65
140 38 46
53 88 95
64 22 12
249 61 100
10 51 123
220 54 49
51 13 82
110 151 90
69 234 245
104 73 214
180 16 203
226 35 58
55 207 39
89 116 139
0 5 175
202 114 47
36 191 73
24 52 187
230 117 127
232 3 177
168 33 187
133 95 133
63 220 61
94 193 191
24 193 158
44 55 153
173 186 25
25 76 218
151 69 5
246 216 192
2 223 204
135 125 253
0 247 25
109 174 130
48 139 22
16 157 90
166 208 133
27 205 44
238 108 32
219 196 188
148 11 132
164 246 5
145 236 26
150 84 99
233 191 15
188 212 153
172 225 131
181 179 238
188 118 163
178 19 238
91 6 83
133 46 220
113 48 113
86 154 132
107 223 138
163 183 55
48 119 62
181 83 129
133 179 152
199 52 228
66 206 137
24 43 192
105 177 128
57 72 127
197 159 76
90 30 12
111 161 99
114 234 252
88 207 206
246 51 240
250 239 183
61 34 159
237 55 65
243 43 75
142 252 240
188 138 59
209 238 209
128 150 171
93 237 156
189 73 177
84 42 24
64 6 156
118 99 221
226 10 246
204 124 52
56 53 101
234 213 52
23 232 10
121 42 183
95 70 178
135 91 220
190 137 86
137 237 26
88 7 225
130 43 139
131 85 88
199 124 11
110 247 18
151 186 106
174 58 1
174 199 13
64 221 110
186 186 234
75 199 214
52 64 243
169 10 54
234 172 93
184 46 230
84 241 58
187 176 152
144 125 41
220 72 215
36 203 26
89 239 144
250 41 248
251 84 133
47 70 100
51 70 190
188 48 230
30 17 246
42 131 34
230 200 154
39 109 137
51 195 251
163 71 173
243 75 9
14 31 76
182 153 174
46 155 125
126 210 156
159 84 25
228 129 237
64 251 99
157 108 34
155 43 204
238 76 100
80 19 21
82 250 86
240 13 131
97 231 135
113 60 141
35 211 16
76 51 45
161 201 173
132 191 201
234 140 15
168 22 215
105 122 16
247 190 13
92 85 115
48 7 57
175 106 83
196 113 199
215 68 42
79 162 22
130 250 54
241 248 102
124 224 127
34 98 142
226 94 3
16 11 68
247 255 113
78 50 60
238 104 189
189 134 188
39 144 46
64 102 247
224 163 35
86 57 182
10 175 143
179 27 216
85 107 174
232 163 171
147 65 239
255 61 174
35 75 72
124 42 24
91 48 69
165 133 101
209 9 224
56 36 169
242 148 16
51 193 4
252 17 28
82 48 14
221 13 125
149 59 114
28 221 61
91 127 45
175 157 77
197 146 176
134 183 226
67 24 186
119 76 98
127 205 28
169 3 72
179 124 42
148 212 14
18 14 203
89 46 196
183 74 169
50 242 71
198 17 118
72 230 75
14 70 4
153 138 112
31 94 205
218 77 14
203 226 93
166 24 189
29 221 55
181 106 186
246 180 68
87 159 48
33 153 50
99 39 213
89 23 232
183 99 200
206 64 112
168 237 58
86 93 238
244 36 106
58 48 167
198 44 99
109 90 76
202 143 131
131 199 163
70 116 159
13 182 26
191 210 92
166 162 51
143 31 87
196 88 45
58 125 203
214 198 143
209 163 30
242 253 250
40 104 236
117 144 205
123 167 183
171 224 214
94 200 40
78 86 103
87 239 242
172 108 169
184 199 241
179 204 213
255 237 213
190 29 150
168 0 95
127 198 111
47 212 150
246 116 10
243 25 235
130 54 208
127 101 195
145 44 117
86 239 8
239 212 128
105 112 69
23 150 214
175 49 154
161 134 99
158 12 89
129 214 173
93 177 103
62 118 118
193 95 208
66 15 147
175 230 68
249 100 168
11 18 61
235 140 60
179 215 251
101 130 217
71 21 118
58 74 27
81 230 15
155 23 81
245 250 114
17 118 191
148 128 85
89 226 11
240 135 175
94 237 66
185 241 172
111 88 93
135 160 116
105 194 16
117 227 89
207 26 187
148 72 104
229 3 91
230 171 247
33 169 98
48 186 196
27 119 46
113 145 89
152 155 208
70 180 84
186 221 11
186 221 68
230 118 162
42 239 245
253 4 42
100 237 73
48 63 159
250 43 233
30 31 202
53 248 163
46 115 91
29 27 218
83 55 95
150 245 56
211 168 0
136 168 108
235 113 160
200 215 55
214 58 69
191 160 36
12 249 144
234 229 94
151 110 91
204 127 238
67 56 166
188 162 205
214 42 98
144 59 110
144 88 218
139 88 126
229 9 168
10 231 125
20 30 163
214 18 8
232 57 239
119 87 68
205 131 11
163 202 191
35 151 93
21 189 39
40 167 97
135 98 94
5 110 228
249 130 255
103 183 194
220 200 9
91 182 14
209 159 91
75 244 191
224 152 108
205 232 182
251 117 141
195 64 72
56 200 17
141 33 117
154 174 95
252 63 69
118 71 61
194 198 190
241 53 120
198 149 193
194 233 34
215 210 66
131 193 125
64 33 218
161 207 249
239 230 117
231 49 69
93 208 224
214 218 147
246 55 122
54 41 184
87 250 51
204 90 26
44 138 201
157 177 215
11 193 24
237 170 18
99 48 37
217 59 65
170 35 84
70 116 188
212 45 6
45 33 6
37 59 29
62 144 143
28 157 226
143 93 57
172 23 10
105 43 242
207 94 85
145 120 20
74 32 231
155 162 159
41 7 20
169 36 230
190 5 58
43 130 132
143 62 42
169 254 201
56 230 206
66 112 217
194 88 128
203 201 146
52 97 171
2 17 110
21 215 169
201 243 192
31 125 251
97 58 38
176 129 18
236 240 109
181 119 129
22 248 133
135 105 137
252 197 122
225 142 74
124 175 47
47 137 206
146 88 27
134 172 230
41 67 250
157 38 161
237 25 179
198 49 29
131 173 74
163 72 13
244 119 194
235 16 113
73 46 1
43 241 169
178 37 201
32 51 76
119 4 25
84 98 22
15 162 64
252 72 131
155 105 247
187 178 101
230 8 4
46 93 124
199 117 225
72 77 176
47 120 153
13 192 13
195 75 87
29 29 206
18 91 246
151 28 177
238 124 126
136 2 239
51 22 202
143 98 4
178 162 66
247 167 184
40 167 88
14 140 133
221 44 156
208 84 171
102 159 141
231 233 150
60 47 233
6 255 8
130 28 105
45 146 82
45 88 154
153 87 133
47 117 94
223 7 86
248 133 230
120 139 36
7 148 188
94 47 184
27 252 223
18 119 54
101 140 85
56 252 78
253 43 27
247 106 139
214 217 56
244 157 210
227 193 65
187 139 214
38 86 112
14 61 8
43 87 128
93 143 245
228 182 93
29 52 2
189 35 52
164 18 205
87 5 65
99 13 84
153 75 234
46 183 230
73 25 16
190 49 148
76 24 30
13 194 252
205 215 231
152 126 125
57 235 168
248 220 17
51 223 182
101 212 191
254 15 95
42 47 118
110 187 186
220 216 15
2 163 112
2 45 225
221 204 148
203 164 4
255 248 212
216 62 108
111 95 183
164 39 213
250 4 61
151 247 116
191 122 205
22 168 251
144 152 43
223 38 15
229 85 174
142 107 57
130 240 179
110 149 231
103 6 220
218 206 8
3 116 123
108 241 253
133 156 229
95 159 61
20 38 214
177 169 21
218 97 19
144 237 114
130 34 33
230 162 157
226 92 43
148 216 23
130 60 68
183 173 5
219 68 7
161 29 167
120 192 108
22 141 116
164 187 165
122 101 52
224 108 148
58 210 171
79 216 139
24 191 176
183 173 104
47 19 168
237 213 147
74 112 74
252 106 116
220 33 65
168 68 240
244 190 62
21 224 149
202 117 100
78 157 213
218 198 68
189 141 195
52 220 34
19 23 83
80 56 255
159 40 254
178 51 207
93 176 33
109 167 7
73 122 88
244 233 218
251 243 163
10 6 193
67 248 46
100 68 179
147 26 214
19 84 234
68 233 80
166 207 50
248 218 173
86 204 99
42 200 85
91 104 41
234 60 204
134 74 136
195 78 105
89 144 96
17 161 77
105 250 120
180 159 122
38 236 64
209 177 162
74 224 10
54 45 33
93 162 200
148 32 207
253 72 198
3 197 32
250 179 71
117 135 3
81 210 113
201 215 72
210 75 36
131 40 223
123 41 204
45 141 38
130 34 14
56 177 32
66 174 55
161 69 36
33 2 11
201 43 41
207 207 14
134 11 139
7 89 33
138 198 89
79 241 40
123 244 2
5 192 119
15 135 88
127 163 75
188 133 160
147 5 213
225 64 191
24 85 159
123 227 235
219 92 78
201 240 70
224 209 98
130 137 216
134 158 209
49 130 237
246 102 77
109 31 76
237 28 142
190 239 152
108 188 135
133 197 188
77 41 250
146 206 50
216 144 171
62 173 125
45 224 31
152 154 229
66 196 237
171 29 196
234 246 158
100 152 205
111 77 1
31 82 162
34 121 221
68 85 165
108 237 115
76 35 122
190 51 213
139 43 127
39 211 171
13 176 191
225 232 18
135 208 55
57 28 246
123 218 152
25 182 59
10 148 191
153 101 104
100 250 116
232 225 119
108 27 75
112 107 16
52 3 181
31 31 240
242 43 254
213 196 107
8 94 236
159 160 250
53 172 160
21 86 143
248 229 108
104 120 210
28 173 208
97 225 122
161 149 14
9 168 136
186 82 195
190 69 7
68 133 80
173 207 90
199 192 191
186 224 53
215 173 144
34 39 119
170 34 224
177 153 155
225 128 130
115 32 194
241 83 19
18 180 204
231 41 164
202 179 91
81 174 1
110 85 23
203 123 65
131 199 255
160 230 172
213 58 38
122 205 175
20 84 127
126 86 153
176 15 149
26 28 187
134 136 158
129 21 169
180 185 61
62 120 220
95 8 141
94 182 116
36 42 32
51 17 150
194 24 130
220 60 133
159 18 42
46 103 58
163 78 178
217 111 104
229 204 229
241 171 164
102 56 113
22 139 230
150 80 102
101 198 94
55 108 131
141 41 35
212 67 196
212 81 35
24 234 42
213 130 110
160 189 88
7 183 85
165 136 19
52 210 137
36 218 131
113 112 184
13 0 41
199 62 31
25 83 207
177 63 150
219 20 97
122 239 156
35 195 190
87 154 173
73 23 145
6 183 167
80 133 191
70 77 85
196 89 101
89 143 91
212 76 204
140 244 177
179 190 64
208 211 143
154 81 235
124 20 82
107 138 182
81 106 213
141 141 163
67 172 54
94 42 204
210 166 35
198 35 98
162 87 226
196 152 95
121 187 247
106 239 147
42 94 252
62 144 7
34 41 237
198 3 85
233 181 36
47 70 229
119 2 47
172 189 111
71 178 38
229 127 252
195 222 184
125 205 195
83 126 117
123 57 141
17 65 4
192 56 140
73 207 184
120 173 224
231 202 9
23 56 241
39 225 175
19 140 237
204 199 210
191 32 187
211 123 88
185 60 179
37 2 101
54 228 241
157 154 139
17 27 148
76 44 14
136 196 197
3 64 226
236 128 248
178 13 22
202 68 123
127 83 141
188 171 143
215 106 44
171 247 197
203 135 134
231 168 215
36 50 47
74 72 131
80 77 213
78 236 165
32 53 152
213 20 8
162 226 214
182 202 170
3 107 84
97 17 140
151 239 77
3 115 14
178 175 68
50 162 32
111 220 111
192 111 134
138 80 201
147 126 101
112 34 207
252 44 83
233 44 50
222 152 57
150 185 31
219 97 144
27 49 107
62 252 217
136 242 215
29 241 175
249 34 234
175 123 56
99 234 241
194 239 60
95 141 31
48 209 62
36 201 82
190 21 115
103 119 208
121 206 248
126 187 166
112 224 121
22 121 121
120 227 116
232 203 177
17 219 85
54 205 57
237 58 85
31 67 97
144 97 85
141 33 128
232 128 32
27 219 101
189 107 56
179 145 20
141 51 243
253 239 45
150 209 182
217 166 25
229 30 228
84 169 153
46 68 76
37 124 196
2 240 134
160 84 83
221 171 232
78 19 153
116 165 68
172 58 33
33 239 205
84 93 210
223 88 107
93 111 165
31 192 177
96 153 238
164 140 123
252 141 61
228 149 128
27 7 136
192 73 222
184 226 43
0 109 104
93 194 197
37 158 64
236 230 218
106 52 49
121 135 42
95 103 105
165 224 86
239 77 54
62 24 60
65 81 128
195 124 218
93 16 174
133 190 66
66 207 141
245 21 157
86 223 74
101 222 91
75 188 112
193 139 213
73 124 10
192 30 3
56 243 8
166 214 109
23 78 208
158 169 184
216 168 133
230 253 208
139 100 42
255 181 21
53 87 145
226 108 53
223 43 43
231 87 83
48 25 194
13 137 92
161 93 80
14 216 171
151 12 3
161 211 135
61 246 250
85 85 223
17 147 185
64 164 183
124 24 85
15 25 241
18 13 56
8 219 156
60 248 146
83 236 96
154 162 101
91 30 217
107 241 63
78 24 203
175 155 116
218 98 40
58 234 12
190 170 149
189 95 206
21 191 115
114 210 204
137 252 225
114 161 223
109 229 93
20 46 204
111 227 49
165 237 112
253 118 243
10 37 255
198 167 215
133 166 197
253 0 89
240 34 232
180 65 93
11 194 209
253 124 219
74 51 41
105 210 176
0 149 18
231 188 41
175 130 133
157 243 62
191 167 118
199 226 124
106 107 19
140 18 90
243 54 124
104 215 63
106 5 139
213 41 197
220 36 100
236 100 93
207 188 251
243 172 11
90 57 140
69 71 102
160 0 58
247 242 159
139 193 4
144 195 50
138 234 221
198 171 84
124 32 223
183 135 106
87 101 227
60 103 245
64 21 14
232 56 176
61 129 231
138 242 87
19 173 107
232 32 128
35 98 161
141 86 81
54 133 46
223 84 207
180 234 27
188 238 94
79 37 52
18 157 188
75 13 43
198 70 65
244 217 147
2 170 138
204 60 15
117 116 194
121 61 217
37 106 148
253 214 224
134 125 100
72 84 216
53 62 244
61 189 218
2 201 88
163 163 174
48 40 130
236 54 13
156 15 246
197 136 123
158 177 220
178 48 100
88 140 236
75 50 181
6 254 149
122 127 221
92 102 6
94 178 106
15 214 66
54 72 174
63 152 49
68 159 102
144 143 225
76 214 41
135 93 144
184 14 0
137 59 14
18 9 20
233 14 200
100 229 206
115 45 19
30 74 173
53 34 23
217 114 99
210 47 35
42 152 226
44 128 217
62 133 54
108 132 166
45 85 131
43 71 121
60 27 252
60 204 128
181 209 103
53 68 147
145 164 182
128 79 64
245 129 242
228 105 4
52 79 232
74 186 17
219 93 31
38 65 88
168 55 234
23 49 56
66 115 81
7 63 204
205 116 111
177 47 147
109 5 75
26 42 253
218 179 76
133 72 147
113 74 223
191 226 233
104 85 64
189 152 48
251 235 149
47 49 161
234 36 39
213 92 250
175 139 24
99 93 14
212 150 110
174 185 59
143 41 123
208 212 177
92 134 93
19 21 102
91 80 217
195 19 129
231 49 2
108 164 9
149 7 105
225 219 110
142 40 127
142 228 48
182 102 160
102 44 166
87 77 15
52 185 92
210 243 111
124 54 99
56 178 116
229 9 112
89 151 137
85 25 225
148 169 57
87 76 245
204 128 232
23 91 80
227 173 185
34 224 106
18 233 175
117 53 142
187 208 214
30 6 105
158 8 191
106 45 105
218 101 134
223 127 180
171 89 246
234 174 115
148 163 5
100 37 237
116 40 94
70 163 63
116 195 177
104 209 254
56 134 130
209 92 92
105 252 16
148 52 231
121 53 254
144 200 170
203 199 3
222 37 250
140 128 186
165 252 74
234 25 146
107 128 208
18 106 207
253 169 196
160 197 154
225 39 243
68 234 191
236 79 3
123 48 102
125 36 175
105 26 163
199 138 164
158 46 87
32 199 147
209 179 36
55 11 151
217 22 211
110 3 246
255 159 144
5 103 188
28 80 192
1 182 203
193 72 182
61 223 114
215 116 99
176 174 71
72 105 185
235 239 146
191 217 66
102 198 57
104 115 110
30 2 52
156 39 129
68 64 218
11 143 197
232 147 160
252 41 48
87 143 155
150 166 228
231 170 127
95 116 200
154 28 49
239 155 129
47 132 146
46 229 171
65 233 192
51 102 15
212 0 234
184 251 159
162 6 219
107 67 223
230 66 138
6 35 211
214 167 67
85 166 209
23 217 107
184 61 216
126 118 233
227 220 146
145 133 82
34 138 125
63 148 25
66 151 67
28 214 73
172 205 209
110 237 194
120 172 212
104 41 174
25 82 172
107 207 141
246 112 186
146 228 137
173 206 142
243 116 190
2 64 124
166 171 224
28 120 97
74 156 2
230 215 242
159 206 220
173 209 155
136 224 217
229 75 177
21 42 146
154 18 250
76 245 18
38 53 77
54 104 6
30 31 141
197 210 251
98 86 228
185 8 57
195 209 115
155 82 50
54 18 159
200 139 152
108 121 60
239 168 27
69 99 187
135 52 56
222 251 88
63 155 183
231 225 46
137 40 2
144 37 137
100 39 172
151 54 45
126 71 103
126 160 217
108 247 99
173 159 214
231 117 168
22 114 170
160 70 39
181 210 236
109 224 164
215 25 178
215 15 44
206 244 201
155 161 79
159 155 239
62 123 193
83 111 129
117 162 241
110 40 49
134 28 204
210 206 124
13 251 126
178 49 117
170 29 30
58 64 236
231 219 22
35 246 69
66 154 99
215 176 45
139 239 100
214 115 130
10 35 109
97 155 66
122 78 230
241 8 157
185 18 58
175 147 219
25 149 217
243 89 27
113 165 63
251 186 56
91 14 206
203 127 213
129 205 57
27 140 65
85 252 85
231 64 52
134 241 166
250 211 136
179 48 95
98 176 49
107 84 84
212 153 161
184 94 185
214 94 63
0 105 40
14 119 3
188 37 59
187 239 63
103 113 195
181 27 188
202 28 155
6 90 203
39 218 125
194 226 57
128 74 229
227 107 235
202 79 253
22 95 232
46 82 211
53 107 232
143 127 87
242 146 7
165 189 254
237 69 146
140 205 154
185 83 158
62 227 154
15 17 220
72 139 194
82 244 45
96 159 253
43 245 222
36 68 249
106 115 127
34 21 215
107 66 140
138 18 249
38 187 206
114 223 151
132 134 114
44 13 189
247 181 255
52 23 25
182 225 107
27 103 67
109 24 149
35 213 247
109 198 60
243 197 219
172 119 88
88 69 189
18 98 204
233 155 59
247 49 5
11 253 193
30 82 9
220 127 210
116 144 31
25 228 132
45 170 43
51 5 192
154 76 228
158 9 75
84 161 135
109 31 18
8 154 234
30 113 160
216 88 248
219 69 232
168 86 182
225 81 58
74 89 52
18 203 252
183 219 158
13 246 149
22 33 120
124 116 92
16 166 48
66 12 152
76 198 134
108 126 56
89 57 134
9 170 202
94 104 216
82 193 199
36 84 231
131 232 98
46 127 11
190 30 47
3 91 118
74 25 81
170 3 83
101 202 152
129 229 50
57 20 163
15 218 87
182 105 99
54 151 67
107 22 108
252 90 236
151 139 40
206 200 234
127 167 162
120 183 62
243 8 134
204 90 111
64 187 137
80 108 132
0 217 202
134 216 44
166 184 65
188 144 183
34 128 242
190 151 54
248 140 51
240 46 120
37 232 117
234 192 171
44 225 103
136 242 112
20 216 230
70 39 238
212 208 118
26 210 140
1 184 170
124 153 240
230 53 180
19 225 4
157 210 44
77 245 236
47 152 126
65 147 88
167 29 225
47 107 238
26 191 50
13 37 108
13 124 86
25 80 63
234 97 37
68 190 154
22 161 4
109 52 65
15 71 54
139 172 55
145 40 215
136 132 4
158 236 79
111 244 36
210 124 127
136 23 59
72 221 54
30 189 195
157 139 98
162 197 213
121 225 79
137 187 123
242 21 44
251 78 248
122 11 228
95 128 244
191 173 196
2 158 84
74 200 105
153 232 13
25 56 30
218 90 236
115 210 163
82 77 72
195 47 118
25 106 214
188 223 171
200 143 144
147 174 141
197 62 167
78 145 94
233 202 127
56 207 74
223 67 144
179 113 193
44 98 90
238 41 145
156 197 237
82 64 142
242 194 91
202 25 3
63 69 247
115 251 211
96 23 59
55 203 122
84 190 131
165 153 81
19 19 189
149 126 150
138 7 175
182 208 50
239 102 112
209 83 231
55 85 245
72 10 253
188 187 32
176 82 35
96 108 170
243 207 16
120 175 103
199 169 202
109 51 117
113 106 205
68 98 233
129 102 46
206 191 236
177 152 80
212 147 174
181 172 235
180 93 106
25 75 144
114 168 8
126 84 84
206 138 188
185 8 69
58 176 79
237 76 169
66 123 105
61 109 139
135 197 72
97 89 12
187 65 228
170 90 182
92 113 93
82 249 84
227 111 199
114 129 88
254 87 105
115 198 12
92 207 93
174 26 57
70 7 220
234 114 138
66 16 207
49 8 52
188 214 217
218 80 23
118 236 76
122 210 16
177 118 58
156 148 206
200 18 64
119 4 179
15 158 85
199 45 160
209 136 69
207 111 10
64 184 230
83 176 5
186 47 33
193 60 145
52 27 0
240 16 156
197 127 240
24 4 91
185 150 234
216 201 80
8 60 124
34 180 50
237 30 5
153 204 124
208 105 43
155 217 176
76 103 39
67 15 153
83 13 205
182 137 63
246 254 144
5 53 79
12 146 70
32 212 131
189 198 232
147 64 251
123 225 76
178 215 162
169 84 93
139 217 87
33 144 227
155 217 254
165 135 18
121 41 98
249 62 132
237 128 138
66 39 212
223 143 154
5 157 46
64 85 215
239 236 128
134 208 9
50 191 179
113 242 246
71 83 151
30 8 115
158 36 227
233 11 20
189 46 79
189 103 36
255 200 81
157 152 8
16 40 112
82 133 211
94 61 196
166 113 109
168 132 128
229 23 48
212 1 172
33 244 166
28 0 17
90 54 94
98 253 108
68 1 231
33 206 205
133 128 193
177 72 215
248 96 99
94 205 206
3 206 136
190 200 149
120 19 226
169 6 155
43 65 242
36 42 56
162 55 126
54 157 121
208 123 163
222 55 161
68 185 254
222 153 188
103 103 52
238 159 234
170 212 29
84 110 49
177 67 202
191 37 62
46 14 98
189 51 181
134 18 82
45 236 129
160 18 91
22 55 57
202 219 123
186 159 61
11 173 154
62 238 81
248 38 214
231 208 99
135 9 181
72 251 21
201 211 60
52 106 212
138 16 145
98 153 21
119 225 204
155 83 228
233 201 169
237 137 67
155 130 31
115 234 243
207 132 221
12 171 240
46 253 5
37 172 76
45 13 18
139 181 189
136 64 147
198 17 207
238 200 244
62 104 197
81 215 101
253 168 232
102 52 47
208 83 226
15 90 140
38 192 36
75 48 174
173 249 79
54 202 220
218 38 207
191 211 147
252 51 76
112 220 218
233 186 20
177 164 133
236 47 202
66 69 65
94 24 154
241 80 128
137 135 223
144 68 113
149 254 186
139 216 74
108 26 246
41 161 230
85 28 151
254 210 58
212 234 186
199 31 93
86 181 68
96 51 136
134 68 254
41 50 158
111 175 168
174 139 105
81 37 133
230 9 139
196 127 151
68 208 42
180 69 218
76 144 204
204 64 157
83 158 219
182 255 247
238 238 188
225 155 217
85 211 169
61 223 165
199 173 48
250 2 137
196 64 114
95 242 149
178 131 79
204 122 174
77 231 204
128 255 52
158 107 108
253 43 192
79 119 135
251 48 103
7 122 169
98 190 238
29 41 128
43 97 57
75 89 160
101 86 27
33 223 119
51 147 52
70 156 211
159 109 20
43 109 31
161 22 87
223 202 59
4 29 111
79 76 45
168 232 243
20 20 194
88 86 30
96 42 10
148 35 23
137 219 125
42 119 204
218 186 94
54 181 53
177 66 254
232 193 47
79 50 43
96 161 203
46 67 245
232 79 93
134 244 191
50 160 79
208 225 236
179 41 112
130 235 31
185 42 168
9 18 178
94 180 66
226 114 33
205 36 112
50 194 56
106 208 191
182 20 96
179 211 111
122 145 153
201 194 44
5 171 168
43 83 147
155 102 36
108 191 13
213 129 211
142 128 80
41 98 11
108 62 110
95 44 255
246 224 187
242 106 5
135 249 151
20 230 40
216 158 209
11 198 102
85 32 33
243 136 3
94 120 7
88 233 78
84 61 10
252 194 244
34 224 87
137 233 211
43 184 66
208 187 23
182 77 118
187 57 133
237 29 65
127 218 46
203 83 101
72 117 103
246 145 16
156 238 100
100 31 177
52 77 37
207 163 224
159 0 164
19 200 254
224 96 140
39 32 55
142 37 111
100 41 68
253 119 201
61 221 144
65 234 249
172 92 200
98 78 125
173 241 148
136 47 157
253 20 150
121 143 111
156 216 80
114 167 99
64 105 62
96 162 129
144 191 154
45 41 40
75 102 168
73 128 53
240 19 32
140 145 158
185 71 240
250 65 196
172 77 73
134 181 219
57 22 64
164 6 158
75 175 67
60 255 143
201 137 125
204 252 145
128 232 148
217 255 197
170 193 123
208 211 180
97 253 36
249 102 254
243 91 64
166 114 88
45 76 112
54 83 78
38 194 136
129 98 218
234 54 244
116 224 94
47 7 220
108 189 191
205 21 235
129 88 162
73 110 79
123 223 239
102 11 235
131 236 180
74 86 236
6 181 142
114 57 168
179 202 68
173 200 13
157 189 111
15 96 70
101 215 66
27 250 86
243 211 79
229 186 164
169 38 170
241 192 71
203 146 73
171 141 124
105 130 20
22 181 136
111 187 161
73 77 37
186 104 252
38 223 121
56 51 137
23 190 68
114 188 247
143 218 93
32 235 255
154 130 115
1 233 45
176 145 161
21 18 109
194 72 236
248 65 189
116 37 253
131 190 165
149 136 147
114 61 23
46 22 128
44 41 146
202 149 70
158 152 142
222 154 125
195 90 155
235 183 243
111 15 29
104 139 178
176 179 146
1 104 177
162 26 21
174 93 115
198 169 187
13 208 67
114 41 227
109 65 46
206 151 111
43 17 33
117 232 156
230 231 118
154 246 61
232 45 217
198 84 129
218 151 31
178 148 189
8 191 173
133 23 247
82 152 149
88 203 69
236 38 20
156 150 110
234 101 72
108 54 43
98 104 249
234 36 39
83 221 44
215 8 160
38 166 58
35 187 223
12 247 73
107 112 249
52 239 192
125 205 123
0 83 39
3 192 21
99 125 208
254 6 13
213 230 137
171 236 31
160 199 85
9 92 217
253 116 225
167 247 232
114 95 116
223 236 45
128 170 107
247 122 90
185 103 13
41 24 99
124 26 241
131 154 204
81 25 248
104 172 199
207 119 44
49 151 74
80 249 142
129 132 0
230 226 1
4 105 218
120 97 99
167 10 125
139 137 252
73 153 93
193 88 90
226 83 33
170 238 210
213 242 131
180 223 16
158 205 176
85 210 102
26 129 40
88 171 90
24 162 212
15 37 82
195 140 246
245 65 48
10 232 8
202 133 239
104 82 253
162 123 224
212 93 84
140 123 155
26 154 239
23 75 191
178 242 203
233 91 110
87 13 133
92 129 59
215 187 187
53 222 11
89 123 61
90 5 137
18 118 244
92 9 176
109 164 33
128 95 83
157 40 53
111 144 188
150 130 159
245 111 150
145 45 85
86 143 50
240 26 213
52 169 41
153 247 200
35 170 82
16 143 66
165 109 195
48 117 227
152 184 68
10 146 187
119 179 248
138 70 68
9 40 34
146 172 185
208 211 58
32 36 13
211 57 236
57 245 67
102 168 86
112 38 244
156 56 135
174 214 17
27 222 183
83 229 12
119 219 178
41 166 139
43 203 117
213 177 154
95 120 107
12 245 215
237 124 102
184 36 75
217 32 176
217 82 42
163 223 90
40 84 30
203 101 204
201 63 67
24 224 120
176 96 1
117 184 137
127 159 90
76 35 69
166 115 107
97 27 2
159 116 124
158 135 116
19 27 28
69 192 177
32 238 203
34 82 16
90 133 23
160 81 222
118 152 6
104 150 180
161 11 214
166 34 224
228 228 85
162 174 12
208 224 232
248 122 85
149 205 187
92 236 240
99 149 107
51 152 55
205 204 8
62 234 235
120 213 44
230 149 203
167 113 32
114 100 154
46 95 140
171 48 100
190 192 223
220 247 24
83 196 101
164 35 141
23 144 91
228 241 31
2 35 190
140 86 101
39 37 130
16 58 215
54 155 130
84 195 126
214 42 146
18 84 138
23 70 247
228 98 245
54 185 76
239 244 109
149 217 72
1 250 134
104 92 152
150 161 158
55 161 199
231 95 64
107 112 4
120 15 193
86 13 23
76 130 61
133 16 183
205 24 122
188 149 160
70 36 226
6 207 101
174 200 43
133 127 6
157 28 248
223 75 33
16 61 137
34 32 39
7 109 251
162 133 139
116 58 119
210 191 144
165 247 202
207 19 139
93 252 71
20 100 170
237 221 178
198 153 240
53 41 232
92 58 230
3 13 22
196 83 198
153 180 223
66 118 113
223 129 11
165 243 173
39 61 121
230 5 232
65 106 227
107 96 59
31 228 235
198 56 104
147 53 54
137 2 250
101 226 120
5 183 134
47 37 172
155 217 59
106 177 160
103 106 51
16 78 116
90 236 80
181 203 230
156 252 68
232 132 199
212 209 176
27 238 134
155 176 235
130 61 51
100 203 62
249 61 60
176 203 148
212 133 62
236 58 148
210 79 131
174 62 204
13 198 196
179 161 33
64 253 229
250 64 60
112 37 79
49 16 192
163 61 82
172 210 149
248 93 31
69 215 195
231 203 70
114 80 52
6 151 13
54 185 131
79 18 237
187 201 240
56 9 94
48 2 203
26 40 132
66 14 255
96 148 105
218 209 199
243 45 100
49 62 154
55 252 169
110 107 159
239 12 97
43 205 75
31 169 152
43 53 96
128 222 241
130 193 203
243 73 242
176 92 4
213 196 148
106 5 165
3 204 255
151 209 81
186 58 10
150 39 207
115 21 67
189 183 197
5 228 226
52 188 235
237 66 94
3 208 178
69 125 136
215 179 50
147 54 110
105 131 37
205 12 179
173 90 69
9 121 190
65 148 2
214 47 192
0 145 77
118 193 144
243 247 32
32 100 111
175 15 162
193 113 176
98 120 64
59 31 248
248 214 136
213 222 59
204 56 223
13 118 253
126 31 197
245 211 173
95 32 80
136 12 8
77 12 0
51 11 13
179 206 14
62 29 107
176 21 184
112 73 4
99 128 241
22 128 250
114 181 203
147 160 19
155 121 203
47 203 52
55 56 79
168 26 102
53 58 83
174 254 49
194 36 222
190 101 148
222 145 38
255 62 233
14 54 75
87 178 159
25 173 151
235 68 63
26 155 22
174 84 110
38 207 168
163 3 5
215 126 126
15 221 84
122 162 84
41 255 33
64 123 171
249 75 186
26 118 205
76 39 48
198 115 253
0 26 51
9 17 99
129 75 186
153 124 55
243 100 113
159 198 13
106 134 128
4 99 91
82 18 88
18 52 216
123 123 125
104 214 22
242 96 119
150 229 123
36 126 188
211 136 82
86 203 112
109 169 112
102 151 36
16 216 2
69 110 218
117 9 63
225 16 129
111 4 201
59 45 25
46 137 145
99 86 89
57 50 63
135 4 209
137 194 46
169 99 153
70 157 218
25 125 91
81 168 103
130 37 118
196 105 173
216 214 248
64 144 198
221 230 112
126 13 15
109 51 79
234 254 22
187 190 179
151 106 68
180 151 182
222 78 79
144 40 171
171 222 244
55 87 26
74 165 76
228 168 86
99 219 203
170 143 141
222 65 140
114 227 129
54 19 38
221 253 149
192 78 97
77 224 107
146 64 129
183 215 139
77 156 178
131 235 230
220 50 11
110 32 253
119 133 98
137 139 90
194 227 137
173 119 35
32 183 53
3 107 216
224 21 165
106 176 201
170 98 204
31 219 237
12 80 130
160 115 162
225 69 190
81 86 87
53 172 227
44 222 5
50 19 165
231 42 182
83 209 13
244 215 126
252 244 23
228 54 190
20 223 223
83 120 163
51 4 151
144 82 47
102 195 44
105 50 84
200 244 222
73 87 164
46 156 172
187 143 199
243 69 115
153 14 206
212 140 35
155 91 23
123 192 7
244 108 22
239 140 231
240 230 140
152 140 48
62 9 67
130 181 102
152 232 1
242 94 70
11 153 253
115 90 10
207 23 128
254 91 10
169 125 248
207 206 92
84 242 164
57 26 211
22 119 227
171 226 19
244 232 175
143 41 231
91 222 88
183 49 111
30 194 215
232 232 51
205 127 135
206 36 132
80 109 182
253 94 202
39 86 67
168 116 2
191 56 41
93 8 110
63 186 136
76 50 105
48 185 204
135 169 141
168 44 134
86 29 23
202 79 72
237 223 63
91 133 10
204 149 112
141 199 208
121 0 250
140 246 209
60 189 113
20 21 97
119 244 55
195 221 76
132 171 133
247 1 224
60 226 85
223 177 110
47 27 147
224 84 171
197 168 77
96 127 103
87 126 243
17 90 218
194 113 150
213 4 176
5 73 82
173 123 62
143 185 50
94 40 237
90 246 251
65 218 194
1 24 2
94 142 206
129 57 186
116 198 80
33 174 251
50 139 35
36 242 4
165 123 225
86 241 236
150 122 94
128 139 178
213 237 189
117 241 179
62 233 108
26 210 207
37 253 226
80 204 123
6 51 104
100 139 81
182 149 101
229 250 159
99 92 187
21 15 213
229 166 247
31 126 149
240 117 30
43 107 181
192 150 244
241 192 198
20 17 250
70 130 155
81 158 78
161 78 228
88 205 14
99 110 211
118 124 184
136 219 224
76 39 58
193 59 155
86 180 40
45 91 177
223 47 138
181 182 97
220 18 64
36 172 53
51 133 206
252 39 247
107 204 118
221 193 117
254 148 160
77 230 195
239 189 148
211 60 186
143 8 62
32 15 152
50 17 143
84 242 21
121 59 40
61 146 114
248 68 175
66 229 56
62 216 231
140 242 91
7 147 42
244 19 82
4 53 27
187 220 51
39 34 169
200 32 230
213 163 138
48 49 16
215 104 185
89 147 146
112 140 220
4 231 197
75 24 246
220 4 229
158 13 89
143 220 139
222 60 202
132 217 143
209 87 175
139 107 142
181 9 70
167 56 86
243 60 104
75 147 73
8 187 151
202 164 15
14 23 4
249 6 117
178 232 228
19 88 106
228 129 213
69 28 48
206 32 100
233 138 158
150 220 139
200 208 14
33 182 12
72 244 108
23 103 56
45 195 245
26 154 14
27 188 192
153 23 142
132 214 218
169 146 221
177 143 180
37 196 110
174 18 139
7 109 99
170 240 73
98 142 6
47 116 85
206 170 44
221 54 75
219 7 210
227 70 53
13 19 128
24 248 174
193 224 51
216 105 147
198 50 50
176 125 14
33 30 29
78 46 15
63 107 55
138 141 171
2 30 220
106 166 108
217 175 72
193 186 6
247 106 184
251 186 187
255 19 96
184 25 187
220 188 213
42 88 21
232 99 198
108 105 187
171 199 179
106 191 133
246 44 13
217 203 107
79 48 27
127 100 77
155 140 8
18 63 199
49 211 90
158 68 101
63 191 82
223 133 22
14 18 74
129 192 58
84 138 131
35 156 172
95 3 161
248 193 33
35 125 169
163 158 9
123 117 98
41 254 51
44 207 60
191 239 219
3 253 91
136 128 178
109 2 230
123 232 72
114 19 161
113 2 98
233 42 154
234 115 88
129 76 100
161 88 179
79 17 186
122 171 185
116 193 108
242 219 63
82 255 154
124 223 63
237 170 210
103 214 51
180 175 63
144 92 58
171 143 80
212 107 156
19 124 104
65 30 130
167 9 68
211 220 111
16 79 44
188 145 169
99 8 67
163 157 183
98 150 20
152 201 146
120 102 236
103 124 31
151 63 79
231 123 238
125 37 16
157 157 33
38 197 127
111 147 249
141 4 5
95 152 120
238 75 32
149 249 205
152 225 234
6 59 204
44 115 158
200 217 219
74 249 226
39 243 118
219 108 83
174 17 49
232 248 245
76 137 236
193 49 7
74 202 48
92 219 98
68 150 206
207 169 160
231 43 154
34 172 185
68 224 44
62 116 162
139 224 3
7 201 230
173 91 32
142 209 141
16 243 187
166 180 81
20 111 167
13 11 105
51 193 181
87 41 111
176 227 60
125 114 132
202 235 153
201 115 75
165 162 82
10 113 68
247 213 98
22 159 166
190 233 91
255 84 113
76 185 8
11 234 60
93 177 51
202 180 165
15 55 212
46 24 227
192 15 124
38 104 70
0 136 12
236 3 54
9 207 67
44 70 245
199 216 34
138 106 191
45 115 144
56 222 30
86 73 165
117 172 186
63 164 207
152 35 141
168 85 66
187 149 152
242 79 90
0 217 12
227 90 180
209 228 128
93 171 94
10 100 48
30 253 80
161 211 78
169 111 213
202 121 114
116 95 184
148 93 248
60 65 167
102 210 103
94 118 39
72 59 165
241 194 225
36 7 144
88 102 7
230 167 131
74 115 136
183 224 155
231 195 65
29 155 113
46 142 114
1 126 67
197 137 106
202 149 184
122 200 162
198 45 165
74 73 192
79 186 96
246 167 227
58 238 75
80 127 254
226 115 40
253 103 36
199 102 221
121 150 117
246 115 158
181 209 18
218 205 214
219 32 102
176 34 23
94 60 50
191 113 158
180 8 65
55 194 191
34 57 34
19 227 214
145 52 173
123 237 1
35 190 31
137 208 120
248 99 244
158 253 3
86 227 91
30 124 38
154 33 58
38 73 125
6 143 59
255 123 104
71 191 61
118 116 222
124 26 42
209 164 78
115 52 44
74 16 29
31 120 87
102 152 182
197 147 7
57 243 224
8 101 57
99 26 165
103 249 34
229 132 166
254 35 180
6 35 207
152 195 204
102 176 188
83 61 232
74 252 49
222 115 178
219 45 7
64 63 10
44 194 123
147 49 8
180 169 21
186 85 160
165 97 168
254 152 92
4 92 197
68 185 22
26 191 147
171 38 162
198 65 147
136 22 132
195 106 100
84 136 182
67 90 13
2 5 2
208 204 197
176 161 82
235 47 178
131 165 21
60 26 215
56 110 47
119 155 184
8 55 202
93 53 44
4 196 224
36 86 233
106 2 113
215 50 96
39 132 200
238 195 161
160 76 245
196 188 108
237 247 239
70 2 227
204 1 213
89 144 156
41 76 39
75 164 126
205 145 182
174 44 175
54 237 213
221 67 55
107 49 233
190 93 105
239 128 16
32 201 80
13 42 158
221 84 7
226 89 242
125 70 55
165 79 59
189 86 56
29 46 120
141 142 106
251 194 103
65 125 105
164 248 172
101 26 84
192 219 107
89 28 45
211 160 227
59 184 177
56 139 241
197 243 148
6 42 118
69 92 184
209 226 231
156 81 193
160 86 203
7 117 36
64 74 204
63 82 146
149 171 22
186 124 169
35 214 231
142 72 85
169 6 137
72 228 84
189 222 53
46 109 57
1 123 92
173 83 137
108 173 206
167 104 22
111 199 2
252 128 239
214 205 242
251 169 129
139 149 92
94 97 8
163 243 100
78 90 60
15 84 248
160 48 214
201 208 208
66 102 64
251 128 225
228 79 204
134 237 167
136 148 187
214 172 97
158 126 30
139 158 121
65 235 204
81 32 0
200 81 179
63 253 203
73 50 205
132 13 205
21 4 230
228 124 98
231 83 62
120 90 55
83 164 1
53 97 173
150 24 88
101 151 164
137 202 142
62 91 125
67 68 239
120 132 98
211 226 176
58 166 70
82 156 66
248 202 135
65 25 50
240 98 196
134 140 170
51 176 39
232 174 179
79 15 133
245 196 208
92 146 1
98 244 153
21 81 166
197 145 14
175 72 118
16 187 211
180 238 29
69 61 56
144 233 164
240 199 7
101 35 138
83 247 30
229 52 52
237 75 235
11 150 154
101 206 191
140 222 72
232 198 5
245 162 208
130 226 170
230 158 8
69 35 236
198 229 99
31 226 76
187 197 236
134 213 19
119 166 17
71 251 235
3 106 25
23 48 39
204 29 66
251 227 215
233 189 79
23 108 90
242 250 101
202 136 13
118 36 54
39 174 135
115 132 67
86 236 248
72 115 238
24 79 83
92 231 204
91 80 252
142 170 108
208 139 130
22 132 90
67 198 187
233 179 215
98 47 254
182 33 81
172 177 44
214 209 253
231 197 116
3 69 173
3 73 193
74 19 149
120 102 61
116 34 43
79 148 96
240 154 37
53 16 180
34 24 255
13 183 148
178 210 247
162 107 45
147 171 16
24 35 55
104 199 26
60 50 228
22 206 251
182 212 116
65 171 137
130 223 131
119 211 29
64 211 103
80 54 141
77 233 89
19 245 68
89 131 235
81 207 126
121 122 197
185 197 89
186 105 164
50 94 151
128 177 189
250 105 136
98 240 95
205 45 24
237 127 121
13 13 241
103 9 175
164 188 177
232 162 52
237 65 77
103 213 94
115 182 121
186 63 190
190 84 148
180 53 134
230 163 72
104 72 248
242 132 223
148 54 165
44 158 127
4 196 205
192 106 231
6 150 2
17 124 99
160 176 1
227 254 152
146 78 71
108 197 226
133 22 34
206 243 157
80 249 180
87 132 102
41 241 55
13 6 15
194 132 55
8 225 200
159 160 206
97 244 225
192 126 125
88 105 216
151 77 250
250 116 242
232 80 69
114 162 62
106 247 253
65 100 236
63 253 81
112 22 134
174 174 39
253 45 49
95 43 135
66 71 166
180 236 177
224 35 75
87 93 174
48 100 209
241 50 217
25 218 27
91 114 105
219 3 168
95 116 15
129 141 66
210 31 26
72 237 203
148 16 21
60 125 179
68 160 163
65 5 207
164 223 194
15 239 160
213 239 89
224 168 129
207 31 168
119 6 29
135 103 134
95 155 157
228 94 63
167 204 159
244 25 28
223 138 150
136 55 203
187 92 6
89 237 197
198 6 34
124 71 210
251 80 178
90 151 202
79 71 179
44 170 182
20 107 0
49 239 163
144 202 184
100 111 167
201 165 150
235 141 53
39 107 3
63 234 129
135 160 224
223 89 61
141 39 188
233 88 60
222 61 126
127 78 179
104 216 144
43 118 182
21 154 187
74 82 65
14 78 124
156 90 132
115 88 205
152 124 121
180 13 67
26 251 38
86 222 196
178 146 35
42 55 20
118 45 75
162 30 100
145 101 160
194 32 12
69 35 65
188 157 140
49 89 162
233 96 79
40 88 86
195 41 95
215 163 52
141 114 100
137 205 179
28 127 131
44 37 185
190 253 123
181 236 79
44 222 36
106 239 228
166 124 69
96 101 139
151 30 225
109 243 192
181 252 3
169 67 39
242 118 233
36 219 253
161 5 196
217 110 203
60 178 204
251 220 2
117 56 116
105 8 77
63 65 255
152 11 150
94 77 48
144 105 186
20 81 141
206 86 162
189 79 190
121 197 41
127 4 25
247 158 8
44 178 138
236 162 60
104 175 170
218 190 180
33 62 59
163 160 216
213 40 178
38 227 80
187 72 224
221 33 192
46 204 192
185 127 198
251 174 208
244 92 104
113 33 84
61 174 35
102 84 148
35 78 5
39 86 188
112 247 179
17 73 64
244 36 71
110 177 8
19 90 195
144 43 67
49 161 70
163 240 160
168 206 51
214 159 59
140 48 204
60 114 25
179 40 138
16 84 126
205 223 230
180 252 114
247 155 115
78 205 169
56 144 228
201 0 47
1 30 184
72 179 167
3 135 82
217 193 180
246 245 209
193 235 235
252 163 101
242 230 223
44 223 37
79 99 40
127 175 28
78 245 28
189 183 17
65 197 250
20 90 157
18 67 37
79 216 22
160 233 179
122 36 40
62 68 182
141 202 234
103 14 103
152 108 158
16 132 166
247 89 193
97 165 151
70 42 209
199 98 235
123 219 128
184 109 47
24 172 96
163 134 144
146 107 252
69 22 133
4 4 109
21 126 153
203 22 124
254 132 16
192 109 124
138 28 237
195 208 74
154 244 139
131 238 217
33 56 144
27 185 191
5 87 226
230 30 153
247 24 168
128 167 134
228 63 181
128 136 201
41 171 240
91 164 15
64 58 41
28 30 134
199 1 119
242 147 238
78 182 15
137 167 191
44 198 158
152 132 242
115 83 212
11 147 198
156 40 138
198 145 69
126 79 144
54 84 246
184 107 209
131 58 72
105 196 187
226 228 200
87 43 25
114 208 120
240 79 114
178 170 13
42 77 241
91 30 18
225 172 127
202 107 119
121 20 162
106 117 12
164 80 17
104 39 209
2 218 188
254 216 252
101 150 100
44 227 204
48 66 135
177 118 225
57 114 250
37 20 21
240 164 115
122 59 250
48 49 224
199 41 34
247 181 24
24 3 129
179 223 77
80 88 139
55 38 18
191 193 76
86 167 77
123 29 216
234 198 9
173 244 7
231 216 154
158 96 210
145 23 66
24 57 42
222 19 57
153 207 101
98 228 189
15 244 76
23 238 208
193 216 193
153 172 151
86 112 192
106 160 52
179 119 149
229 127 17
121 54 114
110 57 78
231 154 71
114 127 224
142 2 242
233 187 65
206 190 148
105 79 188
109 178 13
122 217 197
135 23 235
2 35 207
67 12 25
15 182 87
235 176 219
94 122 11
60 233 172
67 109 187
91 255 160
51 138 186
238 22 54
89 215 237
77 82 114
108 236 46
255 35 119
86 42 74
91 104 226
80 244 96
59 141 194
225 124 161
147 112 107
140 51 185
121 16 206
239 48 164
167 125 136
19 117 243
210 181 220
138 160 76
73 150 114
184 153 207
27 157 172
118 156 147
78 67 14
122 254 239
228 8 69
44 71 188
217 54 87
78 21 111
49 58 73
181 167 139
240 177 30
163 240 44
229 192 91
72 78 179
219 104 229
246 132 252
22 167 8
75 106 53
50 218 29
119 125 6
94 99 191
111 34 90
174 158 80
105 252 221
251 161 164
119 59 129
72 119 57
14 51 58
102 44 118
6 59 239
33 255 23
231 93 225
104 3 239
222 55 236
85 236 189
193 74 42
9 59 147
18 206 139
73 49 45
135 254 216
16 235 181
149 105 126
249 26 194
218 68 189
59 131 32
57 30 92
156 91 97
185 30 79
78 172 48
244 164 237
139 135 135
119 117 87
212 147 131
89 238 189
54 10 184
197 85 184
130 219 57
122 124 123
204 49 99
185 224 93
84 212 35
185 236 107
172 22 50
158 223 184
210 87 39
110 182 173
98 82 58
250 178 45
251 186 200
41 71 17
124 103 140
31 148 192
109 192 159
205 5 198
2 103 214
73 184 191
92 242 184
212 14 115
251 134 14
5 14 91
21 15 46
176 137 142
16 115 150
118 228 10
7 38 148
113 13 216
145 24 154
193 179 245
226 151 234
197 73 218
150 22 74
209 114 12
140 168 187
115 23 54
129 83 136
77 231 36
114 118 219
4 37 221
73 6 154
197 147 192
100 164 47
161 73 9
62 3 106
50 212 13
34 157 154
73 158 78
215 175 157
21 248 245
148 12 132
183 209 74
69 114 193
208 104 88
70 244 35
150 163 202
19 61 122
20 255 143
75 142 105
140 187 20
70 129 23
53 254 205
26 70 203
50 29 185
54 174 178
128 54 247
134 245 1
129 235 165
132 18 191
252 109 103
219 173 39
90 255 117
95 112 12
191 213 40
73 205 201
229 54 248
171 52 202
37 33 235
58 195 66
85 60 230
186 17 124
46 178 4
233 158 41
180 108 229
200 133 243
26 48 109
246 232 101
85 154 123
157 4 226
47 153 92
153 177 71
80 254 170
235 185 232
110 38 132
228 74 64
13 82 191
9 178 98
6 231 252
140 88 117
203 98 183
87 185 171
222 86 175
171 33 254
116 241 144
198 221 64
29 105 235
175 240 198
214 75 165
240 49 141
199 188 186
55 242 174
170 226 115
46 168 14
116 21 115
35 122 122
52 106 200
216 132 182
160 109 1
161 3 213
65 214 43
28 177 109
167 186 68
152 88 22
138 165 248
207 191 222
152 61 242
188 103 43
124 140 29
162 55 136
205 238 172
197 245 24
120 30 67
135 47 121
222 122 242
56 218 83
64 224 39
0 210 80
88 183 195
29 204 3
210 77 19
31 161 36
69 123 116
47 141 131
171 23 22
40 188 233
195 217 237
164 68 207
101 138 230
129 150 134
94 142 60
57 190 202
26 205 217
87 164 214
69 248 213
164 83 152
214 203 171
94 101 43
173 148 212
43 69 165
1 130 38
23 38 194
92 34 214
76 91 126
12 16 122
231 141 54
37 110 198
232 82 110
223 250 129
242 58 18
250 62 2
123 90 20
142 139 13
147 88 158
95 176 3
225 92 212
131 146 217
108 35 207
146 254 162
35 135 205
97 74 232
145 66 17
179 214 67
27 87 65
48 107 37
115 184 243
64 228 85
115 115 39
33 57 126
98 235 51
209 1 84
147 181 25
207 88 83
25 179 154
135 155 64
180 218 1
46 30 1
185 36 217
244 105 29
52 33 27
175 48 198
192 120 22
152 107 123
168 191 223
203 3 7
105 121 86
61 105 253
135 167 135
242 1 99
83 121 118
215 215 50
168 48 212
74 182 236
217 174 163
161 21 44
120 48 104
42 87 47
93 64 69
17 236 245
28 203 62
75 138 131
47 206 145
217 205 208
146 137 179
181 134 218
56 86 185
242 98 12
201 20 144
51 115 221
21 202 166
46 17 239
67 18 81
77 84 120
80 245 53
82 37 234
2 201 37
246 92 105
43 81 227
64 130 133
47 178 173
206 91 159
172 215 179
255 96 44
42 32 253
236 87 129
143 23 182
187 164 76
25 27 79
84 1 249
104 45 213
124 201 120
25 239 163
110 208 57
113 24 42
151 74 217
227 38 158
191 17 157
10 191 92
4 68 36
15 216 143
131 1 32
158 143 42
175 220 71
220 172 118
110 181 29
182 23 93
45 72 56
154 26 242
199 38 234
119 64 228
74 123 118
201 148 5
167 101 81
135 144 65
40 169 63
32 29 98
70 209 200
208 47 16
204 185 252
213 88 22
37 238 9
244 29 31
65 74 103
2 131 116
65 125 233
184 178 122
53 36 141
0 39 67
83 198 144
17 240 242
68 148 74
126 42 66
235 125 14
51 119 23
16 130 5
145 156 78
36 206 60
13 23 151
58 194 118
49 233 78
218 225 163
15 200 216
28 213 27
222 246 222
0 245 166
236 77 182
71 244 81
243 227 1
243 249 146
226 92 12
22 13 136
139 71 232
62 177 85
190 176 140
223 5 250
92 152 10
237 38 31
233 189 161
163 105 133
80 147 145
221 228 84
176 253 125
49 120 254
34 237 123
93 112 244
167 239 26
169 43 82
221 15 246
55 187 82
180 197 254
49 33 39
230 188 53
194 240 114
210 105 195
58 209 235
165 133 160
34 133 48
117 20 194
78 158 247
145 230 181
22 43 250
81 6 84
34 75 146
125 196 124
155 47 85
137 173 196
215 139 132
241 180 129
66 32 82
37 144 37
212 136 28
30 225 138
199 248 208
124 217 229
147 202 122
23 125 78
71 115 28
93 80 72
8 116 159
2 0 40
60 5 118
146 1 140
253 108 69
236 222 181
140 23 36
245 59 172
9 112 19
61 192 13
93 243 6
54 60 103
145 205 189
164 233 160
102 149 134
44 82 165
96 205 208
184 72 161
30 167 87
240 203 113
5 37 180
194 128 95
239 103 177
52 141 19
73 17 196
98 193 110
166 89 16
42 72 225
253 55 31
46 164 242
87 237 147
156 181 132
66 35 227
170 144 205
102 200 34
3 220 254
44 101 172
93 171 147
135 48 18
231 53 88
2 156 95
117 124 220
133 16 244
237 13 40
186 109 166
224 26 91
250 53 54
194 136 118
227 65 6
139 191 79
104 221 146
212 29 156
152 84 224
89 151 217
193 27 54
94 67 4
107 132 233
189 153 20
207 167 156
24 177 57
203 181 111
124 102 209
112 67 151
118 121 244
74 178 102
218 72 103
213 149 2
163 129 28
88 201 159
12 14 192
194 172 173
173 81 217
143 8 34
224 61 226
134 186 101
192 56 132
237 103 241
174 55 146
197 10 73
86 195 181
154 121 221
194 240 216
138 179 99
176 108 93
71 135 249
24 136 234
242 0 143
152 155 103
99 245 62
153 147 57
98 30 38
178 16 78
150 21 92
94 8 44
185 122 255
113 227 125
190 206 15
193 104 39
2 168 58
250 104 99
208 172 251
210 232 20
64 165 44
87 48 218
57 112 3
192 29 202
135 52 219
102 7 184
188 254 159
26 34 111
140 34 27
163 178 108
224 147 8
146 46 105
173 25 136
69 25 20
168 223 12
183 84 85
246 146 80
55 158 74
160 125 153
34 38 100
243 11 119
21 248 3
243 173 217
77 223 203
167 88 9
253 15 63
35 41 214
169 198 65
134 201 50
86 250 51
107 199 242
84 134 88
138 37 254
9 189 232
58 189 157
177 95 163
18 107 209
139 239 111
26 185 40
221 125 120
234 205 202
230 102 248
94 209 177
64 152 100
18 122 2
220 17 39
198 220 105
151 84 88
245 125 150
62 171 192
82 212 115
111 251 89
208 89 145
134 174 255
33 144 252
107 255 238
70 224 184
219 202 17
195 51 183
26 107 163
114 52 175
12 132 44
226 124 45
113 58 168
194 198 238
236 119 7
162 49 178
160 217 227
119 225 202
40 150 7
246 66 82
76 149 52
207 189 172
13 245 173
21 148 207
69 179 149
94 127 96
127 217 148
174 236 177
199 223 95
237 186 249
201 238 40
219 245 96
60 47 41
89 144 22
214 32 78
122 118 168
52 153 44
149 12 91
221 116 236
176 44 35
20 29 58
81 89 176
50 241 216
78 124 105
97 146 246
183 200 44
239 38 229
202 28 242
216 215 59
38 57 114
11 81 60
138 92 79
214 126 11
174 255 196
123 246 113
211 51 112
253 43 238
88 83 91
122 148 8
87 201 211
191 19 158
232 210 209
136 152 190
219 40 179
189 50 173
46 140 75
66 69 46
75 113 100
112 67 121
133 226 150
187 143 171
50 179 217
159 38 30
179 57 197
106 247 86
198 118 198
106 23 51
88 177 237
186 158 116
136 211 135
107 58 86
58 8 44
20 137 216
242 188 77
166 48 218
228 55 182
220 165 66
248 73 0
168 88 62
238 8 217
218 172 178
168 123 90
183 64 207
223 130 200
151 202 36
220 175 128
112 103 253
213 35 198
212 208 176
230 82 50
147 40 232
73 194 120
158 167 140
117 168 204
184 159 142
192 19 146
221 183 245
88 176 83
72 252 12
189 159 135
188 43 129
40 38 133
143 204 137
113 70 26
114 174 214
44 143 210
6 117 66
245 65 207
224 72 87
63 0 198
190 200 168
83 162 185
145 53 181
10 176 134
113 88 253
170 107 122
7 93 71
36 192 242
176 208 122
117 225 167
164 12 1
139 146 34
104 223 166
14 167 208
191 117 131
159 225 221
165 104 53
195 17 255
46 19 221
154 129 112
10 37 213
182 239 224
109 106 22
0 137 117
94 218 14
192 254 238
68 157 164
193 175 39
29 168 91
234 117 17
71 61 31
219 68 184
227 148 5
42 247 158
123 194 136
249 29 89
136 48 215
125 152 247
60 172 247
156 74 233
232 139 77
43 84 181
181 204 147
171 146 93
186 122 250
178 120 156
183 114 4
12 225 14
166 171 90
119 157 217
108 204 129
180 207 80
177 99 178
129 69 19
245 126 244
92 41 177
225 241 110
200 149 161
168 55 157
63 31 178
210 72 135
151 222 19
179 39 81
228 226 251
182 107 154
121 181 171
93 253 98
69 65 7
183 112 103
167 114 58
155 230 51
197 185 213
123 45 160
157 196 13
159 197 163
44 191 171
12 180 92
43 18 158
59 2 156
159 4 170
198 186 236
12 21 118
22 0 82
145 161 61
99 145 2
114 25 28
88 85 231
100 247 96
81 239 83
230 146 120
114 65 134
254 76 188
92 1 77
236 232 10
22 242 121
144 146 40
238 182 30
127 53 153
92 2 125
73 31 140
58 34 87
208 97 89
72 141 243
244 13 137
122 194 51
254 124 88
142 205 133
247 115 72
148 167 159
108 121 115
226 178 41
214 207 125
59 15 242
19 22 159
63 14 57
179 46 77
209 160 228
243 0 25
126 40 174
2 147 75
228 69 15
129 164 181
245 125 201
239 92 240
139 180 230
134 190 139
244 111 187
2 181 191
236 212 147
200 121 131
162 213 252
53 120 72
215 120 157
7 138 112
253 170 109
53 13 166
183 164 221
46 134 86
41 11 249
233 56 215
102 154 229
198 7 170
36 130 93
60 161 135
3 214 113
88 247 165
94 129 162
157 106 136
71 166 189
164 249 134
138 6 68
206 232 3
60 42 42
8 98 65
237 188 210
225 228 196
107 98 148
52 207 95
164 64 231
194 182 74
67 68 12
244 23 184
249 161 90
121 122 146
125 175 152
87 155 115
179 234 255
101 140 158
152 30 99
189 117 27
210 37 180
10 201 218
81 209 249
83 161 221
86 231 195
245 111 163
71 241 7
192 105 4
132 60 19
20 200 72
206 175 134
75 90 253
97 230 35
190 213 162
78 110 211
120 179 186
225 100 152
171 251 108
161 180 179
103 199 36
246 29 223
59 99 198
49 47 213
149 94 241
77 37 12
224 34 181
158 41 225
199 117 49
136 77 200
148 114 94
57 137 85
167 237 252
11 34 19
27 226 104
239 169 88
44 121 137
112 177 233
215 180 229
208 205 226
76 114 240
76 99 223
174 204 51
151 171 194
133 31 216
75 113 155
31 94 95
214 65 76
187 220 137
85 95 192
42 116 119
24 98 107
143 22 127
164 158 23
143 40 89
230 147 241
90 154 17
47 111 247
249 224 255
39 202 115
178 29 113
63 215 140
246 252 44
255 140 51
216 226 127
25 103 158
167 202 231
38 36 221
242 229 223
52 164 139
202 127 8
44 8 74
29 231 67
75 192 11
32 203 87
55 88 113
143 241 66
58 198 176
102 46 144
221 221 193
47 167 38
103 95 98
243 236 58
225 137 104
8 26 67
198 123 211
192 100 226
179 108 182
53 179 51
70 75 221
85 58 199
183 196 188
175 247 35
15 215 164
55 218 158
121 229 147
229 201 136
169 101 252
79 92 211
108 33 59
153 20 208
78 155 74
78 80 97
202 233 84
206 217 118
205 28 101
70 191 156
92 82 155
63 26 196
247 159 93
199 208 56
251 91 176
185 158 63
253 242 59
113 98 178
146 118 10
219 79 1
206 42 40
230 61 143
55 237 236
22 12 83
199 68 30
212 48 218
209 162 19
140 132 245
155 221 11
247 250 23
187 214 198
12 244 223
242 51 187
65 254 89
99 141 173
199 63 81
119 180 234
80 21 113
110 243 123
106 61 159
35 27 66
16 169 0
112 72 3
57 67 71
81 12 198
206 146 194
83 168 1
145 167 64
121 21 6
22 91 196
132 63 32
186 12 220
59 225 22
164 199 110
115 10 11
173 220 114
86 43 69
8 11 165
169 153 200
69 249 19
82 173 1
41 206 114
225 131 225
49 207 247
10 197 195
205 234 11
74 119 68
171 124 27
28 157 130
85 215 89
205 186 255
16 148 77
196 25 129
161 116 34
246 234 210
0 118 35
23 92 153
4 122 136
47 141 129
142 115 12
170 244 122
20 209 210
229 34 213
226 222 35
47 49 74
76 118 50
188 171 149
248 42 127
234 45 144
253 100 220
164 136 144
142 213 29
3 54 255
8 206 167
84 31 156
194 84 122
66 252 33
57 36 28
1 170 124
114 46 134
201 103 40
253 15 38
110 1 6
190 195 225
248 165 189
136 112 194
237 117 39
208 25 236
28 22 71
194 241 52
88 108 68
173 182 154
75 166 178
161 63 128
209 150 168
230 121 206
172 160 172
93 66 32
69 72 90
56 219 89
160 62 145
102 184 250
184 61 100
4 93 216
96 211 150
55 246 77
3 14 67
12 60 79
208 64 224
160 65 47
82 36 125
136 215 10
219 85 135
18 22 213
136 24 127
212 169 68
99 109 218
151 199 174
235 34 147
15 144 220
151 242 1
11 120 170
20 41 195
254 201 173
172 89 196
58 125 219
198 215 243
197 216 233
63 185 198
147 57 8
129 178 254
78 117 70
118 250 233
220 150 215
222 58 201
82 245 99
56 236 117
182 177 241
32 177 102
201 255 203
211 143 84
122 220 67
233 115 169
152 84 151
233 56 44
204 248 187
85 38 132
164 219 251
98 27 148
219 179 127
183 198 173
108 142 7
36 236 35
170 158 87
208 28 5
244 18 196
209 158 107
216 203 59
47 222 144
133 50 100
6 80 205
72 192 88
71 77 160
91 129 23
153 94 42
130 159 176
155 238 191
187 33 32
78 116 11
228 99 58
132 111 103
42 199 69
100 2 34
244 220 240
144 147 72
84 188 77
143 43 86
72 141 151
131 77 59
2 71 101
116 192 222
38 246 45
176 90 11
25 233 179
85 70 201
161 27 104
240 241 153
207 66 55
237 22 7
83 99 182
96 101 76
136 127 46
1 88 133
249 57 110
155 218 253
178 209 203
231 224 108
191 138 92
218 103 207
83 127 118
110 117 238
250 150 180
29 147 163
212 90 27
133 59 61
24 16 117
82 91 141
159 117 198
70 188 156
67 208 64
134 16 124
211 185 214
133 218 115
97 17 182
144 225 143
85 122 203
33 153 183
41 246 13
173 252 246
117 141 131
133 175 69
125 63 255
15 163 231
108 27 175
74 75 148
14 123 7
60 81 65
225 216 149
241 54 42
107 185 31
168 221 142
13 16 15
181 162 215
11 30 103
116 15 173
57 61 200
202 87 141
228 220 229
57 49 138
79 191 12
235 99 139
80 125 70
149 19 194
197 59 48
116 247 216
164 252 46
17 151 87
19 179 112
157 72 205
120 251 190
181 29 60
146 74 178
71 13 74
87 158 225
134 152 34
137 224 161
142 197 231
168 113 171
120 108 163
3 161 223
188 108 115
122 62 67
172 243 93
156 69 151
81 14 118
163 41 237
57 135 167
184 252 125
167 206 211
115 44 105
168 112 53
125 87 53
208 249 195
71 34 186
70 120 146
238 207 244
99 17 59
34 158 245
189 49 181
34 212 167
75 181 100
61 184 245
201 228 114
49 154 199
43 128 82
84 102 99
245 161 123
13 109 167
54 246 216
150 195 202
224 242 45
4 123 137
209 161 86
54 97 14
224 138 77
66 89 216
112 84 8
151 20 233
216 152 75
167 220 233
165 21 30
35 84 136
206 169 186
191 215 5
154 226 134
177 195 155
94 168 202
130 34 138
81 85 74
150 114 115
112 50 33
198 221 5
65 57 156
59 57 180
212 64 72
25 158 48
223 163 212
118 110 38
117 108 168
211 222 174
76 229 148
84 145 174
29 153 204
17 18 96
138 105 171
239 160 252
73 191 207
151 87 11
102 5 116
72 141 225
137 62 171
173 204 44
50 176 163
42 253 30
178 164 59
167 218 127
130 210 45
93 160 8
104 23 88
116 41 48
85 172 202
200 21 100
120 224 193
99 133 42
84 123 55
237 102 113
115 209 9
246 234 64
69 119 105
251 126 195
177 162 213
88 8 110
179 151 76
75 159 242
245 123 83
169 184 134
87 186 28
202 115 209
186 80 203
153 122 228
161 167 101
198 11 2
175 110 116
159 82 41
138 148 190
212 238 118
54 239 190
170 107 245
235 112 170
244 160 83
220 77 46
223 132 40
235 150 213
52 48 215
238 61 19
90 221 118
233 200 13
60 220 195
239 17 216
148 145 47
120 25 233
152 246 60
206 155 163
240 161 232
200 108 150
69 32 65
75 208 130
112 138 137
187 113 203
202 138 63
230 114 56
181 50 50
124 145 95
190 110 123
240 174 154
54 210 146
240 167 105
129 30 161
61 171 87
86 88 7
163 128 99
138 118 238
51 222 142
95 164 244
35 254 104
187 161 151
37 117 128
217 198 157
194 85 186
122 235 145
245 160 117
225 113 117
150 7 241
8 7 81
92 14 246
99 250 93
75 19 229
106 109 243
235 154 130
145 148 238
163 53 174
25 183 156
105 6 230
127 227 93
162 228 114
249 7 106
66 151 211
30 128 30
108 22 121
50 33 117
8 223 2
102 79 174
255 242 126
167 84 36
227 164 2
211 205 49
15 127 219
184 111 222
90 234 112
95 23 230
138 46 57
20 194 1
195 224 21
230 218 132
233 80 137
5 144 255
171 102 253
236 215 14
185 226 203
205 235 85
117 232 234
162 72 95
147 239 52
187 163 112
101 183 235
0 55 79
107 179 176
35 140 107
183 245 100
229 249 31
119 44 161
36 151 134
165 33 106
105 213 249
25 69 98
97 117 36
156 247 75
31 92 72
171 154 11
218 101 70
77 251 76
230 15 112
189 30 169
175 37 79
174 42 136
106 211 168
209 74 85
61 112 185
164 52 71
145 9 106
225 213 80
180 44 130
209 81 123
151 72 231
23 244 97
186 130 23
96 177 154
161 215 189
82 54 219
219 120 255
137 145 186
108 67 77
255 13 130
49 119 207
21 29 85
184 175 122
227 138 109
23 106 72
165 175 10
117 61 40
65 89 192
117 247 116
104 54 243
17 174 92
114 172 124
139 109 143
122 152 66
144 133 61
183 32 237
156 120 98
126 130 206
241 89 230
191 91 14
127 16 149
30 153 247
182 140 138
67 211 124
100 21 5
122 67 174
107 70 217
133 147 166
28 167 2
90 90 194
105 26 241
112 104 91
42 103 157
32 244 196
54 42 114
95 238 215
25 101 0
34 113 191
65 58 102
106 10 203
11 142 11
86 108 11
168 9 31
159 105 168
177 221 244
142 153 212
142 136 121
141 7 42
137 72 166
177 206 45
47 20 37
238 189 188
111 175 146
41 159 220
65 183 24
121 170 212
183 91 11
225 236 73
254 104 116
187 237 139
189 223 187
247 227 75
225 172 178
158 241 125
32 137 169
104 206 66
221 14 161
108 239 176
82 98 100
159 132 90
32 126 136
152 119 1
90 69 86
156 229 213
105 128 1
183 45 132
186 213 9
70 106 11
77 120 35
218 189 61
173 200 255
17 69 218
92 225 35
161 129 228
208 113 145
252 213 34
139 166 69
94 121 130
130 50 36
134 212 180
19 161 238
52 84 106
76 88 71
179 185 220
56 177 141
51 123 111
19 133 178
221 154 121
107 31 129
250 208 42
23 201 245
126 192 91
123 225 58
137 66 235
13 51 45
13 200 4
215 232 72
172 246 27
210 116 21
230 165 167
42 175 203
229 17 134
221 135 80
58 31 4
53 162 240
215 28 228
29 38 117
216 216 165
117 63 37
90 172 193
152 223 60
177 142 89
68 31 158
225 122 118
29 253 20
29 170 181
81 254 160
141 49 130
75 235 244
109 254 10
79 241 61
25 241 233
161 244 206
157 120 217
27 44 190
41 205 212
207 61 164
7 131 217
252 157 197
151 123 71
234 28 215
95 115 134
102 61 60
72 227 83
86 166 51
238 219 200
3 116 34
5 81 104
149 59 31
140 31 74
22 55 254
137 216 21
191 109 117
10 50 221
240 202 153
50 246 6
144 181 87
6 52 247
70 200 247
132 155 212
181 4 234
10 168 19
25 122 17
4 167 247
180 75 14
35 8 137
166 174 172
228 6 23
77 118 222
227 101 187
150 26 73
118 179 248
93 244 104
92 42 94
247 219 149
37 42 199
106 91 184
133 155 35
33 120 123
28 17 228
179 96 40
234 122 88
119 235 2
244 17 2
162 222 113
100 153 117
98 25 53
36 137 210
118 138 58
137 82 130
35 205 170
71 27 80
182 26 111
193 128 225
50 92 111
138 200 218
221 92 135
99 131 82
40 69 180
58 126 194
185 33 102
198 149 157
182 13 85
212 235 240
99 225 155
141 198 212
88 210 53
196 7 63
11 25 45
106 252 19
228 127 177
194 225 16
235 51 235
161 20 114
183 68 31
196 151 180
174 47 102
104 72 133
74 50 165
24 96 27
37 110 159
251 31 105
145 148 93
107 208 34
38 23 15
245 179 246
24 249 97
51 121 182
21 68 147
28 220 230
203 29 177
27 109 64
145 189 42
97 46 121
234 237 235
211 95 195
132 176 200
142 171 137
198 64 12
78 235 109
73 152 72
203 218 157
85 175 92
17 53 137
114 125 171
171 65 115
152 119 86
234 191 78
106 167 93
174 5 201
181 3 15
125 97 27
123 144 149
134 206 111
135 169 176
186 191 201
249 34 70
39 31 227
37 83 184
207 80 101
102 102 216
127 130 155
90 184 1
80 133 115
131 0 119
155 74 12
103 69 93
236 19 15
64 104 45
73 106 247
201 165 19
134 68 187
123 252 249
16 59 113
255 140 39
147 170 207
217 40 46
178 160 44
28 138 147
157 190 231
227 98 194
146 184 110
141 138 192
239 163 242
216 46 205
98 185 152
196 166 75
115 210 165
254 252 90
27 180 255
90 209 82
45 243 215
236 5 44
34 119 11
224 74 252
169 12 149
132 195 101
39 236 201
5 48 184
125 77 98
171 222 21
96 5 176
148 92 48
145 152 65
86 51 140
162 160 142
242 164 149
186 123 151
192 66 17
41 33 227
66 45 218
145 179 38
168 108 50
214 30 14
234 221 82
128 81 176
87 39 138
132 206 109
214 45 135
6 33 124
253 74 8
42 206 3
182 169 240
56 14 99
148 72 228
109 101 205
220 100 96
52 50 132
69 14 165
200 23 106
40 85 53
19 96 144
143 16 101
210 50 110
26 86 150
169 35 70
127 27 246
212 47 253
114 250 20
218 132 226
125 93 193
220 88 142
236 236 166
63 185 187
223 17 22
171 129 146
105 41 9
161 226 102
106 210 52
65 188 133
169 169 105
66 78 120
173 33 166
49 71 28
31 18 121
39 13 160
160 203 7
185 152 15
101 249 172
23 224 183
84 99 206
192 141 173
85 71 242
134 138 251
2 243 202
229 196 233
14 11 9
230 77 3
31 63 222
187 50 81
22 181 170
115 43 96
44 99 246
48 146 132
237 247 213
69 102 139
250 67 196
131 234 152
251 119 92
172 98 27
69 68 90
132 244 186
226 29 73
12 220 60
216 44 164
8 127 62
141 200 131
13 18 233
167 208 43
79 120 245
29 214 69
73 42 58
86 133 190
50 245 225
227 97 5
40 98 50
232 39 23
4 248 168
217 11 169
183 216 126
115 33 172
12 220 173
133 34 67
50 122 37
121 183 135
42 198 178
235 143 211
83 216 222
99 48 221
36 213 104
207 23 145
248 26 239
143 201 150
81 0 146
143 110 126
233 227 201
68 193 74
226 121 0
11 37 121
7 185 44
13 52 16
26 59 31
217 189 227
34 101 218
8 82 64
78 1 101
105 220 48
204 228 199
5 238 158
24 151 13
52 111 94
243 152 52
138 211 84
149 101 115
47 217 251
125 125 20
149 185 158
42 85 179
172 105 229
195 3 43
51 95 216
88 174 138
10 223 111
7 154 198
245 85 20
66 117 225
49 93 150
54 60 110
251 242 170
50 171 222
94 147 198
178 149 50
242 203 126
9 217 58
243 212 215
191 116 145
7 114 166
95 252 236
142 141 232
18 99 249
192 75 138
221 145 55
52 150 98
70 230 45
180 58 47
104 83 107
225 86 201
211 24 199
129 174 24
242 116 32
122 107 134
87 142 36
25 19 123
197 102 10
227 171 5
86 51 246
137 226 125
122 59 121
157 78 49
178 51 86
195 100 208
244 231 170
215 177 119
171 30 181
84 204 146
64 171 62
242 39 81
218 243 154
197 142 131
80 8 62
34 238 242
43 158 137
139 201 244
230 85 65
56 244 207
227 236 197
190 10 65
149 72 196
178 8 6
157 152 220
100 9 210
232 15 177
177 55 160
90 39 163
134 4 189
114 68 8
43 181 248
252 78 46
203 171 193
139 41 223
244 143 80
69 55 95
180 122 175
41 64 26
16 31 69
239 124 104
144 67 20
172 125 46
171 114 134
208 114 125
49 83 192
27 229 131
120 40 74
131 154 220
71 117 227
174 168 185
220 168 61
51 244 215
22 228 200
198 87 247
146 103 148
228 89 135
158 216 107
182 103 149
44 241 199
140 101 51
173 163 26
86 14 82
34 41 160
44 90 205
0 156 150
186 169 203
0 167 40
157 217 228
75 20 39
78 147 140
154 98 30
219 20 81
116 31 166
104 163 87
223 77 8
212 143 242
0 0 103
188 218 251
202 217 45
166 122 168
168 130 193
159 109 230
183 101 18
53 35 248
133 160 90
22 238 52
209 160 179
118 56 21
152 91 217
154 75 135
62 131 216
118 149 119
147 86 82
59 185 141
91 87 113
69 55 76
35 138 240
23 143 209
47 220 198
58 118 17
35 138 64
6 146 45
195 149 183
118 103 248
239 168 119
70 110 16
94 18 242
144 133 86
54 143 228
31 148 123
195 245 159
120 56 155
45 32 33
134 108 249
167 128 151
79 120 32
238 162 215
223 180 16
102 245 116
21 17 141
255 252 172
88 40 129
226 212 63
76 142 195
247 136 147
40 25 239
246 57 156
207 61 76
136 127 209
155 126 164
174 6 226
200 69 228
123 213 251
119 6 45
217 189 79
59 163 26
22 239 142
10 36 171
201 107 233
83 19 56
233 60 9
30 240 129
171 1 198
176 239 39
189 195 131
1 166 75
246 93 142
23 251 87
95 136 221
64 122 43
48 79 118
107 140 44
56 4 135
247 207 48
176 178 24
215 183 112
37 46 158
94 210 70
214 250 4
247 108 64
45 200 110
219 131 11
198 217 199
145 131 218
246 203 126
144 172 123
205 29 243
245 155 204
77 119 41
150 252 230
161 188 4
13 52 97
129 112 195
180 76 132
11 100 222
253 73 17
87 79 149
60 169 37
134 221 204
124 3 8
209 252 204
121 244 165
225 122 108
166 4 78
99 76 167
150 182 38
211 148 50
23 137 234
72 221 11
169 67 233
101 177 43
157 182 96
64 61 73
163 67 158
111 70 105
77 133 157
14 204 70
233 243 104
147 214 97
26 38 98
221 96 102
4 80 35
146 30 221
140 94 95
50 207 85
196 135 57
45 18 228
144 125 178
2 138 175
74 16 80
121 230 247
231 157 21
79 75 181
132 245 216
156 202 20
122 44 131
189 96 234
231 59 202
151 251 186
175 23 113
24 181 106
210 133 67
64 79 217
41 23 46
234 30 163
44 89 145
165 127 126
228 252 230
1 129 219
60 163 2
176 185 35
123 144 114
175 250 219
224 254 164
102 164 224
161 48 173
42 223 187
169 172 130
117 94 165
122 178 102
79 167 25
162 76 36
246 225 193
77 37 167
61 105 144
123 244 120
244 181 137
182 57 31
249 173 36
124 74 201
250 46 48
116 19 127
55 109 148
1 19 56
103 220 74
152 39 179
183 1 163
28 168 238
80 189 29
195 105 251
172 12 148
115 243 122
160 218 47
51 20 9
8 245 112
101 107 209
240 217 187
14 46 255
252 7 253
171 182 63
195 123 203
255 55 1
64 240 163
8 44 48
111 126 155
239 131 138
195 10 237
49 21 185
107 171 86
51 124 109
82 41 118
135 58 230
3 157 251
217 64 2
56 255 61
154 118 135
160 146 20
251 48 140
121 128 171
146 219 125
70 61 32
156 215 226
217 124 132
92 185 83
85 82 222
9 105 29
124 72 92
39 95 45
110 100 164
126 76 38
196 226 199
248 1 68
72 45 54
104 100 87
94 41 122
151 136 124
79 92 203
206 186 171
87 5 130
46 85 109
181 133 244
176 147 187
13 176 30
175 114 241
152 182 8
85 173 6
162 32 104
68 254 140
26 218 13
6 136 52
178 82 50
248 150 85
147 111 211
149 14 108
19 219 158
138 81 147
30 202 99
75 247 16
61 104 166
200 65 120
205 108 195
127 24 86
162 227 56
12 121 69
84 92 236
220 196 186
85 171 130
70 252 197
53 118 233
53 38 219
214 80 214
132 61 137
47 156 58
247 227 246
242 10 161
243 64 87
171 224 26
55 0 63
95 83 235
218 249 242
172 222 235
209 187 101
36 36 189
59 50 22
0 186 80
108 102 167
140 87 220
63 46 20
234 40 121
179 238 92
232 186 40
211 127 55
149 186 248
35 65 179
86 216 146
244 176 134
109 157 227
210 96 14
105 130 248
159 72 204
150 122 172
140 43 51
198 251 147
154 153 117
57 60 90
229 49 175
202 92 201
5 157 208
106 96 3
60 250 207
108 170 104
149 253 233
69 62 114
204 3 105
225 176 102
166 177 137
152 183 218
59 36 156
154 118 70
137 158 91
143 202 49
231 95 141
215 64 31
117 89 164
166 165 5
203 43 166
138 85 25
158 179 133
126 102 233
173 245 213
179 16 96
222 252 158
189 113 188
144 12 206
244 78 25
171 188 78
131 151 36
238 116 98
197 164 178
244 236 244
35 89 187
190 112 204
46 57 83
157 189 192
161 77 211
222 160 140
119 46 41
113 169 186
241 211 73
141 130 41
165 178 184
199 17 8
31 148 143
216 203 25
183 185 79
179 172 181
202 253 145
115 222 51
189 109 93
33 142 145
241 147 98
217 196 232
147 43 193
237 249 53
33 127 224
231 170 9
148 79 17
111 157 119
136 250 203
135 42 203
206 221 172
172 213 213
150 47 52
80 113 69
6 177 84
185 134 73
142 232 56
213 158 233
143 215 53
143 58 173
124 207 245
96 11 184
105 109 189
196 243 45
36 175 249
26 98 217
255 236 61
244 252 81
199 32 250
133 84 211
66 111 25
213 117 26
8 219 194
208 205 214
157 65 157
176 190 151
21 128 217
51 137 57
116 168 180
1 16 62
96 116 132
9 162 186
78 155 246
139 20 92
99 94 210
52 130 170
150 95 181
142 199 177
161 28 82
35 64 9
148 198 201
57 191 208
34 56 248
38 174 12
90 98 207
3 165 131
175 198 87
86 168 209
187 242 148
34 148 131
138 102 168
205 85 160
80 87 3
148 86 21
88 151 0
174 226 19
142 97 189
120 190 26
126 218 37
177 170 252
106 181 108
211 19 75
13 74 66
3 124 197
244 163 150
195 128 232
60 218 91
249 153 26
247 52 12
225 91 94
251 120 235
44 51 66
205 152 143
101 0 137
221 214 71
208 185 179
152 211 201
142 58 172
244 105 113
41 219 136
111 11 209
9 248 136
119 81 167
50 172 57
8 246 50
49 241 14
65 241 187
135 17 121
76 190 90
28 216 149
250 171 202
49 157 96
99 83 104
132 149 173
153 56 187
9 227 149
111 82 40
5 208 94
208 5 142
91 2 109
208 58 46
172 85 61
248 144 7
119 161 70
232 218 242
42 247 247
123 98 54
212 20 235
38 199 89
22 213 232
88 26 141
196 88 151
28 34 39
201 113 242
241 23 163
121 29 136
18 8 100
52 28 142
24 208 199
66 87 219
219 90 110
37 16 147
96 163 45
67 120 57
99 202 181
162 97 4
223 196 78
239 221 94
136 8 108
191 208 158
45 85 81
166 111 149
250 11 188
93 55 32
190 169 3
138 56 206
115 171 228
151 111 134
130 239 96
232 123 207
232 152 14
106 177 25
9 134 222
249 22 187
23 231 203
238 15 107
98 174 141
215 91 21
173 224 185
93 71 173
213 104 23
130 149 202
24 68 55
85 58 90
179 49 116
184 53 145
88 122 97
64 41 173
96 138 116
23 197 163
157 208 7
177 157 45
41 1 173
192 252 244
75 131 159
175 181 213
1 65 243
64 117 229
242 137 74
97 228 155
129 95 7
90 114 68
190 123 150
44 30 255
113 169 112
147 219 178
183 188 221
255 248 25
56 55 48
5 151 109
72 104 169
99 97 83
158 164 59
119 118 71
186 133 166
60 246 129
51 250 223
241 100 55
36 58 3
172 123 169
32 210 218
118 137 125
190 0 92
207 21 165
184 255 44
47 130 153
194 57 227
65 111 155
11 104 15
117 3 251
84 252 179
125 129 251
255 213 15
119 11 141
67 194 47
82 17 50
211 148 87
213 142 65
146 204 111
88 86 183
211 7 202
76 149 81
166 145 102
235 94 30
68 130 159
95 199 62
161 147 154
137 186 235
232 209 85
106 118 154
9 112 126
125 103 47
23 235 161
13 22 99
130 140 92
48 40 106
248 74 160
128 84 175
113 34 51
252 59 172
190 101 200
247 70 114
20 207 152
204 114 93
53 34 31
236 125 62
106 87 180
225 118 82
68 71 109
178 120 131
195 153 88
248 74 198
165 124 167
115 240 184
12 3 95
83 168 129
224 198 238
116 123 209
70 51 44
209 181 27
175 106 104
170 10 141
88 44 220
9 249 55
188 107 4
16 62 97
255 188 168
52 178 92
107 42 172
217 252 205
81 8 219
98 47 184
62 234 127
168 50 84
252 141 185
140 158 88
185 55 46
60 40 223
231 236 123
177 13 75
244 100 49
146 102 35
217 66 188
53 235 163
194 72 213
55 2 71
206 243 137
92 10 88
66 233 227
78 23 212
107 29 202
99 131 72
58 120 230
162 65 145
119 145 22
83 187 245
42 164 131
0 59 84
96 57 28
156 217 82
226 29 200
163 210 37
209 44 94
254 164 144
57 171 43
155 195 210
95 91 67
66 230 157
14 184 128
184 95 203
62 192 179
209 228 120
214 230 52
133 216 77
182 28 226
112 129 20
190 83 198
98 78 65
194 147 150
27 5 32
39 100 214
71 30 232
91 231 235
156 133 236
143 226 186
244 234 229
85 66 120
126 24 157
179 164 154
58 141 98
66 161 178
181 92 133
220 208 134
104 180 71
178 99 65
84 24 201
135 18 111
124 198 228
184 249 26
188 249 85
164 167 85
231 37 76
77 150 173
254 99 193
58 155 135
101 106 134
210 38 67
32 164 135
167 10 123
108 19 152
35 69 38
235 182 130
67 215 144
150 23 97
45 171 5
46 169 129
106 109 208
184 112 173
53 117 31
124 94 57
141 174 95
182 60 181
159 91 200
102 54 243
38 6 105
109 56 68
11 151 189
170 47 174
136 129 72
179 163 126
160 250 172
165 242 212
78 40 216
24 171 70
246 196 61
220 149 171
12 139 41
254 145 103
37 142 248
7 151 101
249 78 89
199 52 51
110 0 134
121 204 10
74 113 139
134 226 122
86 63 41
215 145 118
210 52 91
221 224 59
41 53 247
6 77 164
54 174 243
137 113 206
102 143 245
107 100 101
72 193 63
141 3 50
66 223 237
160 47 21
144 121 123
16 81 130
105 74 201
111 192 18
103 247 142
111 221 30
172 66 10
43 102 195
136 119 246
141 180 98
77 60 204
164 109 45
223 100 245
100 245 251
250 230 174
134 251 143
245 246 170
110 120 180
64 243 90
137 64 200
137 26 201
125 73 192
106 172 162
21 210 99
194 85 64
227 73 10
45 98 134
251 142 225
95 7 253
236 255 46
210 124 112
22 168 158
127 86 21
212 53 33
149 97 245
4 200 125
223 98 119
90 34 64
249 223 150
195 241 92
247 159 203
128 7 233
106 52 68
178 200 152
27 236 253
243 141 5
112 47 78
70 169 212
210 1 123
205 48 38
101 132 212
250 241 132
244 190 115
173 12 199
240 37 72
80 147 72
161 179 65
93 137 230
217 199 64
95 29 111
127 41 247
181 214 112
171 165 42
65 249 95
72 107 208
206 59 186
28 214 76
47 154 244
193 161 67
98 242 239
85 43 145
128 132 77
236 220 156
191 13 194
171 26 80
163 115 143
39 46 36
126 103 92
200 193 140
181 100 152
76 25 229
1 169 170
161 92 238
95 242 111
168 143 98
27 139 162
168 3 190
219 213 183
190 96 54
98 124 87
85 106 90
38 58 2
192 247 65
92 14 240
59 79 43
214 213 246
63 163 153
168 126 120
125 24 145
91 138 246
157 15 229
99 170 203
208 80 206
234 52 85
184 159 46
143 45 91
123 163 18
191 90 7
210 80 137
127 131 12
112 130 248
255 101 56
14 185 30
59 57 92
157 83 41
211 180 70
79 33 136
173 240 184
94 208 39
174 1 133
160 168 105
162 11 128
42 65 104
207 226 80
75 59 234
199 237 35
139 158 126
52 80 42
24 37 0
4 91 56
207 186 240
234 101 208
23 129 106
134 243 65
115 243 39
97 245 243
199 117 183
255 129 186
177 194 208
26 32 29
13 224 63
254 147 249
55 26 17
117 52 21
76 2 103
56 176 11
222 137 107
110 7 50
31 147 223
154 168 184
46 15 247
104 16 244
111 128 125
77 220 9
37 156 189
154 230 131
137 78 31
60 154 149
211 63 30
124 185 98
57 161 48
163 116 153
193 72 71
17 95 85
158 103 188
42 65 104
139 58 181
47 62 81
218 32 122
113 31 5
47 224 219
160 5 2
65 114 11
198 147 98
202 46 41
97 29 215
30 116 67
141 251 134
160 188 117
211 248 12
37 117 165
78 241 4
17 181 255
234 148 47
119 159 81
127 236 65
60 82 166
214 103 204
233 27 247
91 104 52
4 181 26
215 144 236
236 205 27
57 190 165
132 49 208
169 149 234
131 197 77
45 142 149
14 87 232
27 184 6
151 14 201
13 213 157
183 239 3
218 101 113
193 28 211
201 191 245
117 211 187
222 89 166
14 210 201
210 82 120
89 54 85
101 101 140
87 158 190
52 110 215
168 53 224
145 161 46
220 55 77
209 107 202
168 152 103
135 223 29
245 55 166
4 171 235
169 232 158
227 50 58
60 55 39
71 252 218
138 43 152
3 217 5
30 227 35
19 65 161
225 124 123
154 51 166
143 226 223
215 198 86
198 116 93
65 209 97
248 160 113
11 145 213
207 28 202
167 234 249
170 138 20
214 139 50
3 4 163
116 10 76
180 214 93
187 92 193
191 178 145
239 26 150
117 115 253
142 25 71
169 46 195
155 223 121
70 176 1
224 222 58
182 164 32
229 24 46
127 230 158
48 164 184
34 36 239
42 10 95
178 52 146
225 148 134
0 29 81
14 59 130
59 175 34
225 85 132
122 121 147
107 43 43
116 76 15
243 116 58
206 80 234
80 218 196
27 2 37
137 113 168
130 39 169
174 157 113
10 56 222
138 216 131
36 49 9
247 180 196
144 129 81
122 236 183
206 107 83
220 181 10
85 216 181
118 120 209
79 150 116
240 147 187
47 150 26
203 219 31
210 9 114
127 202 132
77 208 128
101 176 247
251 59 183
180 249 88
205 202 163
219 111 6
78 216 249
23 180 20
4 224 89
252 55 177
134 200 164
216 109 85
194 244 23
125 78 140
12 203 47
123 229 3
98 126 152
47 23 3
12 29 135
185 68 6
143 228 111
46 239 176
75 196 106
132 187 69
50 77 213
30 192 133
172 215 65
226 178 122
234 49 204
250 218 168
221 211 226
55 170 106
120 9 227
167 224 80
7 48 189
192 159 231
206 138 157
58 86 178
69 244 233
205 130 51
49 172 249
51 75 9
93 122 157
157 167 20
144 39 184
247 150 191
106 49 223
254 107 238
203 183 24
111 184 134
37 7 122
150 165 248
71 23 115
171 208 158
223 135 6
118 45 153
93 156 205
12 216 254
47 41 244
143 146 118
254 38 120
117 130 46
214 17 226
19 87 217
245 57 198
52 232 108
122 86 73
104 195 165
252 23 75
102 57 243
6 49 170
253 2 211
169 2 239
202 122 252
1 71 118
162 91 10
69 253 47
36 174 16
253 68 90
163 175 47
122 161 173
249 154 203
176 18 16
118 251 18
168 68 137
102 202 248
21 8 172
219 200 32
60 165 191
224 34 47
70 164 216
147 99 208
210 247 153
217 247 75
26 252 84
149 24 54
216 255 159
103 179 11
110 176 159
145 85 213
26 128 131
155 247 182
44 214 25
130 14 207
22 38 4
130 120 12
185 93 125
132 251 25
254 150 106
136 145 4
241 198 230
120 28 244
230 11 211
78 48 131
154 253 110
217 68 5
142 52 132
12 78 149
18 136 51
109 56 92
146 94 219
197 209 68
35 88 110
10 235 143
207 160 40
68 152 92
86 199 127
209 28 67
198 145 77
167 234 195
229 70 171
87 137 157
238 212 59
167 89 255
114 121 245
216 122 174
153 225 119
11 239 21
109 251 177
202 235 187
44 13 151
181 104 157
234 252 55
146 88 212
14 56 9
188 230 64
43 5 136
186 98 176
205 169 26
126 24 101
192 230 138
141 246 97
177 179 250
69 150 167
174 153 89
163 213 239
52 98 68
192 243 164
141 219 125
41 192 115
111 51 250
152 35 246
245 118 106
129 149 13
240 130 73
243 68 14
34 71 252
148 222 65
19 9 60
129 104 167
38 52 255
24 173 219
43 99 241
110 215 11
86 227 66
24 239 189
247 46 254
143 12 8
204 142 89
111 93 15
172 82 244
56 57 136
215 121 40
182 20 226
61 61 38
241 154 158
8 183 74
244 21 240
69 177 183
12 87 221
219 132 145
148 107 229
26 29 77
11 36 105
24 29 54
211 138 138
199 154 177
197 215 136
212 232 106
30 199 227
102 175 114
92 46 174
240 110 31
55 29 126
217 194 146
56 172 106
148 206 94
85 214 69
155 201 25
83 244 241
126 73 233
207 65 182
127 186 139
212 224 142
88 61 231
211 30 55
195 147 99
86 130 124
191 151 63
232 73 22
218 87 24
192 242 248
57 173 139
51 214 202
6 201 5
53 101 199
115 22 6
231 103 55
126 138 99
153 166 93
246 27 18
183 41 202
201 225 144
162 205 91
73 179 27
198 58 159
237 45 244
4 173 210
186 161 29
192 86 109
9 116 239
155 6 15
52 17 48
132 60 231
145 233 184
66 26 78
155 86 41
26 26 63
88 250 135
62 45 197
47 127 74
26 19 128
248 127 237
88 27 194
105 216 25
78 206 186
216 37 130
14 27 73
228 88 221
205 21 220
218 233 91
241 40 90
76 13 237
184 148 191
152 211 66
111 187 14
7 217 12
237 121 106
215 25 59
172 145 237
234 255 220
51 121 101
76 39 91
76 233 4
143 32 223
214 21 159
163 105 195
10 124 241
77 203 220
134 156 206
192 243 79
22 221 6
173 198 168
3 153 186
219 92 29
54 112 24
89 217 244
211 164 72
39 140 24
225 63 119
190 28 137
17 43 124
17 215 110
91 196 63
33 17 107
96 139 14
226 202 59
110 123 243
235 56 129
50 97 38
36 17 237
14 134 218
208 59 36
254 51 166
114 112 199
112 135 95
175 10 199
80 1 48
92 208 183
171 160 238
226 66 73
157 175 204
77 156 52
102 211 118
192 219 226
38 115 200
160 47 55
53 67 134
63 34 196
148 67 73
186 138 236
118 55 60
139 227 227
5 3 74
191 160 80
177 194 129
134 250 94
203 20 195
176 237 219
70 26 139
33 189 217
239 85 124
90 98 90
140 107 195
53 84 117
95 123 88
243 170 138
136 126 118
222 205 161
238 183 89
128 169 157
247 219 41
52 194 148
237 192 136
240 66 82
4 255 128
108 30 112
230 219 150
1 6 70
78 207 88
135 13 33
77 207 63
189 11 61
210 57 220
91 24 47
72 135 55
31 180 224
151 124 133
86 138 218
74 147 161
72 103 163
168 215 51
30 89 67
99 130 192
245 156 15
253 184 118
176 249 152
55 253 223
239 185 161
124 231 226
120 112 113
94 22 185
150 217 9
21 206 179
34 116 159
136 196 108
206 255 219
21 34 170
145 206 71
186 26 77
15 229 170
184 25 85
253 234 90
5 154 137
182 159 255
2 31 250
81 116 148
235 181 100
36 208 198
81 175 204
247 33 162
111 95 84
169 233 49
190 242 133
235 55 45
199 141 254
106 24 233
136 142 210
160 156 47
82 222 128
238 114 62
189 126 23
44 116 119
52 239 201
173 144 113
237 40 54
168 75 198
174 167 25
144 199 191
26 43 228
197 207 79
41 227 19
143 157 196
110 249 71
20 151 181
40 177 189
95 55 52
176 82 151
45 63 113
252 175 244
144 45 163
189 94 223
199 124 76
64 235 20
160 99 99
52 37 211
213 49 209
247 52 164
147 155 188
149 166 126
162 67 88
122 155 237
251 73 82
115 174 151
241 24 165
24 97 131
160 75 97
179 31 11
110 254 65
94 164 110
158 196 146
222 93 141
201 100 48
204 143 160
60 68 221
20 41 133
171 63 34
140 31 163
233 84 117
49 102 165
197 166 241
113 248 233
151 60 165
14 211 106
204 123 217
16 118 242
3 247 203
194 61 184
95 198 118
89 135 241
41 67 241
193 70 101
128 137 50
142 180 106
214 22 182
25 20 22
244 217 25
22 127 40
249 252 111
237 133 110
119 44 66
102 173 39
137 245 243
40 34 123
79 233 103
28 45 32
15 180 163
102 6 197
93 241 224
247 34 76
200 13 144
119 182 111
248 75 45
144 204 88
42 216 82
91 3 136
32 86 129
154 159 238
33 44 207
204 234 242
53 6 17
91 156 185
33 166 82
33 0 227
129 253 137
47 147 92
35 248 152
10 170 114
72 152 9
84 240 187
189 126 124
195 211 206
227 206 155
183 244 201
66 97 162
137 22 19
74 67 214
241 18 133
141 99 184
188 199 60
232 94 148
120 61 70
89 76 1
196 238 67
121 112 94
188 116 75
142 224 221
80 8 105
109 129 34
3 220 247
175 16 114
91 134 218
62 192 103
227 102 88
154 79 2
21 57 38
228 142 106
21 25 123
221 209 127
163 111 145
77 80 158
133 218 189
3 115 192
238 195 38
68 232 13
235 41 123
55 175 154
126 9 89
179 66 80
180 214 255
33 175 43
58 174 213
8 11 91
253 161 150
137 147 233
150 42 41
6 169 72
234 13 187
136 194 146
135 102 90
154 201 208
211 183 180
111 118 146
60 78 124
144 227 81
176 157 91
94 149 126
160 27 120
119 47 95
249 207 133
227 31 214
162 159 13
26 122 222
43 135 129
120 123 148
4 44 193
127 224 246
60 174 48
172 152 72
139 81 97
147 130 138
40 204 99
130 158 35
156 229 196
224 251 132
164 206 137
130 122 49
1 248 38
243 9 252
81 233 153
147 116 48
241 188 252
231 58 83
59 101 91
106 169 34
214 19 86
64 157 66
246 2 135
106 39 60
185 254 119
1 48 130
220 254 204
141 105 29
54 48 137
207 59 142
147 196 197
191 154 108
91 113 1
46 59 72
201 164 220
178 154 204
23 8 225
96 179 171
130 62 230
229 158 209
114 157 58
217 122 215
248 10 240
139 170 244
18 24 141
234 197 147
239 149 41
39 161 117
85 216 224
80 145 210
142 19 145
62 231 24
61 39 150
212 32 140
133 231 146
195 146 29
9 123 235
69 14 145
71 188 177
202 24 100
148 102 92
71 252 214
12 221 179
103 168 46
91 97 232
26 224 122
29 137 31
172 233 185
209 90 239
96 76 88
60 245 246
177 209 73
76 242 133
208 132 145
137 35 19
168 133 236
84 142 185
31 81 113
23 156 251
231 248 246
188 192 83
131 247 49
140 209 86
47 66 34
133 13 250
249 212 222
80 78 212
142 85 117
21 214 96
7 249 112
187 244 1
234 142 183
8 211 64
186 131 218
242 172 75
193 235 16
170 182 241
100 214 40
205 192 47
10 106 151
143 177 203
64 22 104
120 250 255
221 248 153
74 166 20
16 187 74
182 97 120
171 33 153
26 246 163
226 72 149
246 107 230
121 175 26
209 81 150
228 0 248
163 182 110
33 32 168
101 73 72
126 62 151
28 180 210
146 156 193
62 11 59
229 229 190
91 80 126
86 116 238
194 65 169
55 166 74
227 103 21
150 140 81
175 242 113
170 149 242
60 52 7
253 90 98
16 22 60
51 130 187
156 234 237
240 78 10
96 128 246
239 166 187
81 171 161
106 194 133
111 182 13
39 228 70
115 206 29
174 174 50
111 1 167
236 69 43
121 51 57
58 177 144
189 156 37
147 161 204
73 107 4
194 125 68
154 99 249
185 156 186
172 132 50
19 213 35
201 190 167
123 228 138
114 197 52
79 40 11
148 57 100
197 83 60
153 195 75
223 52 49
44 115 62
75 205 89
87 173 17
135 204 232
139 194 147
241 28 214
91 77 162
163 129 174
98 61 124
104 114 102
189 88 45
35 23 197
15 65 128
176 38 54
210 249 13
115 193 157
153 4 150
106 164 138
247 139 6
104 10 62
95 249 185
164 61 159
104 137 91
240 169 63
161 75 167
103 197 246
0 179 38
122 177 2
224 85 7
201 200 33
190 106 75
24 157 38
165 249 252
107 26 240
12 36 77
142 77 247
151 59 5
110 14 31
91 59 167
53 22 230
233 213 224
40 118 54
66 0 151
33 48 44
110 250 84
229 86 8
0 250 193
77 79 34
77 112 62
150 222 215
10 45 11
100 232 81
186 114 172
119 204 21
58 59 9
10 175 221
111 153 123
218 84 57
39 6 153
206 70 233
38 108 186
58 210 3
40 111 253
191 98 120
215 227 221
168 94 17
169 89 86
71 147 145
49 87 8
205 188 223
129 29 43
102 142 188
151 91 154
238 90 100
185 193 116
12 186 169
11 14 91
210 243 212
217 255 198
149 78 86
201 54 142
248 83 16
144 181 181
160 57 83
148 190 73
71 218 148
94 0 65
71 208 162
184 228 110
130 109 85
63 143 63
47 0 208
35 142 199
106 136 117
242 86 0
142 40 177
250 252 111
102 123 106
183 146 133
164 35 212
36 49 179
0 143 242
138 71 35
72 6 82
41 62 221
53 3 91
92 221 83
26 93 128
129 69 31
154 9 76
73 64 231
112 62 10
100 152 221
79 5 105
231 186 208
60 221 206
84 137 58
64 79 210
13 157 51
54 214 0
74 6 49
96 243 207
16 253 99
190 91 248
158 100 108
111 83 154
47 24 141
101 192 22
72 124 123
8 240 94
56 192 88
242 130 57
107 32 34
203 76 175
104 100 221
184 121 55
165 50 15
211 19 78
216 79 38
87 58 164
171 82 67
255 36 254
146 247 57
74 9 163
193 34 70
228 175 188
127 222 212
235 36 75
34 7 169
146 42 86
96 159 111
141 44 218
248 199 150
173 245 89
17 119 229
12 65 231
150 213 100
28 155 195
249 222 109
194 21 202
111 122 171
173 62 38
130 170 99
249 120 247
182 16 138
100 133 90
144 31 203
10 124 78
106 186 31
254 126 95
253 210 171
236 206 187
198 114 0
244 128 159
43 4 50
180 110 170
178 115 109
81 30 196
145 112 172
173 18 16
241 199 141
28 241 110
39 245 13
31 219 66
189 113 7
233 175 138
33 205 198
251 6 7
49 19 33
119 63 252
142 53 101
2 182 46
144 198 217
1 17 23
144 77 162
214 240 248
46 230 250
140 76 205
55 12 154
229 47 167
241 139 118
86 94 239
98 170 34
57 82 231
238 71 223
213 26 204
213 253 10
20 183 189
100 219 61
66 134 142
79 163 90
92 209 159
152 226 226
146 193 20
31 179 239
12 5 169
98 38 35
102 240 78
232 161 181
8 139 244
139 206 104
14 215 143
111 128 158
129 176 247
108 221 73
162 148 16
160 166 122
162 235 164
236 92 71
113 170 143
117 119 15
81 63 184
50 155 233
207 67 21
211 58 95
110 89 188
171 14 43
45 77 219
16 44 103
141 127 133
196 134 224
23 93 248
128 130 209
207 84 219
45 1 245
9 91 218
170 91 99
215 184 216
202 42 30
204 50 32
89 97 160
252 133 56
193 205 1
32 18 189
133 64 59
11 10 7
197 227 245
119 17 109
158 153 64
145 255 165
10 132 30
49 76 78
51 249 212
166 244 0
155 94 5
7 147 144
186 38 154
29 91 149
127 219 130
97 224 251
79 136 104
229 97 41
236 121 211
10 115 238
150 109 124
15 221 223
50 250 2
73 171 119
191 82 62
72 51 205
155 125 103
16 95 225
253 219 245
84 22 163
203 13 206
118 87 185
187 163 17
124 185 210
98 203 239
26 81 99
101 70 167
107 204 120
187 79 1
134 250 53
163 138 177
152 72 217
46 85 116
90 117 120
62 142 59
52 174 112
26 161 79
94 16 66
56 8 131
9 246 144
219 144 64
230 66 13
243 37 87
11 218 171
150 126 82
112 105 74
49 29 238
133 157 225
0 216 112
193 250 99
65 38 49
163 145 230
108 56 126
78 191 153
97 252 170
14 181 203
21 129 75
21 10 135
192 62 41
35 177 237
247 83 224
209 5 134
185 103 90
11 63 116
70 156 46
228 173 46
62 1 49
31 155 171
90 237 129
150 84 251
40 249 214
116 80 80
148 239 203
110 78 101
140 153 184
192 224 102
84 55 183
20 135 121
133 184 135
181 78 246
11 62 137
183 197 109
176 166 5
206 79 75
7 165 222
138 40 56
232 10 112
199 28 206
76 172 207
149 233 70
177 183 104
127 27 191
239 49 200
0 206 31
119 211 233
9 18 96
170 29 11
210 12 63
22 21 231
23 96 243
44 39 136
30 244 40
32 160 3
192 10 243
28 203 227
233 143 30
145 214 49
93 123 77
45 134 56
204 224 54
115 151 38
27 175 174
240 127 62
32 7 149
10 21 0
60 97 94
253 5 183
221 254 139
101 59 164
97 28 211
150 96 219
86 182 91
179 101 1
26 234 144
85 164 72
134 191 201
29 198 134
54 199 179
147 236 68
139 93 230
173 243 68
1 252 153
136 140 2
217 66 85
23 19 20
11 187 110
171 5 20
15 114 171
163 63 213
34 156 64
177 231 201
183 18 27
129 251 168
107 254 107
236 109 203
200 210 190
149 126 148
41 155 20
173 95 43
150 54 170
244 196 1
76 76 222
225 159 79
114 185 86
16 77 83
89 32 165
25 104 235
97 160 180
1 179 143
129 114 203
241 51 39
193 79 62
137 197 4
208 245 154
21 115 20
246 120 83
36 228 119
57 203 123
37 138 73
253 55 31
40 126 195
77 148 127
50 251 165
46 14 129
139 149 7
22 63 244
187 109 196
164 108 37
83 75 210
173 56 186
147 31 151
226 248 27
9 52 207
228 49 129
144 193 30
41 154 25
104 176 212
98 111 205
12 71 63
234 204 13
107 25 58
94 179 136
87 51 58
78 167 195
166 5 223
83 121 91
92 166 247
152 202 140
12 189 131
8 91 253
247 83 139
131 85 167
184 243 79
66 63 31
255 156 253
249 253 138
79 116 97
82 40 229
138 94 211
176 126 202
146 93 223
254 152 128
89 115 26
9 44 23
126 186 176
72 136 68
93 96 157
89 126 121
201 123 161
201 241 16
84 147 164
9 192 192
82 237 59
11 70 191
254 90 47
88 144 28
52 120 20
50 121 85
240 226 33
142 159 51
22 46 198
6 101 86
95 243 74
175 21 184
135 95 218
180 26 161
115 98 9
7 218 75
145 128 60
131 238 84
149 153 85
239 252 128
90 98 24
162 81 95
59 118 191
187 141 140
56 16 65
110 210 33
46 211 26
165 181 172
91 68 32
134 159 127
92 38 246
31 130 91
99 155 75
98 94 117
191 125 78
128 95 39
212 86 143
140 9 40
247 119 103
239 177 38
29 82 176
250 170 11
160 157 224
54 33 71
37 47 252
74 37 152
60 75 231
3 94 128
170 195 224
125 251 89
105 89 24
70 216 166
213 151 137
19 182 211
136 97 128
108 95 188
245 68 235
81 97 234
133 241 173
175 216 80
37 19 255
29 125 121
171 51 163
26 81 205
67 68 23
247 182 231
132 202 62
118 81 195
221 126 226
37 136 103
36 214 138
69 147 80
155 234 183
145 74 141
79 236 228
4 120 1
159 233 214
134 246 32
117 129 79
206 45 209
64 227 186
110 225 245
50 7 170
32 128 43
237 161 225
254 68 175
194 182 148
133 227 145
71 100 86
167 166 61
132 215 36
132 121 29
33 183 223
182 141 169
60 128 10
14 124 82
145 78 147
14 148 37
200 255 13
129 228 209
91 147 10
223 57 14
147 231 151
161 223 244
178 35 15
69 20 47
20 78 53
88 57 129
21 158 124
212 84 167
220 136 216
54 116 45
189 3 180
25 111 7
212 206 22
57 179 67
68 235 157
96 159 209
163 102 94
74 110 86
249 113 59
228 243 29
133 112 117
93 175 218
32 232 43
103 96 144
45 49 121
141 27 162
246 80 124
226 173 209
212 33 82
232 144 13
199 167 67
188 159 121
129 84 165
113 136 195
56 14 71
66 37 196
214 112 196
81 212 15
128 186 157
157 102 34
175 99 191
21 128 27
243 167 217
66 170 132
28 93 80
54 142 46
178 59 68
171 103 56
85 181 17
212 150 21
201 174 96
134 197 211
62 169 68
233 116 10
18 164 68
184 72 138
132 212 246
161 84 178
42 96 165
83 87 77
68 28 117
136 252 64
104 178 100
203 230 66
148 85 233
128 143 236
60 130 22
185 169 240
48 175 129
84 184 219
241 37 198
42 88 33
87 57 78
118 179 7
177 150 114
247 35 193
72 137 121
240 199 245
166 184 122
98 159 86
55 181 247
7 212 219
89 208 113
20 85 189
227 152 69
210 72 37
188 219 155
82 93 206
8 3 78
160 167 153
239 217 0
49 6 210
153 136 100
99 232 158
5 124 219
73 107 153
100 57 153
116 242 177
196 253 192
125 123 223
156 136 217
197 228 70
180 144 122
3 76 116
22 45 180
178 135 135
222 232 199
188 60 101
211 247 21
49 226 186
83 235 243
179 3 102
172 253 150
206 167 251
31 167 170
210 124 217
26 72 64
166 238 28
95 212 73
50 17 242
1 214 0
201 31 145
85 110 110
237 227 243
159 166 19
185 192 102
172 82 213
33 10 209
229 156 24
64 249 250
56 128 54
211 170 185
126 224 190
200 37 195
7 177 212
232 236 36
12 236 17
110 211 75
127 243 139
209 168 114
85 121 73
215 38 15
152 253 129
103 59 185
10 127 121
247 227 155
53 31 56
223 110 251
238 215 6
30 33 222
197 73 166
136 4 45
72 26 80
232 187 221
26 219 155
153 204 172
192 103 78
244 126 3
210 92 192
160 212 217
82 126 109
48 155 156
60 44 89
0 109 72
252 161 221
47 199 227
136 117 30
255 157 191
170 196 74
38 150 81
168 202 90
204 156 63
150 146 111
85 38 77
173 10 128
175 58 6
203 78 30
180 105 91
12 40 128
244 91 117
169 109 215
131 115 133
68 79 98
80 137 82
1 201 170
243 180 25
35 135 253
69 173 89
209 95 42
206 251 97
135 92 194
49 92 179
215 171 44
93 69 98
114 105 24
123 205 0
117 11 29
107 195 139
134 180 254
229 54 236
23 88 137
208 255 247
41 185 228
14 179 116
133 96 252
54 249 253
30 157 103
220 67 224
126 238 30
186 207 187
223 62 112
42 24 249
62 73 254
251 237 167
104 85 129
121 208 88
95 178 154
32 14 86
43 111 64
99 229 80
215 199 215
205 224 69
0 169 229
29 119 13
146 189 103
118 50 199
13 118 9
117 165 171
194 150 141
10 209 172
1 150 232
39 74 211
51 100 184
47 47 124
38 108 165
97 40 102
151 194 48
156 121 179
193 191 20
243 163 46
98 124 231
87 240 169
196 58 99
82 36 9
31 217 193
239 115 200
22 211 54
104 97 194
0 197 243
227 133 125
136 221 0
202 147 240
153 116 248
32 47 117
223 18 44
43 161 243
221 112 201
72 19 35
123 20 88
116 51 88
34 35 29
122 166 47
214 149 101
185 229 217
56 208 3
23 83 104
249 113 47
226 136 112
106 85 1
57 21 176
196 94 164
252 85 17
234 227 125
33 73 6
4 203 22
76 169 148
121 61 232
245 82 68
116 35 72
147 241 115
195 59 226
9 228 174
238 231 242
140 160 205
154 20 18
105 51 79
115 222 25
55 54 164
99 71 37
79 10 155
119 239 17
145 99 213
250 255 108
253 37 237
37 246 210
38 57 79
143 205 156
128 14 20
245 40 33
117 36 226
29 16 16
215 142 61
108 203 111
30 151 239
134 100 34
64 30 35
103 132 54
165 250 232
205 17 205
102 133 191
0 83 180
217 140 149
9 7 43
162 204 148
210 249 94
104 45 23
98 218 216
80 96 185
1 133 16
174 117 206
78 134 145
159 90 228
90 134 44
211 244 95
195 41 63
157 13 226
238 219 71
193 136 24
234 166 55
213 140 140
20 111 24
11 133 233
155 6 254
168 223 51
239 190 170
250 24 136
8 53 221
127 125 226
153 35 18
200 45 186
16 35 162
69 142 244
253 92 154
185 179 244
157 101 36
168 12 221
131 64 9
255 82 151
223 252 243
90 57 15
153 3 249
101 102 188
123 226 94
79 178 237
0 177 11
49 207 190
248 223 247
114 172 219
243 130 70
64 226 142
36 156 144
9 76 153
228 96 48
188 133 177
60 23 88
207 110 255
248 19 132
244 212 131
113 83 176
126 233 237
186 223 204
159 184 55
157 108 161
204 107 88
37 107 240
39 44 92
44 197 69
65 112 176
228 219 47
199 133 238
117 217 28
178 70 159
29 130 206
171 132 236
229 65 160
157 188 154
6 61 177
38 189 206
11 127 65
124 113 215
49 221 167
121 203 62
60 246 73
162 42 165
68 172 197
222 166 85
116 25 136
76 111 180
20 197 166
250 140 170
106 54 141
122 9 135
184 246 166
55 174 207
196 55 65
90 155 205
7 190 113
39 202 211
219 104 248
245 44 22
90 108 188
47 112 207
64 105 88
182 40 48
243 252 164
150 151 188
179 215 12
8 103 228
153 208 133
134 235 190
183 51 118
204 238 82
249 253 46
79 218 177
206 6 71
83 92 175
72 42 31
146 121 24
42 4 34
35 105 137
3 231 26
160 161 73
104 87 35
79 102 172
204 50 134
7 32 141
44 23 95
106 104 120
220 255 87
134 1 169
234 121 17
251 51 238
221 82 192
130 94 86
216 187 34
175 215 218
239 11 87
192 203 71
196 4 182
218 214 242
148 137 243
171 255 223
74 68 60
220 183 255
81 80 149
122 7 162
123 1 141
161 101 214
164 234 86
9 107 196
148 69 65
185 159 57
43 5 64
214 175 231
199 254 245
230 165 49
101 244 237
224 92 7
1 100 81
75 190 111
111 94 181
193 182 241
125 150 85
196 116 28
30 180 37
96 242 231
216 204 77
109 190 133
104 9 1
172 152 186
108 164 220
173 39 180
142 163 78
201 176 185
113 44 219
147 238 12
26 121 134
190 77 79
9 130 173
81 44 176
89 59 175
30 55 67
163 202 64
99 244 253
183 11 23
194 203 223
184 225 174
9 21 172
241 61 73
182 168 158
103 219 31
90 74 74
241 249 234
111 198 106
187 112 7
173 29 136
96 50 113
164 242 96
110 146 214
131 164 217
153 46 182
89 200 109
226 221 254
154 46 147
185 253 30
78 28 86
68 77 102
159 72 66
120 125 222
23 4 119
254 46 69
233 171 106
72 3 30
18 52 51
143 1 133
148 168 42
147 150 237
204 74 86
92 53 97
85 223 82
38 124 124
70 186 11
241 56 140
150 240 216
114 105 16
223 118 188
126 238 245
57 47 222
163 51 2
106 215 32
29 5 205
36 177 151
193 85 80
121 147 63
169 249 123
100 70 36
37 184 162
233 171 60
212 251 180
74 238 224
253 129 186
141 145 71
149 244 142
197 182 174
125 209 87
201 1 160
146 115 150
92 3 136
104 30 144
74 157 146
162 110 38
139 43 181
25 213 29
5 183 226
208 144 193
198 232 10
27 40 121
112 39 226
19 237 168
56 241 56
80 138 26
35 195 0
15 56 50
126 152 134
130 223 1
117 181 12
95 159 128
238 39 247
208 12 246
123 98 92
229 131 77
251 90 49
107 120 45
61 61 23
161 89 66
223 7 82
130 212 152
106 58 213
113 187 100
94 185 13
92 225 131
178 8 239
144 204 179
162 162 153
96 34 253
29 133 168
253 63 222
74 36 26
220 109 33
169 197 35
249 182 120
218 99 81
89 87 238
49 183 231
190 189 43
128 85 143
155 162 198
126 224 242
149 101 241
162 3 130
0 47 208
191 130 45
142 87 247
151 228 244
195 145 244
166 20 74
182 213 6
10 139 192
68 102 238
18 200 114
72 31 42
100 160 175
154 149 127
74 127 247
243 125 187
89 8 38
219 253 160
134 137 223
70 203 190
56 240 204
162 204 21
132 67 198
191 148 176
82 91 162
118 63 22
88 199 240
142 237 85
212 68 39
111 6 70
8 150 198
223 131 186
1 18 116
7 8 132
145 10 201
113 102 11
153 70 135
76 82 121
165 210 149
29 91 248
120 152 154
118 143 207
236 47 112
28 238 198
9 205 62
40 122 26
49 243 135
115 94 25
198 48 108
84 249 12
180 111 13
52 179 74
238 107 40
149 58 140
9 137 218
251 3 64
27 70 127
109 194 121
157 20 52
155 59 228
41 133 67
138 130 37
42 83 155
175 61 70
212 112 129
157 146 217
183 131 67
71 219 245
21 44 254
252 50 245
207 132 234
69 25 115
26 138 70
238 62 249
193 133 41
56 63 131
30 54 235
15 40 31
125 102 154
26 239 45
240 51 203
176 118 110
250 74 104
22 150 144
105 110 191
87 175 167
219 133 160
108 153 119
213 2 247
218 29 237
234 173 1
144 224 68
89 179 230
126 121 91
54 143 10
244 9 185
4 203 39
2 63 238
195 215 123
13 130 200
176 124 186
218 230 59
75 238 100
156 131 1
187 27 127
49 143 64
108 205 236
226 219 166
177 16 236
67 29 71
218 141 29
202 32 142
244 68 81
32 31 231
77 49 119
162 194 1
243 78 222
225 147 139
69 60 20
143 24 121
108 168 188
21 50 238
85 4 68
141 44 77
7 31 127
240 96 47
116 108 165
196 255 81
212 151 42
211 99 235
198 237 60
248 36 68
186 48 183
124 24 4
63 62 22
66 202 150
175 225 0
180 243 70
201 154 115
96 105 226
34 244 162
104 224 156
139 5 42
14 59 102
51 160 43
7 108 35
161 97 207
86 79 149
168 18 165
123 23 35
71 221 224
21 195 255
224 62 69
170 162 44
130 199 166
153 167 245
212 116 143
40 9 87
49 54 41
19 114 175
173 40 212
151 52 131
23 203 85
37 8 148
167 185 6
224 180 234
61 127 152
147 250 162
44 149 212
2 104 127
254 209 233
125 178 137
143 161 228
80 207 29
81 235 184
156 44 84
160 6 185
4 44 119
156 65 215
5 77 173
120 151 188
168 182 163
92 249 127
94 65 128
117 137 152
146 72 194
72 46 122
9 60 130
26 153 238
254 118 75
142 23 163
176 111 98
64 199 37
25 83 9
114 187 191
74 241 197
40 168 29
100 78 29
59 97 243
50 37 229
94 244 183
250 85 47
106 178 76
184 225 44
118 5 45
29 250 222
16 42 90
150 133 100
72 142 223
220 88 62
150 49 172
21 207 226
216 57 238
32 81 63
113 167 11
147 251 237
141 90 102
4 143 246
82 14 164
82 243 115
132 123 171
200 132 247
246 78 179
43 49 233
115 95 34
97 207 4
204 205 249
165 167 211
116 118 13
210 21 124
210 170 12
106 82 112
97 32 62
200 101 146
105 105 162
70 105 182
159 82 52
132 169 163
178 86 14
49 115 100
46 117 69
189 113 34
13 177 225
83 122 251
214 176 197
69 150 56
29 160 138
240 61 241
100 38 213
117 102 127
130 64 141
132 196 153
100 249 228
226 114 218
176 8 158
220 67 68
146 121 151
71 70 42
80 235 112
203 107 27
187 139 146
185 30 166
176 96 236
47 185 36
57 144 89
82 109 27
239 146 120
40 85 128
24 118 18
144 236 115
97 39 127
26 65 195
191 248 28
190 88 183
44 71 130
101 86 207
72 59 153
100 64 96
254 216 112
162 104 63
46 108 181
150 102 0
56 164 48
220 45 60
104 127 234
137 150 178
107 202 127
25 74 67
123 241 154
13 85 164
126 109 232
152 240 191
49 3 247
131 104 177
77 85 163
55 111 84
15 115 65
140 56 208
79 181 28
135 61 163
233 45 225
108 57 133
69 41 165
213 89 68
248 204 213
191 36 48
192 125 146
181 247 143
176 141 107
197 154 192
216 73 116
221 50 11
115 39 230
43 171 197
126 159 79
64 235 96
210 152 207
118 44 89
117 3 124
225 210 15
230 127 38
47 100 19
11 100 118
68 32 87
141 189 109
57 72 179
95 141 132
173 93 117
87 244 115
126 175 156
76 153 32
6 195 164
70 141 184
55 157 216
21 108 205
84 63 111
183 66 3
253 112 174
74 149 238
224 167 194
71 36 144
69 190 207
52 196 240
59 12 134
35 141 225
158 83 189
140 69 18
162 109 191
114 113 152
59 187 145
102 96 113
15 134 188
55 53 227
196 170 160
129 149 187
136 172 86
119 209 166
48 11 135
171 26 170
235 151 154
155 203 126
180 207 187
232 54 174
106 9 110
98 130 74
210 242 28
210 106 87
236 58 223
68 184 130
188 78 241
145 148 31
231 181 124
149 246 44
202 68 128
69 231 105
73 143 207
8 146 194
202 122 148
241 146 122
86 140 42
192 130 170
16 170 81
227 33 142
247 215 96
148 230 175
169 248 104
241 65 40
152 25 63
131 102 55
172 147 41
126 233 241
212 148 4
139 64 155
112 88 251
179 95 152
42 45 212
110 25 106
78 211 79
74 174 226
144 12 193
216 22 246
210 249 111
194 215 229
218 125 197
183 251 33
7 199 177
68 233 123
95 39 33
191 226 28
64 179 42
28 151 0
112 29 88
86 102 114
151 68 198
249 14 0
228 235 80
150 100 128
180 211 228
205 218 135
177 227 233
250 241 0
100 113 106
46 98 92
60 36 104
185 148 51
30 7 92
230 101 112
249 164 41
6 243 165
176 231 6
145 39 124
174 229 225
78 171 228
132 5 105
17 53 188
49 228 62
114 151 163
128 149 200
80 116 133
116 13 156
84 203 106
49 137 107
26 103 155
179 195 95
150 26 230
53 42 180
163 37 49
38 183 87
177 182 34
127 28 171
197 202 158
143 184 195
23 52 248
227 106 120
44 141 165
13 146 18
221 51 101
46 16 211
110 165 51
190 98 91
214 11 92
192 216 69
131 125 176
80 182 7
100 22 14
4 47 42
94 50 8
65 201 250
182 202 72
64 253 33
198 42 23
59 206 1
54 195 137
91 218 41
87 74 42
23 236 179
16 2 246
241 135 17
31 174 217
108 237 102
160 235 108
142 54 198
118 92 61
59 188 101
160 150 6
232 2 62
113 14 76
239 182 6
73 61 12
137 60 75
249 136 246
255 129 95
189 251 165
249 215 9
97 140 27
148 161 211
166 118 232
37 142 180
249 159 227
154 175 179
180 147 71
104 91 189
80 127 127
86 45 153
103 214 176
249 116 153
168 31 53
26 197 30
44 47 96
63 2 29
134 230 191
198 179 150
169 230 85
193 218 246
142 154 146
191 240 210
52 193 134
109 187 160
87 226 248
251 81 9
12 24 253
143 127 191
5 4 153
46 236 180
248 100 53
146 87 69
88 24 227
179 224 45
112 146 201
200 166 175
103 26 76
4 107 69
67 191 149
171 50 119
246 15 155
49 118 220
47 24 66
247 9 229
242 1 59
227 253 101
118 65 134
88 126 51
182 149 103
29 168 208
173 165 67
169 232 67
14 163 33
94 223 20
240 101 41
48 43 75
81 96 196
197 26 7
169 58 23
252 50 99
209 234 148
73 234 94
157 94 47
117 76 191
226 196 195
69 80 184
155 142 124
240 179 170
132 39 73
124 33 129
62 95 129
122 143 227
161 247 187
193 120 241
187 28 139
65 181 32
137 234 219
235 170 75
146 167 51
238 19 150
186 63 25
180 230 145
153 73 10
56 30 204
120 85 224
207 138 87
65 248 243
113 0 166
81 226 3
228 72 249
140 146 126
189 129 187
121 5 108
80 32 68
104 220 74
224 176 140
192 67 113
49 67 62
84 28 100
204 13 77
34 218 157
9 184 24
133 68 200
179 29 207
59 101 50
253 9 182
133 157 7
244 188 70
213 68 237
86 172 110
119 147 250
160 48 135
233 161 208
66 166 195
167 82 102
17 163 86
234 85 213
119 182 51
244 0 31
166 85 59
40 225 226
231 136 105
186 184 127
175 50 18
208 153 143
5 237 24
17 232 229
48 199 173
203 245 49
35 240 128
168 64 33
93 45 1
228 180 226
54 155 190
63 199 167
89 216 1
242 92 250
163 209 177
113 239 126
253 230 228
241 220 66
76 175 219
205 119 52
91 192 142
63 170 214
141 85 17
227 29 144
1 134 125
228 190 106
229 148 78
106 204 55
243 243 48
4 166 65
226 164 126
108 5 97
226 33 156
150 141 160
193 187 147
161 192 96
217 252 186
142 238 51
120 138 243
111 138 130
105 27 197
242 201 142
163 41 27
199 246 237
231 25 73
128 40 8
232 27 10
6 72 221
68 213 13
206 108 19
127 6 65
140 240 222
224 216 27
15 30 69
179 141 12
68 63 204
62 94 69
162 6 119
167 215 151
32 225 77
66 40 154
70 29 133
86 45 23
171 70 132
12 69 84
155 245 157
0 5 249
5 7 128
61 4 202
173 91 144
220 204 109
128 115 227
227 108 63
113 226 36
1 250 47
50 250 250
196 201 120
36 100 138
135 71 73
205 220 9
91 195 137
202 187 212
201 253 28
213 5 214
128 142 207
70 65 20
255 174 95
58 151 94
203 86 40
251 182 123
228 50 141
66 92 48
195 33 39
124 255 244
155 167 192
167 201 219
161 120 99
105 226 94
146 108 8
190 175 133
133 246 185
20 217 21
139 96 45
40 206 118
15 89 188
200 74 80
99 223 190
147 15 159
49 91 14
184 189 193
1 156 8
51 209 145
237 159 65
208 202 253
113 162 21
118 185 178
95 199 110
190 141 23
108 188 68
31 125 57
117 18 173
172 233 59
81 76 80
187 73 44
184 254 34
20 159 93
115 106 0
134 190 243
132 74 101
40 203 111
103 130 57
243 129 52
172 127 174
88 210 171
69 244 28
188 16 201
47 227 145
35 147 219
227 61 174
252 0 241
92 80 186
66 74 109
105 104 28
29 36 15
60 222 254
45 212 123
61 11 240
6 25 104
115 46 156
215 138 150
59 217 110
73 199 159
182 22 224
185 182 8
219 97 189
82 35 204
127 187 132
104 145 0
235 16 11
189 111 215
117 123 90
93 46 191
184 27 185
5 40 208
50 131 115
234 247 174
151 28 123
8 96 68
241 203 117
152 68 182
248 73 158
232 52 143
6 92 219
120 204 167
3 46 2
15 116 3
199 211 230
168 74 77
61 95 45
125 234 54
188 59 50
208 233 74
127 7 138
185 229 129
224 49 18
141 238 90
167 71 237
200 71 251
68 99 89
203 151 103
252 213 71
230 29 115
46 112 242
22 206 250
44 2 21
143 71 156
85 214 121
175 118 96
223 113 93
93 183 19
56 1 181
150 39 149
140 182 100
235 196 243
155 41 20
167 84 27
103 170 4
90 72 212
42 220 126
65 60 97
128 73 7
27 189 91
111 63 156
201 210 5
219 86 134
29 148 27
208 128 59
149 126 52
97 20 102
178 28 114
159 13 149
98 159 250
126 97 11
75 148 65
51 163 129
126 36 130
67 31 99
6 92 175
115 233 248
51 6 249
22 61 157
193 110 97
167 12 120
27 205 15
70 207 115
65 70 198
160 150 154
246 247 213
19 129 9
35 168 162
100 200 91
210 38 255
66 240 94
161 78 32
192 0 16
175 37 123
232 21 152
138 196 66
154 12 131
168 129 72
164 204 251
240 177 86
172 32 195
45 214 162
233 102 240
104 169 172
222 229 117
237 123 124
20 249 30
64 118 155
186 241 149
185 189 98
121 198 94
95 33 146
147 19 15
50 70 203
35 128 208
142 29 207
82 223 247
151 161 201
124 122 104
73 154 221
243 62 189
177 48 132
80 73 169
228 215 39
119 128 163
150 211 166
123 110 84
182 131 111
99 173 227
186 100 104
76 46 153
134 209 51
30 205 49
70 118 252
208 238 166
178 72 128
129 42 221
35 20 53
153 203 168
45 215 25
35 50 70
27 210 219
94 144 47
39 26 37
141 33 129
143 213 250
105 49 127
127 63 23
175 246 232
30 236 134
124 196 71
6 241 202
8 33 46
208 230 103
179 241 155
113 2 235
226 133 79
94 195 18
85 206 27
227 247 168
198 243 210
6 220 210
128 99 31
223 74 0
70 234 238
101 195 158
138 225 254
141 18 236
128 147 75
18 240 214
125 132 42
87 127 192
119 140 211
109 236 162
46 138 77
92 228 174
160 126 108
236 147 249
243 83 58
207 174 105
36 47 23
98 41 198
234 43 119
250 174 154
253 174 1
31 12 228
247 83 201
113 172 246
242 76 150
251 55 232
183 50 64
131 218 190
210 251 41
50 57 238
95 71 192
7 155 210
154 117 179
112 182 175
207 204 172
189 126 30
80 194 225
178 221 133
246 20 239
52 82 54
74 43 236
26 139 194
184 154 208
59 201 70
248 191 250
109 178 40
46 81 218
66 75 221
102 86 4
25 61 98
78 124 219
207 184 205
207 235 226
14 124 167
244 157 229
121 234 148
35 65 168
198 229 250
14 210 198
94 59 186
254 55 134
159 2 102
218 203 209
203 54 188
184 154 75
200 101 182
206 113 37
93 10 202
21 66 253
180 161 136
116 206 16
200 213 76
212 106 227
126 128 48
204 240 169
182 151 173
220 37 134
85 150 11
17 15 30
152 64 3
20 170 169
205 6 96
24 222 153
143 26 202
28 80 135
94 213 170
253 242 56
18 30 106
190 238 108
120 0 17
193 44 113
242 140 57
229 239 26
99 234 91
81 138 64
160 6 242
137 155 90
98 145 49
240 248 144
190 226 102
29 15 228
47 232 244
187 61 192
22 214 246
154 94 111
38 100 101
88 46 88
130 173 53
94 44 82
155 186 167
5 137 246
149 164 126
178 181 136
176 181 113
36 112 178
252 97 162
172 215 43
185 65 76
189 20 163
0 14 6
131 218 211
69 126 165
144 48 50
171 194 249
25 163 155
107 53 62
65 185 207
208 216 255
76 144 219
223 168 15
30 44 195
68 14 138
187 166 37
221 117 212
173 49 216
98 117 247
89 245 102
172 94 34
131 116 122
217 44 11
203 207 172
52 100 161
94 97 173
227 133 117
5 251 56
59 175 96
173 180 223
93 122 95
214 228 241
42 51 163
202 177 125
148 34 21
215 89 60
104 204 64
233 125 18
154 73 177
40 160 95
175 172 99
85 102 64
206 28 242
196 254 64
157 29 104
38 88 46
76 9 177
142 173 202
1 56 135
163 149 3
240 225 160
112 209 8
102 17 131
139 244 87
174 35 160
182 180 223
13 29 99
80 173 174
208 199 169
188 143 253
61 177 126
39 54 97
53 204 144
65 224 144
244 159 73
202 51 171
48 85 93
34 215 217
49 188 125
108 93 20
72 97 4
182 190 11
122 225 110
25 75 182
166 184 21
154 88 152
186 207 219
133 43 115
223 142 196
177 210 15
98 151 98
99 12 42
40 196 112
2 108 173
234 185 167
37 124 187
157 136 222
121 176 194
176 145 166
142 119 106
170 204 155
103 238 28
162 157 136
255 131 129
122 246 254
159 195 80
204 116 249
90 24 251
18 159 181
168 41 98
45 40 190
213 13 198
209 214 205
75 38 243
245 58 244
184 211 73
240 206 18
230 48 118
136 188 22
176 145 4
219 175 69
94 54 111
67 98 131
103 194 104
136 251 225
226 61 241
215 11 213
237 46 187
131 30 35
66 3 90
12 118 85
115 193 97
124 54 165
86 87 213
176 103 213
176 189 231
103 244 228
49 1 18
51 189 164
204 192 64
14 34 26
14 222 177
11 211 76
76 87 128
56 212 110
167 181 130
136 195 169
161 222 171
52 40 4
117 51 124
245 219 103
249 169 125
73 5 51
70 203 230
115 31 51
85 40 159
209 227 104
142 226 76
183 150 79
202 47 162
242 209 92
231 166 18
4 17 114
3 211 67
187 193 39
186 24 204
254 237 160
51 120 57
3 95 152
253 105 213
164 183 104
84 133 2
19 189 189
25 120 63
213 5 36
122 27 185
26 103 189
147 172 70
202 12 16
99 213 227
18 65 195
123 198 175
50 18 227
87 23 57
21 169 57
64 33 245
56 243 129
193 201 237
135 14 110
4 234 231
191 157 12
168 204 76
80 26 165
13 142 54
142 198 148
80 39 124
15 4 76
178 50 65
79 154 231
171 8 97
231 236 215
253 221 33
44 48 144
133 98 106
45 155 3
199 232 82
74 36 244
142 144 77
75 184 250
173 226 62
229 146 154
240 226 253
39 66 140
174 22 170
135 61 253
194 29 213
180 174 83
201 232 149
158 144 212
47 99 37
77 2 86
88 241 187
67 163 166
53 74 135
41 62 8
196 179 134
147 66 28
56 10 192
235 154 236
77 206 3
50 99 22
18 145 114
76 197 168
72 39 57
51 121 193
204 54 109
144 81 163
44 81 240
231 167 127
123 235 246
15 232 153
199 141 53
1 247 88
41 186 94
42 115 220
239 249 18
215 41 109
28 219 230
202 133 80
178 20 227
194 236 206
109 179 224
57 8 116
181 201 131
166 63 12
221 68 111
31 125 215
88 126 165
114 213 91
113 21 93
14 124 24
116 239 125
6 133 177
36 10 162
98 252 251
102 5 102
252 66 72
182 232 206
60 189 44
22 58 32
1 240 57
111 77 242
12 234 206
201 111 178
60 201 246
148 132 206
235 150 69
154 134 247
120 233 38
176 175 239
113 194 134
138 121 87
135 160 119
164 185 117
120 241 120
230 144 74
126 170 172
189 65 80
21 184 3
135 213 106
163 51 32
26 233 42
67 189 43
84 77 223
182 168 80
101 116 152
112 216 16
75 73 181
223 232 44
201 186 222
103 168 83
164 199 45
223 95 102
162 208 252
151 71 24
27 9 230
137 193 115
60 236 153
137 166 124
255 115 15
209 112 152
153 125 21
45 107 235
252 90 83
82 191 78
202 243 98
228 99 28
111 249 5
202 230 205
56 155 9
47 197 230
175 108 177
2 210 11
134 1 239
157 246 249
22 226 219
230 233 236
22 75 18
220 40 227
77 219 189
173 10 17
206 238 207
177 181 160
156 6 37
45 231 125
118 76 74
236 106 3
45 230 65
188 108 140
5 224 55
93 192 116
70 175 11
10 247 166
110 253 197
158 58 222
86 125 246
248 234 116
98 86 211
254 65 124
200 23 151
84 121 182
215 49 95
150 80 45
148 146 212
31 219 126
154 63 171
208 29 199
211 254 1
148 21 23
215 73 142
136 32 137
210 132 72
191 83 62
100 51 16
222 46 57
123 122 242
49 178 91
251 35 72
130 222 103
160 14 241
176 217 202
42 167 253
93 12 88
211 9 79
173 11 129
118 161 181
116 76 185
141 215 102
138 63 247
74 5 149
73 153 168
26 144 201
43 183 189
74 73 59
172 33 63
243 241 160
237 157 87
154 210 90
220 35 82
17 205 6
177 174 105
94 115 44
155 191 116
70 125 202
157 66 68
49 13 62
151 246 190
109 74 22
215 245 61
135 4 107
159 99 233
30 226 77
192 125 155
77 174 233
49 206 226
46 9 249
135 193 92
138 15 251
18 80 13
148 247 15
129 51 99
13 162 15
242 79 52
131 150 45
150 88 251
109 208 237
33 225 115
76 245 21
100 99 99
24 118 111
242 102 20
127 115 252
1 236 66
225 57 62
143 33 117
207 215 20
120 247 5
101 177 231
142 66 253
118 29 115
164 126 235
32 243 253
188 200 163
33 148 176
16 64 72
136 68 104
29 211 36
197 247 35
240 174 57
27 193 247
2 137 234
128 192 11
239 194 172
176 187 215
242 109 203
247 209 28
89 62 6
132 247 174
244 121 166
43 241 81
96 126 188
249 11 232
101 86 107
163 174 47
222 71 40
182 33 243
65 138 206
162 140 140
89 74 246
215 244 200
120 9 97
33 72 118
50 226 147
154 181 47
104 32 112
159 251 48
31 243 143
155 245 189
232 28 203
137 202 151
115 109 151
13 196 159
243 200 24
12 179 189
199 198 234
77 43 138
219 161 112
54 19 38
132 196 107
114 30 71
83 230 132
129 54 203
14 21 193
7 243 214
39 126 66
65 43 71
204 178 184
23 124 248
149 247 129
19 130 109
68 146 93
96 113 245
238 218 107
15 207 6
96 188 237
42 24 233
177 183 137
48 172 255
134 223 80
63 84 187
166 119 132
201 26 158
232 182 110
140 205 155
169 195 181
45 118 21
159 177 169
20 130 253
76 210 248
227 111 211
252 29 179
155 220 33
180 1 142
205 118 108
6 146 220
253 215 234
51 122 96
32 130 52
80 207 241
210 15 44
106 184 115
143 6 248
90 117 19
88 139 182
211 33 65
75 56 44
169 247 210
225 185 242
15 90 190
64 80 197
156 137 6
82 164 132
109 187 20
222 247 85
203 103 158
184 125 60
207 82 83
95 227 157
241 71 102
146 117 61
58 210 54
20 196 149
177 186 79
241 3 167
6 175 168
241 52 128
73 228 210
48 135 134
213 215 19
230 43 164
75 222 70
125 50 211
81 220 86
117 168 189
4 148 89
66 93 65
52 58 181
244 154 49
226 219 91
125 123 63
130 34 248
170 8 134
110 77 240
188 178 231
163 130 172
112 75 151
185 217 190
206 95 192
206 191 211
171 156 50
101 231 9
6 108 253
93 110 60
99 207 151
40 176 228
216 214 1
169 177 221
118 80 49
44 62 223
85 89 203
145 137 218
7 63 14
163 107 139
243 196 18
47 191 121
220 44 191
130 168 162
214 215 36
161 45 214
232 23 154
233 250 108
224 246 123
118 205 219
206 151 249
224 81 114
57 170 74
251 93 235
122 148 89
249 158 160
76 175 247
210 150 38
226 212 15
186 30 196
163 87 209
130 66 112
228 100 75
44 185 150
13 237 147
4 166 87
204 87 45
6 167 17
171 224 155
161 35 197
118 190 112
83 54 59
91 225 232
54 76 24
209 38 101
150 40 170
111 187 104
54 67 182
102 172 203
232 97 5
27 224 14
17 231 112
4 89 100
91 97 89
221 145 128
237 115 8
118 161 191
144 218 217
56 143 112
86 219 85
247 108 235
142 243 120
0 91 37
43 171 81
155 19 139
107 36 79
234 145 79
144 149 115
87 123 226
41 99 205
130 71 133
91 169 140
108 189 104
201 204 194
250 152 134
107 48 27
30 162 180
196 239 33
228 3 46
111 213 112
227 137 172
185 38 132
36 88 15
162 2 96
173 14 228
56 191 55
166 97 232
111 3 101
138 217 169
26 121 235
103 86 217
187 5 114
231 47 78
187 29 47
229 42 252
207 73 149
231 63 204
97 107 176
88 245 232
12 142 152
183 111 149
18 140 151
38 38 53
100 252 224
36 147 18
142 42 179
8 241 254
71 56 88
228 249 187
8 20 194
222 127 47
111 163 1
249 217 154
169 228 249
182 206 167
56 28 238
154 159 158
176 206 103
210 62 210
77 38 191
253 228 65
98 99 179
64 46 79
38 31 169
151 244 88
18 160 96
17 83 255
91 153 226
52 20 150
125 184 190
180 137 107
155 220 109
143 182 177
99 101 178
213 167 117
72 20 110
225 147 143
103 147 63
184 181 142
200 90 220
231 254 116
109 130 233
162 151 37
177 26 140
103 182 96
176 106 242
179 53 41
198 104 118
255 194 253
71 188 48
89 88 77
7 2 71
174 97 190
64 222 204
138 159 138
14 12 81
52 119 164
211 111 170
83 92 108
184 85 34
135 143 3
80 70 36
172 235 38
118 49 173
36 89 112
242 56 149
53 206 191
94 210 103
2 144 36
224 80 156
75 155 141
76 153 227
148 31 203
7 3 95
157 38 137
118 110 196
102 243 92
169 65 123
230 191 1
127 218 26
28 37 82
141 35 104
11 205 122
253 63 75
244 91 122
164 186 34
29 79 167
88 40 213
145 246 5
110 170 93
22 160 36
96 93 153
79 63 66
152 91 254
54 94 208
171 114 19
12 94 64
72 232 221
76 69 61
191 137 48
160 100 110
130 220 215
204 189 122
72 66 179
91 4 160
211 114 50
110 145 168
118 51 37
222 228 186
235 54 101
157 78 117
64 130 194
186 243 220
112 138 220
17 160 32
200 187 102
50 183 124
206 131 11
132 8 132
33 134 29
120 104 142
247 104 89
240 245 140
217 107 154
54 139 253
254 178 238
141 140 215
106 210 57
249 178 169
154 197 187
252 174 153
27 127 116
64 85 0
76 87 102
161 154 159
34 104 184
74 162 193
24 213 161
180 177 91
191 41 131
62 145 249
205 123 3
250 199 31
206 122 33
155 231 131
237 120 215
78 176 31
48 216 54
78 49 4
156 116 95
36 88 244
2 18 78
187 168 175
56 96 2
246 120 228
111 30 184
206 42 182
207 253 221
104 125 72
59 70 166
221 171 13
56 77 7
80 73 36
159 214 192
86 207 207
99 82 120
31 216 21
226 67 9
28 3 178
222 42 36
108 193 177
58 21 195
40 11 166
181 193 55
151 145 55
206 177 240
86 130 153
179 230 116
69 113 72
108 60 97
53 217 236
65 28 232
159 106 238
37 153 19
91 236 147
9 201 171
15 227 8
95 211 153
176 53 18
34 117 15
38 163 219
80 255 195
151 169 206
71 77 240
57 186 116
154 158 232
106 128 116
15 230 6
68 133 190
228 176 44
188 218 133
76 6 242
162 120 49
166 91 229
75 217 20
179 50 5
93 53 200
219 58 64
26 73 184
107 169 103
101 157 195
233 78 114
223 51 234
70 147 153
174 94 143
225 226 94
228 14 179
114 197 120
210 141 80
248 3 255
145 61 2
227 107 167
144 191 186
17 234 133
147 180 222
94 66 196
88 182 146
97 12 38
231 190 43
247 217 198
236 64 8
46 249 145
172 165 53
134 214 102
206 157 158
216 187 165
198 225 23
60 255 253
253 133 252
14 157 44
175 159 79
55 187 148
101 109 182
156 87 204
139 206 138
218 143 4
77 234 166
12 117 226
193 153 242
32 43 6
174 105 200
185 229 220
248 124 83
54 39 214
214 166 145
35 52 138
248 130 113
61 104 186
172 80 52
250 182 66
96 122 38
74 107 59
96 83 178
81 30 82
24 148 195
111 148 21
139 105 150
249 222 71
126 72 113
93 89 59
124 128 175
2 138 145
9 110 188
238 122 128
37 139 207
211 96 166
162 251 99
249 246 37
249 116 3
217 140 14
208 94 85
33 8 2
110 216 151
127 56 251
43 95 57
200 14 117
152 228 182
139 212 162
98 110 237
64 177 100
7 168 74
48 112 205
17 86 58
65 188 85
159 157 92
164 240 57
13 98 151
140 48 28
171 149 139
175 155 199
84 32 38
199 115 191
151 156 13
107 228 140
156 37 62
252 12 21
132 100 116
166 197 99
252 60 113
11 79 226
164 91 3
24 123 87
137 8 169
1 247 148
5 199 248
205 19 90
251 61 72
245 55 226
48 32 155
6 139 76
222 244 177
60 146 111
68 222 14
167 38 212
172 158 247
187 179 10
68 30 137
191 81 249
218 75 180
106 80 175
155 90 251
211 44 5
22 176 134
86 30 120
114 147 183
213 1 172
232 245 56
93 197 5
245 51 47
219 166 83
235 136 251
213 60 210
65 58 105
94 252 206
12 155 100
59 140 241
180 58 13
187 167 188
175 144 229
153 92 16
202 11 33
195 208 37
25 0 182
119 126 183
248 109 148
160 216 204
209 227 52
145 86 234
67 223 173
134 118 95
118 13 141
61 239 69
225 171 106
4 53 228
199 58 5
226 11 105
87 212 54
168 47 219
54 234 82
142 238 203
71 251 86
97 25 39
111 185 182
92 216 178
70 62 58
102 216 220
65 254 135
247 52 157
185 149 94
236 2 174
146 107 25
16 113 137
131 102 48
71 88 253
253 172 101
30 184 194
250 122 147
191 215 35
201 32 66
222 19 236
150 38 55
253 104 158
42 149 240
178 99 74
76 250 36
1 75 186
223 134 189
192 80 230
2 87 176
106 13 250
22 142 177
229 66 112
46 138 54
8 245 54
154 239 41
193 71 16
90 28 132
172 222 233
110 64 211
195 208 61
181 162 104
37 113 32
201 244 211
215 148 182
243 126 97
39 42 240
119 109 187
56 78 62
234 63 183
78 41 83
180 13 203
242 178 160
178 21 167
69 91 98
103 172 73
29 216 159
236 10 101
188 30 232
128 7 49
114 4 33
2 103 2
47 97 8
233 139 235
154 192 203
17 119 166
193 176 170
145 91 170
63 193 222
216 115 111
131 187 154
10 255 149
85 70 126
104 45 107
6 172 137
177 74 235
252 169 4
229 239 247
87 1 62
56 149 69
98 220 56
85 54 224
3 135 132
145 101 90
57 61 1
227 154 249
97 204 120
40 142 49
176 79 252
98 89 188
80 212 191
81 57 224
234 23 30
203 17 187
161 181 251
52 118 64
142 211 18
98 86 12
74 231 34
51 144 250
135 81 219
136 162 218
101 124 89
222 236 77
191 240 62
18 34 207
65 234 236
9 119 64
187 135 29
211 178 191
36 73 201
177 220 114
8 78 62
142 243 47
111 94 219
167 206 88
29 28 159
217 168 65
238 12 235
10 112 211
94 160 66
177 250 3
76 214 203
18 69 129
223 166 219
193 14 7
68 209 172
122 97 149
250 2 83
243 29 29
102 195 149
19 74 113
35 130 76
138 10 170
25 213 16
168 163 254
207 131 73
201 145 201
24 106 172
8 55 30
130 48 80
71 174 15
203 24 250
107 198 106
246 9 129
143 79 88
226 30 82
193 8 152
137 25 141
81 201 28
168 124 1
143 175 231
107 209 82
49 162 253
49 230 19
125 163 57
124 127 174
197 1 119
27 255 29
71 225 184
224 137 145
33 9 48
111 231 91
146 4 224
86 150 195
174 142 30
140 93 110
218 120 203
194 229 148
52 253 125
110 101 29
221 137 132
7 205 76
61 16 75
172 113 60
162 55 249
239 37 3
227 76 36
242 8 68
118 203 192
247 135 252
231 113 145
23 154 254
99 171 195
180 164 216
87 2 40
197 223 185
150 21 3
131 190 49
131 183 185
156 196 180
21 223 95
181 59 112
178 47 118
95 42 153
23 10 116
108 181 55
227 189 3
51 169 51
249 191 101
195 68 98
35 233 123
253 237 84
171 184 189
190 40 221
51 213 230
199 37 18
193 11 23
215 3 98
135 187 27
30 185 249
56 110 167
4 95 133
29 252 157
126 51 135
61 67 54
29 115 184
80 180 141
1 33 95
243 245 254
25 128 16
150 30 118
42 170 129
168 38 75
227 192 107
143 100 155
163 253 61
219 193 40
8 159 54
158 197 6
60 198 222
23 64 225
171 44 234
182 115 92
91 39 110
255 1 75
146 105 93
155 50 253
112 225 62
143 18 198
217 135 88
126 49 61
208 59 38
39 90 48
242 222 9
250 39 203
196 47 212
202 9 231
232 255 157
137 245 69
185 130 62
245 222 149
106 93 238
142 192 114
238 248 147
213 105 38
227 200 191
101 66 198
19 93 249
179 123 66
23 79 120
55 77 236
51 121 54
191 191 143
151 119 205
13 208 27
169 242 145
212 250 56
95 131 95
163 202 32
136 185 111
19 152 114
226 60 156
38 89 157
85 195 148
232 227 47
243 251 75
159 240 133
28 144 131
213 139 154
123 167 248
181 42 246
106 212 220
16 54 107
129 155 24
43 141 30
175 139 155
237 133 18
41 49 229
251 199 165
128 214 139
35 157 133
86 150 123
181 214 196
19 188 102
55 152 212
231 168 155
207 7 56
47 253 16
17 203 49
132 51 230
29 162 245
188 138 232
131 235 1
27 98 107
126 191 99
182 187 42
218 200 124
142 205 235
62 116 103
38 159 13
162 42 15
150 190 93
57 123 206
36 105 185
43 1 142
90 220 43
113 108 168
228 126 33
129 64 91
243 179 12
221 92 124
14 173 177
66 249 241
82 237 187
252 228 158
89 253 151
14 126 248
15 221 211
47 46 68
199 49 255
111 192 75
103 31 208
124 121 190
14 214 239
189 231 192
188 31 93
202 80 198
156 110 50
185 117 13
34 180 185
3 239 7
200 186 104
55 216 134
127 131 144
90 171 130
31 190 105
60 196 186
244 14 98
111 234 54
62 0 84
235 194 239
2 22 80
39 107 177
61 210 126
118 76 56
176 13 134
16 192 124
154 111 203
168 154 237
140 154 213
219 65 101
220 114 59
131 31 237
50 182 103
170 2 24
95 238 149
193 90 115
209 75 41
120 49 251
127 65 233
122 31 200
80 102 133
110 39 14
202 22 228
167 116 247
84 4 91
72 120 113
242 223 195
111 233 157
244 118 204
251 197 232
71 97 202
133 172 110
100 48 9
176 240 196
122 147 171
195 62 181
213 131 93
49 87 134
233 78 201
247 244 55
208 14 191
98 188 183
199 2 211
15 194 146
31 219 67
125 135 233
64 30 231
218 253 241
243 231 84
33 2 158
166 220 64
166 5 162
80 65 96
173 203 151
194 14 214
251 36 190
139 216 76
208 236 135
14 71 141
26 147 197
42 233 134
28 210 173
123 93 179
21 193 145
140 76 125
109 189 224
39 1 246
250 147 128
49 97 173
217 110 2
139 252 218
96 99 36
9 87 113
53 40 145
135 143 251
95 28 186
126 178 158
10 169 130
20 148 212
196 32 85
249 53 79
199 92 163
229 11 164
189 203 109
94 241 168
116 198 207
9 13 86
17 236 10
198 40 234
152 117 139
158 121 35
53 161 165
87 105 77
197 105 2
33 226 207
219 92 168
217 210 255
151 148 88
192 221 210
134 116 173
63 16 142
134 187 181
114 131 75
111 108 193
29 255 8
208 253 224
135 144 226
68 255 48
246 89 137
250 13 155
54 12 181
0 181 131
83 135 17
29 138 49
84 9 116
158 187 19
105 214 196
222 36 181
195 162 249
66 150 51
20 36 35
70 28 121
95 249 170
35 115 111
8 108 158
200 31 70
60 54 6
103 61 201
67 53 28
16 80 224
126 162 10
112 165 108
184 5 137
228 185 91
150 8 227
170 197 50
105 201 82
208 221 153
196 189 140
253 129 49
61 200 85
108 174 226
57 77 200
134 84 28
63 119 127
252 69 174
115 201 230
151 130 159
86 192 39
3 160 27
62 78 63
151 244 220
151 80 161
232 5 36
35 199 170
220 50 173
1 137 41
186 31 201
202 18 207
34 140 251
30 247 15
144 140 168
41 237 161
130 94 231
91 31 178
74 101 144
245 126 12
77 148 174
98 6 200
210 24 89
205 36 147
120 117 2
71 153 247
188 125 162
13 113 214
193 206 193
98 127 101
79 62 211
239 150 229
154 24 8
96 155 123
239 198 35
17 235 21
230 7 168
167 85 73
120 90 248
30 154 68
80 138 185
0 118 206
12 31 241
197 0 188
163 233 234
173 27 234
51 143 220
216 55 161
99 41 214
160 68 229
7 26 85
84 140 226
100 227 211
92 55 233
196 20 144
22 55 250
188 69 166
23 24 70
213 97 47
115 142 125
58 10 73
67 94 13
50 237 11
223 48 78
108 129 50
149 170 165
113 215 207
76 79 42
254 235 82
31 192 61
119 163 111
41 107 234
161 88 194
114 200 177
211 6 233
137 159 154
88 216 250
234 251 67
97 242 156
225 156 160
224 123 116
9 195 123
79 205 60
152 219 91
255 223 123
103 58 109
226 190 45
167 39 21
249 42 167
166 43 6
254 73 103
199 129 99
42 59 146
204 52 53
12 27 96
18 234 153
166 49 207
70 214 122
110 140 16
192 94 142
155 237 243
126 105 203
87 118 109
5 1 55
106 159 81
169 77 15
32 228 125
119 229 166
64 44 135
243 232 55
193 45 9
158 223 70
46 250 233
86 200 213
62 181 157
71 113 205
175 236 194
230 71 144
242 169 99
118 72 154
119 141 7
233 105 35
154 192 24
78 69 29
204 131 145
35 96 221
58 164 30
16 92 40
125 67 154
23 89 218
213 183 79
39 88 137
213 236 0
53 153 84
116 62 2
39 112 28
97 254 200
160 105 209
15 37 253
114 164 250
54 51 8
246 189 124
107 134 217
188 44 101
207 194 27
102 158 83
62 225 154
6 186 252
39 103 232
117 239 152
34 162 106
157 150 176
212 92 119
122 247 194
102 157 20
45 189 12
74 205 229
104 66 214
48 71 1
67 199 252
202 143 139
71 118 76
1 129 220
255 157 216
178 189 145
68 198 249
137 125 123
0 8 158
242 87 146
223 93 126
80 69 129
179 31 59
157 127 248
1 49 5
234 116 123
36 137 159
30 134 202
248 231 79
110 184 149
229 47 150
223 84 63
51 32 102
193 201 162
162 215 55
82 195 160
255 140 141
115 60 30
74 103 185
102 5 140
211 237 174
40 100 10
70 45 255
244 205 227
132 187 166
151 37 158
250 83 166
228 191 43
3 221 80
20 167 30
154 0 12
211 178 23
99 161 201
97 87 175
43 65 232
3 175 129
96 254 114
52 65 107
199 143 209
4 223 243
78 202 89
52 61 15
35 41 66
223 7 155
2 193 145
136 218 168
63 221 201
164 228 251
33 120 54
124 55 38
133 198 57
158 104 43
46 165 67
59 71 241
137 53 123
173 82 12
222 4 214
102 204 249
28 60 23
110 155 21
137 72 38
34 106 45
29 124 31
137 228 219
150 128 100
0 10 31
29 140 117
101 180 133
89 193 252
81 79 190
216 213 90
169 131 148
201 136 35
163 172 99
45 212 47
107 63 63
217 13 190
227 126 92
40 24 22
169 41 238
58 40 249
104 50 233
48 59 52
171 235 130
187 84 236
247 89 47
58 10 87
196 216 123
53 249 176
236 133 144
33 15 108
173 81 202
156 71 72
8 1 94
219 178 7
97 117 13
29 11 125
80 219 124
195 158 132
199 91 81
18 183 121
100 165 33
84 210 126
245 165 161
150 154 52
211 78 202
113 51 185
190 120 31
154 94 232
218 226 233
107 167 199
155 110 53
199 27 134
144 211 222
139 187 114
135 63 153
66 53 16
127 73 225
34 15 117
86 253 130
45 73 30
59 244 54
188 249 106
156 22 225
114 77 4
33 212 26
66 58 131
158 79 106
67 4 175
134 108 178
113 146 231
60 43 113
241 183 220
174 111 140
189 44 82
123 157 82
15 2 239
160 177 70
96 5 185
6 166 98
212 25 45
66 153 96
244 28 234
121 198 230
154 181 232
217 104 32
50 54 22
98 89 121
231 57 34
54 53 64
91 247 115
34 204 159
46 40 193
216 211 83
66 225 20
238 58 87
55 211 149
48 152 243
9 135 102
137 180 29
5 40 171
251 40 177
78 204 88
15 64 126
75 174 3
4 83 23
201 3 235
227 198 87
180 84 196
62 103 232
69 180 147
18 105 139
172 102 176
162 113 250
245 193 38
227 155 173
250 246 206
113 240 51
51 105 45
149 113 247
217 29 111
187 95 197
163 164 57
56 246 101
103 143 255
95 218 208
123 139 67
215 127 160
181 125 217
90 58 134
82 105 251
180 38 116
122 37 231
8 132 203
222 137 100
133 201 25
59 161 3
167 120 179
114 93 70
237 173 37
142 194 114
150 181 131
251 133 104
47 185 224
111 209 57
144 174 137
216 124 244
197 235 14
114 81 143
100 1 4
8 11 196
28 104 19
34 5 18
195 89 202
215 76 63
42 22 31
78 201 56
220 111 110
252 171 239
232 118 100
223 185 3
160 43 236
125 35 238
217 154 83
147 103 66
20 247 217
5 152 29
180 65 87
52 139 112
237 85 35
54 19 21
147 31 107
237 250 206
12 67 191
51 78 40
113 124 233
204 9 76
219 119 48
121 180 63
54 192 173
116 52 202
69 94 13
100 24 141
225 143 98
237 238 47
125 198 176
239 161 236
46 239 228
8 172 184
37 126 194
67 243 248
199 93 182
192 231 52
220 15 100
22 173 176
233 218 139
237 119 199
14 96 133
174 234 220
186 109 49
163 72 160
76 89 197
209 114 15
26 76 216
29 36 231
35 27 205
30 173 146
195 151 180
47 23 221
234 53 74
230 90 246
174 165 237
210 28 36
36 151 146
168 16 115
77 234 74
128 165 193
5 48 44
211 48 100
155 37 245
96 26 42
153 146 156
122 226 127
100 8 247
36 181 155
224 70 166
179 118 3
203 216 149
27 143 104
130 248 51
44 108 111
240 111 145
116 199 104
200 219 18
42 114 101
195 156 153
195 107 116
198 211 131
125 146 167
43 128 203
91 253 139
40 150 207
158 124 206
243 252 208
213 174 184
48 149 92
178 99 171
103 18 5
21 89 12
29 177 77
30 245 125
101 88 94
108 84 94
128 92 213
255 205 235
109 194 241
132 110 87
192 148 166
225 104 96
66 253 117
145 198 228
24 202 68
10 228 185
215 220 229
145 154 221
241 71 156
199 253 178
243 8 107
36 19 92
154 160 121
127 63 79
82 17 37
184 222 225
109 244 17
169 151 12
70 175 32
228 99 34
101 132 109
87 194 95
152 76 148
51 193 108
54 12 170
144 222 130
174 90 237
75 176 103
39 230 221
147 132 210
156 55 224
197 17 222
213 248 31
186 110 70
74 42 188
58 82 248
211 75 168
47 168 226
17 145 127
97 12 15
7 81 92
21 109 136
139 67 116
61 139 66
53 155 227
189 54 250
18 94 163
89 239 57
42 88 59
72 47 11
181 214 44
50 185 94
119 97 240
156 172 152
48 248 160
205 143 192
162 133 10
4 164 231
212 251 222
172 242 154
133 76 177
17 187 0
231 113 156
54 121 103
66 89 109
66 252 39
224 151 112
132 39 49
62 196 160
210 19 230
215 27 23
254 204 153
92 86 63
142 238 83
134 2 205
196 121 103
105 217 111
47 49 144
116 80 250
114 219 152
220 12 255
221 146 131
2 189 242
70 208 146
9 36 90
127 112 57
191 28 109
28 35 211
235 60 8
49 221 197
251 89 94
117 82 225
211 132 106
185 26 29
46 243 38
193 216 97
112 93 213
255 64 168
118 165 177
188 202 151
23 182 18
57 131 101
231 150 171
39 222 135
209 176 215
251 134 18
221 55 33
23 87 251
254 184 125
61 179 223
112 2 98
200 115 58
12 32 226
12 239 175
193 67 111
113 39 138
121 152 158
90 99 143
114 45 111
87 224 23
208 233 142
20 138 179
150 252 119
63 70 140
230 31 244
110 243 95
105 219 182
178 224 122
206 227 219
159 67 93
160 165 217
137 6 3
37 127 181
235 40 65
29 132 91
203 239 198
206 187 122
145 119 46
113 130 195
59 211 61
60 173 217
50 239 153
160 99 20
201 100 240
225 204 194
244 182 118
168 102 183
159 141 184
36 89 98
15 204 130
52 101 109
145 242 11
204 132 182
229 213 186
143 66 96
182 123 218
228 55 220
175 221 208
250 38 156
227 148 251
146 46 214
51 60 93
255 138 151
222 93 7
71 105 210
90 25 227
144 204 219
136 211 200
247 207 250
191 171 16
224 123 4
56 158 208
229 122 130
116 189 51
33 140 111
160 66 135
82 218 57
50 37 192
14 245 6
124 45 140
71 244 96
229 115 12
232 203 167
111 234 111
206 231 22
33 169 105
212 43 141
75 132 171
69 17 15
126 47 20
103 64 149
116 184 42
182 211 93
24 226 137
200 243 254
191 220 166
52 183 250
68 221 86
20 106 56
160 218 103
187 63 89
176 220 183
179 128 122
181 28 75
226 49 94
228 59 89
143 74 103
174 144 225
147 231 172
66 150 183
186 129 12
199 245 161
152 152 11
148 243 23
63 151 253
185 115 250
214 205 22
21 167 192
64 154 103
225 153 221
79 185 186
55 44 249
107 24 242
250 253 42
191 32 37
224 118 109
125 81 77
212 46 113
173 168 212
105 200 82
60 219 112
10 51 76
211 131 149
246 81 50
208 110 241
155 164 71
194 221 0
135 183 153
255 228 162
198 241 31
106 112 141
71 160 96
70 222 142
128 109 196
203 134 253
225 78 120
71 174 92
12 243 171
65 95 90
108 13 85
107 170 246
47 16 204
69 68 71
52 154 156
235 43 108
35 113 246
179 157 106
103 167 46
232 184 21
216 3 130
194 249 119
193 217 249
7 205 211
158 124 158
6 166 143
38 75 1
234 139 242
49 200 253
130 114 40
67 200 123
214 153 63
227 101 143
62 222 221
169 209 214
84 200 53
23 18 56
147 108 73
242 24 73
66 181 82
224 80 216
185 181 142
29 34 32
242 0 248
185 153 130
127 69 58
4 155 79
69 199 168
189 171 190
207 149 152
148 33 28
133 100 234
14 26 44
44 69 209
39 35 233
179 60 48
99 80 165
124 217 199
10 188 131
218 53 134
232 77 48
53 16 126
64 183 134
43 213 155
45 61 120
240 147 254
6 161 2
110 240 11
56 150 118
21 125 94
141 232 232
196 74 122
2 188 228
117 135 96
248 138 1
212 29 146
117 156 175
242 222 245
200 121 220
62 70 69
20 159 123
141 89 241
54 227 243
33 104 110
42 168 74
23 34 208
159 26 70
198 55 216
121 245 212
117 4 220
130 123 252
214 51 2
207 94 177
61 115 78
176 31 224
252 171 186
96 87 84
22 68 42
25 83 74
62 181 97
16 106 215
81 155 134
237 7 0
239 157 183
27 163 235
152 80 18
242 89 162
119 140 68
163 214 52
237 194 117
117 108 150
45 159 246
101 92 74
66 50 60
14 44 229
129 13 40
155 228 119
126 92 202
50 212 15
179 38 236
151 202 146
129 44 254
254 169 234
236 134 3
148 233 84
44 239 230
97 122 162
113 178 197
47 16 30
47 251 148
109 254 254
186 92 30
239 181 161
94 198 75
10 160 172
131 34 20
200 3 89
156 164 249
180 231 240
198 254 10
182 111 122
120 17 33
181 71 231
209 115 149
251 67 251
79 23 107
4 124 203
33 20 211
72 220 94
204 156 246
134 33 117
58 90 2
99 90 238
12 170 204
183 124 192
121 138 139
85 246 206
112 229 136
78 221 255
30 213 251
78 15 69
151 192 55
112 64 130
36 211 135
135 105 115
99 199 221
166 110 203
207 241 83
198 241 157
242 78 5
49 23 131
42 236 225
122 120 175
95 84 217
226 214 143
28 25 222
31 240 93
218 248 241
12 109 60
61 139 209
242 109 52
70 46 35
54 99 45
120 8 141
119 93 249
2 134 86
201 37 30
210 159 62
68 76 149
90 30 84
115 51 0
191 31 171
12 139 32
178 247 191
252 187 209
193 103 104
232 5 110
65 44 11
131 54 91
193 204 83
53 246 6
137 171 254
66 213 126
176 57 38
139 161 130
49 168 35
43 168 150
151 67 123
65 188 79
160 56 162
40 21 149
157 225 219
230 212 95
110 141 64
221 191 212
230 84 204
68 155 198
231 163 225
18 52 143
110 7 140
231 53 10
196 82 189
132 209 201
209 13 54
66 137 244
28 250 15
20 220 204
181 63 91
233 4 16
6 253 29
53 184 112
93 169 51
219 186 38
174 141 212
201 187 213
124 194 2
106 136 64
63 63 140
202 88 90
191 196 185
215 252 83
176 144 0
136 212 224
91 65 210
203 27 94
94 22 77
253 146 111
251 115 246
74 191 231
4 86 202
73 207 206
238 216 3
25 154 105
225 206 162
202 142 142
238 5 12
43 186 173
152 205 38
73 181 14
171 87 220
80 95 17
6 179 64
141 105 40
23 19 200
18 67 147
40 41 142
236 132 55
60 219 136
87 215 45
60 116 119
32 20 36
179 251 3
249 162 229
195 107 204
243 96 234
219 121 105
137 72 148
194 50 12
29 73 32
1 55 247
100 193 32
17 198 13
139 41 224
190 201 255
243 95 118
226 137 43
145 245 122
56 34 96
117 217 131
182 115 86
142 225 253
7 241 156
223 170 194
225 47 237
79 55 88
181 217 12
132 49 115
25 105 84
95 114 110
189 162 192
36 11 207
242 16 183
39 111 28
162 130 65
148 163 249
42 239 121
223 133 151
20 24 46
190 68 56
71 36 157
34 236 203
173 147 187
208 190 54
54 41 106
103 122 133
60 129 1
57 223 252
93 22 139
165 201 197
219 229 224
209 142 167
251 19 47
126 67 5
5 20 45
224 245 242
230 224 121
115 13 221
151 250 182
219 85 91
68 187 117
12 37 121
22 45 219
204 247 210
14 180 35
32 95 201
194 186 59
68 127 135
151 35 147
27 179 146
170 251 77
49 70 170
228 255 9
72 177 100
42 35 156
171 252 253
113 77 92
47 25 184
220 127 162
71 97 111
253 72 26
225 34 57
98 165 65
169 202 80
156 86 198
39 210 119
203 245 182
39 216 128
68 229 0
134 45 148
218 46 254
167 237 12
64 124 179
174 9 178
23 140 236
225 197 20
86 121 190
115 183 167
49 180 171
177 244 87
157 230 248
63 20 106
236 6 66
73 156 226
80 252 197
229 231 153
86 73 51
228 61 139
28 14 40
253 2 51
176 198 162
156 32 112
132 236 41
228 218 182
209 212 68
6 144 209
240 222 131
98 62 73
123 148 231
135 209 217
187 123 239
127 41 104
9 58 70
84 232 204
186 193 105
90 214 175
72 195 139
78 203 211
69 251 84
55 97 223
119 157 108
124 202 222
108 237 109
108 217 192
94 175 33
224 223 10
68 94 209
144 74 5
164 111 50
245 121 170
217 6 254
209 67 28
30 79 223
134 75 130
35 75 100
221 24 157
14 6 18
45 200 202
76 82 72
132 112 108
91 113 174
201 248 67
245 172 213
32 60 15
187 167 246
143 96 129
131 145 55
6 31 114
73 131 17
214 212 142
248 94 157
52 228 243
55 203 171
140 11 1
163 41 68
37 87 122
28 174 189
174 43 13
67 220 119
147 206 187
50 47 131
114 217 163
210 195 219
142 82 67
249 178 80
194 174 30
179 132 143
72 6 57
197 105 36
161 69 98
249 243 136
57 235 16
206 200 143
132 19 44
137 246 229
108 181 203
140 21 87
123 104 152
51 252 148
151 206 29
123 190 113
239 97 171
177 86 143
36 40 128
68 153 136
166 35 175
16 178 240
68 9 9
176 236 155
241 97 12
60 34 245
226 248 90
181 109 202
146 88 254
133 35 149
91 36 168
173 191 165
163 83 156
91 115 199
135 194 4
53 6 139
6 1 128
52 133 82
243 104 28
121 24 78
38 50 86
45 77 148
200 96 35
26 14 0
175 169 7
89 205 130
221 241 28
46 25 60
159 224 86
210 203 212
4 233 73
125 26 153
29 229 83
62 200 192
70 174 47
173 19 252
225 223 252
119 41 161
51 233 223
168 40 85
119 231 220
37 223 103
121 11 253
34 45 250
118 17 128
59 76 81
144 8 14
61 93 54
193 221 72
168 244 212
75 184 53
102 41 118
60 178 65
147 89 200
176 206 69
115 189 222
157 245 143
28 187 66
36 124 196
137 40 213
244 181 101
70 6 22
58 219 111
22 120 88
38 204 56
124 118 253
32 54 138
143 136 190
90 232 135
157 30 27
209 184 132
165 232 84
132 248 218
242 251 100
9 137 48
42 86 17
233 244 61
13 114 64
127 161 77
167 113 241
16 178 109
180 251 45
103 90 153
226 167 200
231 192 150
105 72 67
16 185 13
195 24 46
107 9 88
217 138 123
28 171 28
160 224 94
80 21 222
194 107 94
13 218 34
50 219 22
244 255 30
189 127 37
101 191 133
72 222 79
181 248 75
164 124 187
62 144 193
152 159 227
207 72 121
226 162 155
218 53 69
64 175 68
254 109 77
4 68 49
148 70 4
79 254 188
165 13 135
137 228 203
144 3 95
57 192 39
4 201 209
183 81 68
22 239 26
158 106 6
6 252 114
119 159 5
243 15 41
15 118 46
42 96 224
105 28 0
77 97 68
109 213 75
6 118 59
163 192 240
9 67 115
66 106 102
58 207 21
216 73 40
124 82 134
187 186 211
115 198 38
241 113 18
12 140 183
118 214 31
152 234 112
123 216 212
70 94 16
66 170 123
158 169 166
231 62 58
249 85 225
145 185 36
54 200 230
15 14 98
62 170 243
81 215 177
20 92 217
44 210 30
102 38 175
45 174 49
22 92 166
95 217 172
243 52 91
40 193 134
103 91 179
174 69 63
16 31 216
202 31 23
234 119 182
42 54 18
11 234 254
84 179 177
45 1 154
4 204 248
123 187 255
7 204 13
31 34 167
70 246 236
198 174 158
61 72 144
176 237 171
157 96 88
5 194 76
45 99 11
201 158 32
176 15 33
212 230 42
253 34 205
225 196 255
85 226 51
215 203 125
90 43 39
94 75 121
98 90 31
219 56 189
32 22 247
78 194 14
97 168 166
198 69 95
225 54 155
0 86 143
238 154 146
148 170 166
59 180 133
236 44 102
88 177 109
60 173 58
116 8 30
37 200 145
79 102 0
198 10 81
0 202 27
75 209 203
86 114 6
215 252 245
85 20 141
84 120 237
249 93 8
79 185 89
50 218 167
94 57 165
10 221 111
127 53 157
46 6 110
34 134 164
212 194 210
148 160 119
167 163 102
147 167 4
169 36 58
222 94 217
179 158 6
235 122 230
16 194 188
198 200 200
110 139 123
204 77 38
159 43 70
92 61 176
103 65 180
126 208 254
34 136 77
242 224 178
179 200 193
19 176 226
85 19 189
120 212 81
137 88 11
128 157 56
230 131 107
95 0 117
24 117 193
191 13 21
204 215 169
237 29 185
204 80 105
180 176 103
78 51 27
67 111 77
90 96 0
212 148 40
198 155 204
251 78 120
72 144 19
199 175 213
181 72 167
107 235 144
82 144 46
117 188 89
167 150 66
28 185 35
241 67 241
2 180 138
23 51 108
152 114 221
62 209 129
202 176 47
13 111 33
247 150 61
229 185 29
242 116 125
29 137 180
80 207 105
70 82 134
193 224 6
6 186 166
176 235 211
75 223 88
16 35 27
131 142 87
241 192 12
94 94 164
237 32 188
216 147 231
206 157 52
52 161 148
123 244 62
68 43 30
214 164 156
22 2 166
46 87 10
70 250 36
177 29 242
160 214 152
186 149 65
123 211 118
208 143 2
124 189 26
38 193 177
213 153 230
102 123 174
101 52 82
208 203 106
112 130 209
156 205 32
15 70 49
215 79 78
41 103 21
237 246 165
81 225 93
197 33 147
225 210 139
180 140 211
127 119 71
194 146 167
118 147 198
52 65 70
197 220 253
73 47 76
148 186 106
44 109 220
119 53 179
58 137 96
27 192 201
211 89 78
239 151 132
233 52 49
188 247 190
28 249 234
151 98 167
249 183 119
109 241 64
77 69 9
53 27 240
11 195 213
230 69 113
36 251 188
164 209 52
30 136 170
162 132 94
42 18 111
157 72 124
30 213 197
10 182 166
115 202 118
22 75 32
87 178 203
247 115 164
212 39 38
170 115 248
162 251 164
69 12 189
240 0 180
129 158 41
210 3 148
81 226 186
152 102 223
93 128 212
152 1 137
14 9 15
112 222 127
131 121 129
171 196 121
57 49 32
94 77 127
63 24 135
193 38 8
30 76 82
190 98 107
98 248 233
223 254 149
239 61 148
182 20 112
221 222 109
41 71 239
135 71 15
178 170 173
100 123 116
35 19 61
206 13 8
120 229 165
132 240 204
20 2 223
135 231 8
200 250 86
201 117 31
117 96 156
83 135 104
41 17 26
212 113 114
189 220 219
28 206 255
99 32 87
82 141 84
185 22 70
186 56 199
155 72 150
206 196 232
171 147 132
224 135 85
104 59 37
241 201 19
88 118 120
104 72 210
58 36 182
211 107 190
28 236 127
53 155 149
134 56 91
77 34 206
44 60 4
38 166 187
68 73 181
75 184 187
148 161 206
186 177 21
175 159 140
233 58 180
107 120 155
139 98 2
246 189 212
41 25 45
160 225 20
0 158 230
240 171 43
209 84 207
236 156 108
216 125 103
176 196 176
189 141 74
29 42 191
184 157 71
32 73 41
52 239 199
246 250 153
62 97 168
42 114 34
29 88 174
192 174 123
15 156 247
32 207 177
37 55 70
46 188 247
174 251 45
137 228 64
221 153 151
25 61 51
211 27 228
155 198 15
39 134 248
198 109 207
68 136 234
153 40 191
238 16 200
21 92 211
96 33 187
17 19 51
72 99 90
215 190 253
5 34 6
41 183 231
234 164 33
167 36 130
223 234 162
128 13 169
144 247 159
193 36 106
8 107 218
150 175 152
50 136 89
205 18 42
130 153 68
253 67 4
182 239 104
52 157 246
26 196 29
101 25 204
151 204 32
181 177 90
231 234 85
231 84 105
113 13 242
180 131 129
73 39 209
201 119 24
141 244 71
173 7 121
107 55 218
132 154 145
72 100 192
201 242 26
97 126 171
28 202 149
54 234 63
5 94 29
242 175 210
254 62 75
3 187 45
152 4 126
82 23 185
188 57 10
94 177 96
135 191 69
11 44 111
71 195 20
250 247 197
90 80 148
153 47 86
156 78 197
168 76 23
219 254 21
171 144 9
58 244 135
91 154 132
220 21 141
91 50 150
130 159 44
236 232 31
54 212 98
108 149 117
205 184 144
128 18 101
58 96 173
206 188 158
131 237 209
83 23 226
131 80 13
161 204 44
183 203 163
121 109 62
168 57 114
233 5 51
224 246 122
46 140 207
49 253 189
143 103 77
255 186 44
245 10 128
237 106 238
189 178 57
108 157 109
180 36 250
68 83 72
91 251 213
47 82 219
252 183 101
31 41 248
255 70 123
47 100 73
128 202 215
184 221 219
210 160 254
196 10 48
163 63 124
232 255 207
195 194 102
74 186 159
95 167 56
246 168 2
187 55 160
186 183 222
189 126 176
160 187 99
41 144 20
92 173 87
7 102 160
26 186 7
74 10 227
87 89 125
52 245 219
248 61 62
140 243 71
58 255 54
90 139 19
238 63 107
199 69 0
242 214 190
204 66 170
79 158 95
18 155 18
198 216 199
67 43 38
104 248 223
251 243 177
222 224 19
204 20 111
176 227 1
214 85 145
54 105 202
106 29 238
16 218 134
108 245 196
153 7 164
235 201 232
13 156 211
62 80 168
55 255 106
118 89 237
27 11 169
233 27 17
231 156 117
145 48 84
173 235 78
41 125 23
185 16 78
239 193 49
6 229 148
92 204 187
25 222 187
136 123 175
159 79 28
117 9 137
55 234 40
127 8 117
105 183 97
134 105 156
242 105 88
29 185 226
77 24 43
9 144 140
52 13 60
230 207 131
221 224 181
133 154 43
21 178 230
17 182 52
31 227 221
151 76 62
188 65 83
16 30 251
65 127 78
243 137 229
234 239 216
1 169 25
91 70 81
13 101 153
40 39 74
19 255 140
246 110 198
135 81 213
11 222 216
178 54 185
192 208 212
166 236 80
21 20 158
243 53 168
99 169 25
193 25 163
37 140 95
123 237 107
111 108 88
10 172 35
51 23 113
149 197 186
122 11 244
75 246 215
36 168 121
37 93 140
19 107 190
2 136 114
43 182 174
120 18 15
182 247 123
92 122 223
9 153 90
149 46 141
190 201 120
247 227 173
107 245 205
216 107 218
21 131 192
208 115 53
100 34 47
226 180 142
229 252 249
77 151 226
205 70 64
98 123 242
72 255 55
156 193 71
3 63 239
187 20 35
95 148 160
40 160 151
163 181 194
202 241 12
121 0 221
66 40 39
140 143 74
131 225 161
197 83 26
207 102 106
85 233 32
161 225 27
20 118 237
21 198 255
16 112 59
86 159 121
45 127 163
248 13 147
193 131 12
71 20 103
114 251 225
165 208 119
110 235 178
252 1 240
34 21 131
70 153 54
37 131 148
19 229 78
102 142 108
30 128 219
220 24 38
52 238 16
16 169 160
84 69 130
100 59 248
98 91 80
92 84 207
221 55 255
245 108 229
162 128 58
20 193 207
123 126 103
56 79 89
187 142 217
89 46 166
45 58 151
252 189 33
82 202 117
89 57 128
198 0 113
70 214 63
230 53 30
211 182 178
50 50 25
118 43 120
48 246 207
248 125 98
237 241 49
103 226 1
144 53 52
172 11 9
93 212 201
156 83 189
58 217 239
128 182 245
238 22 29
29 193 189
136 143 191
211 107 167
183 31 93
63 111 12
32 176 100
232 229 22
5 121 222
71 14 38
167 190 124
225 243 143
128 179 225
253 75 216
196 46 88
71 94 31
28 254 37
187 31 182
0 148 227
39 218 94
150 106 116
179 136 214
87 96 249
166 165 247
205 114 167
29 183 218
49 113 40
210 9 139
198 143 145
58 0 36
177 79 41
55 8 123
78 94 49
209 39 206
210 87 53
49 141 114
116 48 73
76 25 234
163 65 90
30 178 245
70 204 81
13 229 108
61 46 90
141 244 0
137 39 136
135 104 143
95 54 64
173 123 86
236 169 18
225 223 26
144 215 161
194 209 17
22 95 186
204 113 112
151 229 60
210 80 3
18 169 148
90 244 232
3 149 78
73 193 140
121 186 122
252 231 133
34 214 94
197 127 141
104 252 154
169 133 254
64 127 204
83 233 23
147 231 195
39 83 151
180 223 159
217 100 111
251 47 91
230 207 30
113 119 82
185 162 43
241 47 56
204 194 6
38 46 159
242 31 46
39 22 67
183 57 110
46 230 191
88 120 69
219 249 11
208 109 181
174 122 42
112 251 171
247 154 140
170 246 142
246 138 69
221 254 245
101 126 168
207 127 200
133 5 213
90 238 209
37 223 215
122 247 86
198 167 225
203 17 59
63 73 105
179 175 50
75 190 172
32 129 36
201 13 200
173 149 200
222 8 116
100 227 146
238 213 185
248 126 236
115 48 215
37 154 1
249 186 75
184 22 149
171 177 64
238 240 104
243 167 49
19 117 191
81 225 52
202 174 177
85 165 66
9 13 47
80 8 60
25 81 195
97 243 92
64 188 118
188 38 131
97 132 108
220 96 65
117 65 123
63 125 46
205 41 164
10 208 83
82 252 207
59 54 120
9 7 95
58 217 63
155 185 182
255 131 97
150 119 245
252 154 130
224 93 2
19 84 136
209 58 106
21 154 159
169 79 58
21 44 130
12 9 89
236 192 204
234 0 117
102 191 44
150 196 47
87 23 194
70 10 214
147 75 63
127 91 145
158 123 162
162 171 93
234 65 161
136 82 130
178 129 147
90 192 36
228 172 118
107 239 205
64 1 15
252 16 219
153 128 122
5 2 221
181 156 82
219 221 122
32 164 114
0 109 19
173 53 238
115 199 48
109 107 75
89 246 166
35 122 34
174 208 167
80 204 113
203 170 3
151 73 147
5 190 194
110 186 126
252 171 171
245 40 166
121 225 14
68 251 199
165 136 245
102 146 10
194 123 93
204 142 146
134 108 126
245 106 66
161 202 198
230 161 254
151 157 97
213 207 75
118 213 23
135 55 172
117 63 19
41 215 78
208 152 127
249 150 74
100 83 87
253 135 79
212 79 217
239 235 104
26 36 80
165 95 224
249 158 234
105 73 10
8 173 105
122 145 99
74 21 81
12 91 203
11 123 148
19 163 244
96 201 247
24 112 50
246 233 201
124 100 226
217 41 158
90 97 98
14 19 28
3 178 62
28 207 25
185 105 67
82 116 219
246 193 101
50 111 107
202 145 102
78 180 222
116 195 105
152 59 69
107 100 206
132 13 7
117 25 29
220 91 218
246 101 47
143 99 19
224 6 203
151 29 108
8 182 231
142 66 130
54 77 207
26 155 150
43 145 112
139 206 116
110 12 69
207 159 226
203 60 248
7 54 111
182 134 27
198 197 168
104 125 118
164 15 115
54 32 199
103 182 150
255 22 192
72 130 146
155 129 87
232 63 173
47 164 134
217 72 122
41 214 218
164 43 124
86 158 150
84 98 192
220 148 105
57 47 35
107 81 197
0 22 106
9 214 178
112 135 125
46 214 8
153 201 33
169 16 229
146 212 109
178 48 1
82 52 183
104 170 188
76 70 68
72 225 84
194 200 233
17 38 83
176 60 188
240 167 125
196 9 62
12 209 184
4 58 50
207 85 221
225 99 174
246 130 166
137 44 2
161 72 67
8 66 61
59 205 110
190 167 227
58 196 184
87 72 218
77 123 162
94 24 156
168 59 239
35 128 122
227 234 133
117 37 159
98 183 210
141 221 148
221 220 6
60 193 186
107 87 142
111 183 108
188 42 82
213 26 40
135 38 62
130 129 70
98 146 50
226 60 190
22 129 149
253 47 245
144 154 174
58 41 238
96 144 114
179 211 232
113 230 195
94 176 60
192 211 143
63 189 17
199 92 162
8 137 146
149 152 22
70 209 99
254 78 176
54 232 139
36 182 171
106 91 11
28 105 3
9 241 183
128 140 74
98 36 114
130 107 70
189 50 170
64 43 126
55 166 60
96 173 243
196 170 155
74 146 36
70 1 194
178 196 39
150 218 26
219 230 182
130 192 192
130 43 242
217 111 82
86 63 60
123 41 156
87 17 203
175 176 25
190 246 176
241 107 170
31 252 152
79 148 32
139 170 30
157 196 255
187 223 57
24 104 254
153 37 18
53 228 220
42 218 224
48 94 134
55 89 49
169 98 121
15 72 14
63 117 83
241 190 41
16 97 17
99 172 16
178 81 94
149 154 217
133 126 162
195 239 122
241 231 100
78 80 232
209 27 192
65 138 171
164 238 53
153 35 184
27 84 175
210 53 0
214 120 89
71 153 56
172 176 84
221 169 193
11 34 203
225 13 253
182 241 234
190 62 12
144 132 186
212 88 237
126 115 66
32 0 246
183 181 76
65 60 140
53 72 249
120 137 41
174 189 82
245 72 219
74 14 31
19 224 160
109 117 143
135 202 98
160 179 86
45 129 229
149 100 178
61 98 140
165 102 209
89 221 23
250 220 109
218 105 46
61 138 177
129 63 44
121 81 31
92 94 52
41 15 55
150 81 86
72 101 15
43 129 70
227 110 68
120 177 54
188 41 156
178 80 205
154 241 59
7 240 75
83 40 38
147 113 157
34 47 42
50 56 241
238 25 46
221 224 160
188 192 254
196 162 153
152 5 240
4 245 251
60 17 204
46 220 85
108 205 49
20 254 234
211 125 183
23 232 205
245 148 167
62 165 28
66 169 217
30 229 245
220 162 31
88 254 75
34 217 197
201 52 102
175 12 140
33 211 234
84 86 112
7 125 13
99 218 55
43 193 144
16 241 252
158 150 244
39 40 64
67 179 61
101 181 121
224 152 206
193 64 18
127 2 210
89 27 202
155 43 182
3 207 172
165 1 62
101 220 217
127 1 213
88 71 154
9 209 102
180 227 96
58 151 63
252 231 254
175 78 203
109 19 223
87 89 23
151 221 219
168 159 141
229 130 130
82 101 102
180 100 28
196 22 28
62 157 158
146 234 73
103 39 78
13 222 8
55 4 175
218 70 198
129 238 205
34 219 75
226 192 107
150 179 50
164 6 201
2 110 85
36 253 109
81 34 149
58 189 151
92 81 195
118 85 77
61 20 185
113 126 130
43 130 171
56 224 133
19 2 239
83 173 185
223 64 158
165 202 13
60 79 216
251 211 191
221 157 158
159 245 202
246 163 201
44 24 231
198 158 157
76 51 131
196 178 102
10 70 143
194 29 188
111 77 140
227 230 154
191 125 77
225 82 250
187 180 6
61 43 46
25 233 26
220 177 189
172 136 15
118 238 133
83 123 253
90 101 239
159 169 180
9 104 138
211 245 157
205 90 67
30 159 32
55 53 56
34 163 207
57 173 154
50 234 11
94 67 130
194 119 236
127 147 169
204 51 162
67 59 214
224 167 179
157 106 20
253 167 248
203 76 197
65 145 49
177 235 227
111 106 59
73 142 73
175 147 18
244 227 83
140 185 129
234 58 77
44 203 182
192 195 250
2 104 188
15 254 250
70 83 12
232 81 26
125 16 59
245 2 25
213 118 224
177 113 90
48 173 53
105 237 247
162 25 3
219 1 172
43 178 71
85 141 155
169 136 133
171 217 212
136 105 159
126 6 159
95 218 47
251 196 43
20 72 136
216 120 200
176 223 244
185 79 168
94 19 9
115 195 129
70 46 142
199 26 211
223 158 86
164 70 31
112 83 95
125 138 215
113 191 230
190 244 232
208 200 27
235 211 181
225 42 37
196 144 172
189 161 21
4 234 95
214 121 224
64 57 50
64 194 207
177 132 243
143 33 65
131 154 212
208 229 243
176 184 249
234 159 249
46 246 146
167 162 204
66 23 215
135 211 203
206 212 210
155 91 108
102 46 238
89 138 102
228 3 30
170 1 23
61 19 80
24 74 183
238 151 49
64 215 80
219 184 57
145 112 44
99 136 162
202 36 237
48 87 247
45 220 54
198 179 229
13 102 97
148 131 212
221 117 14
60 99 58
64 188 29
94 39 41
104 36 182
218 85 145
147 119 241
154 165 125
208 39 114
198 30 100
247 8 216
119 13 129
122 182 171
68 5 19
76 170 154
233 250 183
191 237 63
227 244 114
28 67 60
156 155 95
117 128 21
44 244 160
123 134 219
171 128 223
129 163 100
71 226 138
183 238 58
23 143 162
114 144 131
101 56 146
141 153 41
164 94 240
14 10 8
225 115 171
95 161 137
143 241 196
253 236 165
134 110 196
133 125 40
130 251 77
187 115 59
111 183 219
104 204 164
116 189 129
180 248 233
76 227 13
15 83 115
69 4 63
180 236 189
116 171 31
182 25 9
38 150 163
174 161 247
211 184 26
80 114 58
174 248 147
172 57 70
190 231 12
143 124 96
183 26 14
75 30 141
174 147 255
173 212 216
120 124 137
163 204 185
191 109 217
138 115 28
135 34 81
42 29 112
202 6 24
17 66 123
176 13 193
34 186 28
110 62 114
107 62 7
124 28 30
28 23 121
173 150 218
140 166 31
5 148 88
134 24 12
41 137 168
253 188 191
169 24 12
211 180 239
137 247 47
86 111 73
135 224 36
234 115 60
121 104 171
97 15 254
169 229 33
246 160 62
219 255 244
227 172 74
15 182 243
185 44 232
146 230 58
154 27 141
117 19 248
106 254 22
180 171 22
57 182 250
44 103 206
223 125 99
12 140 119
254 40 88
245 133 169
163 214 53
37 110 59
187 106 35
35 119 61
187 48 203
52 85 253
147 229 7
167 110 26
36 186 193
201 76 174
29 67 194
33 31 130
11 93 0
220 175 69
195 31 247
44 237 32
174 145 22
12 68 4
28 97 200
13 172 23
166 118 37
51 106 214
127 68 61
35 115 209
26 89 102
123 0 143
154 170 252
159 6 235
152 142 98
179 50 43
92 89 151
54 189 83
101 119 168
1 253 232
21 22 158
188 248 92
189 123 203
74 205 157
205 222 242
59 121 116
150 100 90
232 103 67
183 100 49
229 245 247
225 243 255
99 106 226
121 251 251
222 7 155
234 158 198
225 189 174
231 28 71
8 117 221
0 140 156
192 233 242
111 184 249
189 201 202
57 122 51
55 138 47
197 84 142
187 17 6
222 126 146
208 83 106
234 143 143
54 176 242
43 189 226
38 108 114
62 7 16
127 6 117
172 205 227
239 2 44
81 31 17
142 165 98
36 225 219
208 47 157
51 102 16
81 83 87
46 158 117
79 238 89
69 10 7
231 91 24
221 65 224
176 245 30
167 48 131
51 215 46
244 135 124
42 198 70
234 23 253
1 193 64
27 202 51
51 24 87
97 84 19
124 138 26
145 205 175
185 230 180
105 68 186
216 102 42
220 23 243
62 18 67
77 124 52
47 14 207
212 120 126
255 52 172
142 5 212
83 139 180
100 63 152
66 203 69
59 247 114
115 133 192
6 224 212
193 145 205
249 169 162
113 66 56
244 36 101
89 155 94
162 176 167
225 49 229
74 148 33
68 104 84
109 174 216
85 241 142
225 39 180
211 244 172
12 60 157
105 22 153
46 37 136
222 165 86
221 46 207
106 247 34
166 79 245
238 183 225
90 123 131
20 51 60
131 205 78
182 25 186
111 10 253
181 155 117
55 129 206
14 214 15
152 212 26
181 53 122
82 62 201
126 241 5
100 67 153
88 141 167
124 66 32
53 6 78
87 25 166
100 139 191
169 44 184
42 34 43
211 186 70
225 225 29
204 157 171
40 210 85
157 25 88
104 125 49
173 53 6
72 207 109
27 240 196
110 184 116
211 129 81
18 85 227
214 59 231
96 200 58
131 35 189
2 1 197
47 89 5
138 118 132
137 24 251
222 203 185
99 223 124
229 32 33
124 76 191
142 231 96
41 170 129
60 160 48
16 137 40
52 223 16
157 78 191
132 73 155
0 250 72
190 199 196
200 12 72
212 121 158
52 4 170
106 57 220
251 69 191
234 225 55
211 67 8
227 52 234
254 154 44
186 155 226
43 37 29
88 232 183
77 168 44
191 42 57
101 28 57
136 88 198
239 9 147
188 141 3
32 144 230
15 59 41
223 196 214
228 162 1
197 238 252
115 148 195
68 251 151
171 60 212
130 48 111
46 226 78
111 105 52
211 244 30
189 7 37
112 89 25
144 179 33
65 109 164
62 33 144
157 127 78
3 33 77
158 18 69
154 102 231
147 123 179
181 195 223
71 32 89
148 164 54
239 114 12
242 170 19
48 10 202
208 246 163
109 11 53
80 25 9
69 159 238
105 203 21
108 149 197
200 46 137
221 209 62
204 212 138
220 137 102
189 60 240
133 157 125
19 218 171
195 113 193
241 90 75
238 5 131
227 116 243
211 245 215
159 233 91
94 74 207
228 219 231
40 238 27
175 210 184
197 226 31
4 223 111
93 19 130
127 101 128
49 119 158
78 82 61
176 72 175
159 122 155
225 198 194
69 139 206
181 182 54
57 151 90
130 149 4
151 155 116
75 59 82
64 34 67
78 140 101
192 184 175
178 131 102
81 203 35
167 248 170
162 142 104
122 174 34
199 66 206
247 248 188
48 128 161
77 174 194
15 202 132
44 18 108
153 221 35
50 44 174
241 191 55
119 244 246
137 170 183
210 255 41
188 23 26
205 246 243
79 204 55
0 179 151
191 195 16
142 98 36
57 4 164
215 70 170
131 234 139
245 78 243
194 94 243
127 187 216
241 206 48
220 224 175
202 157 179
155 222 147
230 145 56
110 85 232
183 157 66
10 97 250
127 118 244
162 178 61
144 103 225
198 52 182
144 8 54
220 223 239
167 15 62
168 231 119
219 198 37
65 1 185
161 125 128
106 243 42
129 214 178
191 11 220
215 91 127
119 182 41
183 235 171
90 68 192
129 144 233
221 210 200
34 46 133
174 143 61
112 171 133
146 111 60
80 250 77
161 129 148
149 228 30
252 202 85
224 224 74
254 5 77
39 17 16
197 234 232
64 153 57
176 58 134
62 209 76
131 131 214
153 214 129
181 212 143
38 62 120
12 155 14
34 233 89
195 51 178
203 255 188
4 127 72
199 167 145
12 50 240
217 33 126
138 200 97
221 24 149
15 158 159
14 18 134
19 103 113
216 19 134
61 119 173
164 20 24
132 163 246
80 143 12
34 30 17
91 36 197
102 126 158
231 159 21
197 141 25
76 34 120
137 17 17
201 237 157
19 203 86
87 120 7
98 186 210
216 215 121
243 89 104
112 16 130
230 185 10
111 88 74
58 93 101
58 201 197
21 198 227
89 190 27
142 27 106
199 221 196
232 168 241
35 174 6
200 164 250
26 64 126
2 39 97
195 43 87
94 7 144
10 0 139
253 11 146
118 33 109
0 116 81
21 88 108
155 158 10
200 189 215
164 6 62
194 176 84
233 248 196
197 27 161
218 225 176
90 252 65
60 121 177
9 158 195
212 137 91
180 251 43
33 124 109
48 240 250
102 32 235
218 106 115
107 116 158
126 209 245
162 165 165
83 179 169
221 214 233
52 58 238
211 6 25
166 43 129
110 164 5
29 248 240
124 132 10
8 174 70
40 48 124
233 108 67
1 26 178
91 246 53
84 104 202
29 214 101
16 49 143
117 9 210
206 69 158
43 25 143
233 108 36
186 238 159
146 244 187
201 194 5
52 172 242
207 155 130
105 98 23
251 33 50
41 198 230
136 151 222
36 193 168
217 253 194
175 239 23
201 32 59
19 145 93
161 208 188
210 227 203
202 5 238
41 214 239
193 134 56
113 18 24
11 24 96
2 104 112
216 189 203
49 245 227
231 252 168
143 33 69
28 71 76
54 246 122
141 41 144
91 233 255
144 7 39
184 84 185
37 184 72
14 79 46
105 82 235
2 165 5
144 81 206
71 139 53
69 206 195
32 136 95
16 14 235
67 230 187
184 46 12
107 194 150
2 157 82
28 65 117
68 142 46
37 194 4
219 155 54
55 217 204
10 27 16
5 3 31
123 1 120
162 6 37
183 115 57
99 241 41
171 163 77
200 195 148
118 79 249
98 95 1
45 7 166
71 212 114
117 189 247
243 27 211
3 191 60
98 244 16
102 121 70
87 80 78
245 49 67
116 47 249
127 0 31
108 200 222
199 38 47
67 154 121
1 222 53
102 142 50
125 2 184
34 190 182
56 209 112
255 72 85
88 18 120
215 4 93
26 4 254
180 164 48
179 138 79
64 235 209
112 12 204
113 16 48
210 70 233
184 227 9
221 214 156
162 200 224
99 73 240
245 172 27
24 91 180
108 108 60
218 13 188
234 171 100
125 206 106
163 72 14
82 180 236
54 123 9
22 214 162
34 240 114
56 155 141
16 60 144
245 183 121
116 169 247
122 190 15
136 196 130
155 192 123
251 86 193
63 2 124
64 56 208
48 116 218
195 91 40
188 48 24
148 86 227
17 180 249
191 81 133
203 43 179
154 173 29
206 47 74
39 122 214
221 61 162
30 140 121
71 89 40
67 137 142
40 162 79
98 187 112
168 254 189
173 228 180
186 97 164
52 122 162
94 105 219
206 221 224
184 3 15
197 17 204
185 176 97
137 94 253
15 122 117
216 94 101
37 99 125
73 174 54
164 228 15
188 22 135
43 222 219
24 90 148
26 207 162
232 244 71
89 21 126
236 100 168
197 42 4
119 168 65
153 249 248
41 50 194
94 71 52
143 44 110
238 102 172
119 68 182
86 125 249
70 12 16
194 71 98
20 34 165
83 253 32
70 65 228
12 112 185
42 104 150
214 157 97
87 132 86
98 142 140
236 225 124
151 63 28
67 149 245
21 232 228
150 26 159
49 151 206
169 85 96
170 21 173
120 22 95
227 101 147
214 124 104
16 202 127
33 222 121
49 82 188
191 53 209
7 214 93
223 247 33
43 192 34
113 75 233
107 176 40
176 70 156
246 58 160
60 241 88
86 219 138
216 190 162
149 133 107
73 137 178
116 132 34
2 79 251
224 9 65
153 34 1
53 96 93
75 255 153
144 42 115
43 113 154
140 52 184
249 24 197
222 232 207
225 33 91
129 188 135
22 33 211
77 135 115
254 133 246
185 113 52
162 112 5
237 178 122
250 122 106
170 104 233
2 254 45
251 76 209
165 79 180
232 165 211
230 79 93
138 148 17
75 178 42
122 0 126
64 130 236
106 12 160
191 13 14
53 164 59
75 205 223
49 133 144
225 156 165
218 124 86
48 250 102
83 81 189
118 151 211
76 83 149
163 147 108
234 100 169
225 162 82
66 109 184
122 156 239
254 219 235
133 90 203
56 27 69
231 217 212
203 12 145
169 100 81
198 121 208
197 23 181
46 94 198
42 156 61
115 192 83
47 5 226
123 180 95
196 159 53
197 126 102
26 222 51
196 15 204
6 138 161
142 235 5
191 5 190
231 164 205
111 105 213
92 166 72
9 251 254
114 10 150
195 20 39
46 6 142
224 79 62
34 134 79
28 13 177
200 66 51
69 62 61
95 57 225
102 57 167
5 145 34
74 181 142
130 169 225
86 236 45
141 144 208
228 110 72
111 139 32
161 244 86
75 93 25
166 16 129
47 109 247
123 152 124
240 132 183
222 199 220
79 89 47
236 187 40
116 129 48
29 167 233
85 58 197
130 147 138
237 215 137
47 242 175
180 172 87
26 225 63
174 15 124
106 102 64
166 92 100
151 162 131
206 11 165
216 138 62
206 227 112
13 113 108
64 100 203
197 181 225
239 50 236
173 68 49
107 216 183
159 107 140
123 221 119
176 80 69
36 45 25
133 171 167
5 100 189
149 1 77
4 181 105
127 59 158
78 244 15
236 2 182
37 112 143
108 67 200
105 160 204
227 193 250
34 84 254
238 184 237
217 96 18
232 82 102
16 233 231
28 219 195
156 160 43
112 117 60
55 49 251
170 116 45
159 136 222
62 208 179
52 195 34
212 144 234
11 155 34
202 196 106
81 118 202
234 58 242
27 7 187
206 59 40
156 230 180
22 145 228
218 186 152
107 166 202
226 77 9
226 207 77
242 171 13
84 80 78
219 35 185
102 59 12
160 159 234
13 153 192
216 148 42
220 9 78
38 129 250
104 184 224
245 10 159
91 181 42
159 232 10
126 210 231
152 197 124
92 211 189
166 114 144
116 189 23
78 41 98
42 245 64
211 73 49
111 54 71
104 138 20
202 132 123
217 249 40
29 48 174
78 119 11
144 205 17
80 49 172
99 187 97
164 249 82
52 49 61
1 124 5
11 180 219
229 149 255
7 145 249
166 37 21
172 49 162
201 80 241
234 163 216
218 90 204
124 13 100
211 129 65
157 103 77
183 192 201
15 116 62
136 151 201
175 140 111
223 158 13
24 61 228
10 181 182
85 165 59
151 236 143
80 232 34
61 166 62
114 216 14
3 140 170
227 76 160
250 227 108
87 30 67
106 189 63
206 225 219
17 14 203
29 196 248
159 218 118
174 56 57
250 113 239
184 130 97
235 23 100
251 245 11
136 213 169
167 235 149
68 118 88
142 198 93
163 164 110
145 30 105
5 243 219
51 150 18
85 88 225
11 140 28
148 164 131
40 242 78
34 67 51
32 63 12
160 241 3
27 206 80
47 64 76
43 244 167
129 54 108
241 170 116
111 83 34
130 237 99
137 221 116
177 244 82
194 33 154
147 182 230
26 26 207
53 29 67
136 45 12
61 37 130
61 3 135
238 150 91
17 209 92
139 33 34
168 228 206
203 241 135
78 121 97
223 2 242
217 5 246
35 8 165
52 137 150
121 151 105
66 103 189
121 207 143
187 44 214
64 164 156
222 171 81
64 83 187
215 117 249
219 56 243
191 221 25
51 194 33
60 166 222
221 134 241
236 252 209
17 18 246
116 211 35
70 128 134
103 219 20
201 116 13
13 26 186
140 9 50
214 186 53
230 255 54
212 17 72
124 1 52
52 43 155
1 189 151
226 80 195
104 54 125
190 176 84
50 182 21
204 242 236
188 147 138
172 34 168
237 177 152
10 141 203
208 223 78
163 197 24
80 236 247
141 201 20
22 181 81
236 169 248
142 249 250
117 79 50
121 143 159
34 132 164
185 188 109
250 222 168
152 15 27
9 98 115
169 109 105
46 146 191
37 84 223
44 238 41
21 204 97
195 55 246
23 157 171
95 95 90
211 96 103
187 243 69
67 164 104
72 71 90
191 44 252
48 50 169
64 245 188
115 68 165
110 142 6
136 77 164
16 106 10
57 205 125
206 147 39
244 233 213
31 232 43
169 153 127
228 254 216
131 57 147
42 205 152
246 61 82
235 45 242
228 0 173
41 32 157
254 222 194
56 214 222
147 228 159
3 221 231
32 175 128
240 140 173
239 189 169
173 198 87
56 123 166
90 164 137
207 67 226
27 226 183
157 163 152
177 216 240
253 229 137
93 237 173
148 24 246
19 46 175
38 87 187
189 230 175
198 66 77
178 130 181
138 249 183
122 19 222
64 110 197
21 77 10
37 90 97
138 234 62
225 182 149
145 86 46
129 15 52
36 109 108
50 47 122
110 8 37
135 71 0
225 184 205
152 80 203
165 16 214
155 53 7
44 105 35
241 40 32
214 87 152
31 198 46
64 231 112
74 38 154
156 131 104
201 168 70
126 182 101
209 145 137
208 185 155
121 143 0
236 78 193
147 168 123
152 142 135
229 247 9
34 201 10
31 199 214
176 85 9
193 0 121
228 177 11
200 82 40
120 60 98
47 56 234
155 75 64
246 209 102
243 180 148
214 21 208
156 2 132
116 121 210
47 170 60
58 96 85
108 52 188
177 246 18
104 49 30
2 205 161
192 86 93
33 147 62
87 13 161
56 119 5
51 17 99
176 253 6
59 243 160
110 153 200
222 19 40
20 223 253
216 189 224
49 89 165
186 233 126
215 245 102
45 200 74
10 88 207
149 210 65
170 151 178
153 191 160
131 70 140
110 34 104
221 94 153
68 177 74
252 158 200
151 229 55
119 22 86
173 147 138
96 253 126
8 233 81
203 145 215
95 118 170
195 136 173
147 128 136
172 186 93
3 118 102
36 243 132
162 251 220
131 67 134
4 240 205
11 222 71
202 145 68
43 201 173
222 143 25
38 20 72
6 166 205
143 211 89
88 163 3
8 216 252
49 139 211
101 42 219
173 42 27
155 224 230
140 40 213
93 131 143
135 112 25
171 138 20
90 199 19
243 5 151
41 133 245
84 98 72
219 113 87
215 246 99
246 11 177
71 29 126
34 189 77
190 157 125
200 27 178
230 237 229
29 171 144
218 137 141
130 221 129
233 185 144
225 201 190
34 158 6
11 131 205
145 188 175
169 130 174
42 75 175
46 211 227
87 182 112
227 125 20
215 94 185
131 224 106
205 113 157
216 22 76
124 130 182
206 120 234
134 209 222
174 253 96
247 29 215
56 159 214
131 122 206
186 108 59
115 69 206
184 110 101
57 159 133
206 55 78
6 188 41
188 214 231
98 141 176
251 27 162
180 88 126
169 76 218
149 160 78
80 153 19
25 16 34
113 83 157
61 188 20
146 34 152
48 188 225
20 174 184
32 180 57
16 48 235
68 129 154
198 17 242
154 98 76
77 21 28
173 171 70
200 128 249
64 1 248
186 75 40
130 186 50
169 3 126
213 103 178
6 190 189
12 215 72
56 224 167
164 128 23
210 221 212
86 61 189
213 209 142
64 147 237
23 121 56
157 111 4
145 237 174
83 154 170
159 230 50
171 116 182
124 249 35
54 172 105
43 223 208
14 58 39
241 102 235
175 82 159
35 61 151
173 167 94
129 205 84
201 185 173
28 193 241
122 134 24
157 251 214
228 115 148
62 216 168
171 121 34
165 143 158
79 79 235
74 106 69
3 204 25
28 9 134
47 132 58
136 141 229
212 183 249
60 234 64
72 195 88
226 176 194
245 106 0
197 7 82
63 46 55
173 235 14
202 2 27
85 194 35
132 218 126
223 133 97
49 25 51
151 126 138
229 109 244
192 142 236
221 105 253
218 128 82
252 244 76
229 248 239
224 183 128
25 195 68
136 102 66
124 46 17
106 157 56
145 8 116
6 38 212
195 73 96
118 178 159
250 52 225
16 71 231
104 114 71
60 190 190
126 187 204
113 48 134
92 228 242
181 60 85
247 220 74
228 201 235
207 72 215
97 67 8
20 94 183
38 131 234
104 206 31
30 104 166
42 102 53
51 173 253
128 61 201
248 83 16
12 170 87
127 70 196
82 168 112
184 230 145
101 54 61
221 186 216
2 82 217
219 3 61
180 135 0
227 106 177
187 229 148
112 205 216
106 9 96
82 79 60
225 250 116
47 20 51
162 147 144
20 230 148
30 83 28
15 104 227
90 98 151
33 189 204
133 65 252
11 98 156
74 131 200
197 234 30
150 89 44
55 78 31
119 236 20
31 80 202
156 130 149
35 251 23
97 233 223
250 137 223
3 56 34
115 240 244
134 120 39
111 230 99
220 10 6
57 42 127
130 173 164
124 250 235
79 27 214
89 157 156
33 69 34
153 214 19
191 159 76
181 175 81
229 47 101
170 165 92
77 104 36
203 240 49
202 12 16
207 9 5
147 97 97
188 73 173
239 245 246
216 176 183
208 122 157
132 181 90
29 193 197
118 241 212
0 64 226
227 27 206
220 78 29
97 124 3
62 173 13
62 243 231
35 114 188
220 81 88
48 85 2
252 206 7
9 26 67
50 41 236
45 58 67
53 210 195
150 107 251
57 210 33
195 148 95
117 150 1
8 234 203
51 243 19
205 253 103
183 182 81
150 112 61
46 162 9
80 171 190
242 25 233
190 1 195
93 221 214
255 183 36
172 246 80
235 29 11
247 102 56
219 229 207
96 8 162
123 55 99
137 6 181
128 186 185
82 79 148
224 245 51
124 221 230
207 238 108
21 142 209
117 67 32
40 76 177
86 240 142
83 219 118
147 95 93
49 180 73
86 131 72
15 25 110
96 195 57
247 27 175
136 86 255
253 92 199
187 165 191
241 59 244
131 125 5
9 2 140
72 165 172
68 234 67
169 77 144
44 177 182
205 68 86
133 175 36
182 31 86
135 61 203
57 5 93
67 182 237
116 99 76
204 209 25
204 215 223
122 185 249
175 97 3
91 77 88
137 180 154
119 120 254
8 20 54
203 169 4
198 33 44
52 179 85
59 124 171
89 221 237
106 133 97
215 91 75
68 169 171
140 66 5
131 250 238
17 25 205
47 107 72
179 79 72
85 80 114
211 8 226
149 76 84
241 4 17
130 239 33
97 214 70
187 126 18
12 6 237
121 218 131
192 11 114
225 186 6
208 148 117
198 240 96
137 218 94
194 93 59
43 241 199
164 211 160
211 218 42
42 39 171
89 208 87
236 38 240
221 246 81
117 97 220
94 169 18
254 61 233
136 104 94
114 219 166
50 183 142
176 143 0
238 113 203
44 62 84
215 0 40
67 245 243
11 100 239
125 236 38
211 228 255
189 87 14
248 212 87
153 198 128
242 216 85
196 53 212
95 152 119
168 187 138
219 181 140
157 213 228
200 17 30
222 217 196
217 131 213
121 106 156
50 148 69
133 28 244
15 227 74
234 148 233
12 158 69
32 4 194
213 62 112
198 91 73
225 190 155
89 251 187
216 35 20
242 150 9
167 192 183
133 246 11
208 130 36
131 117 53
174 55 168
175 93 31
140 46 149
12 183 164
182 59 87
77 100 84
140 69 173
50 76 103
143 106 194
10 195 177
102 95 105
178 223 142
224 141 55
75 243 252
164 160 162
208 139 99
150 180 193
235 132 230
91 70 219
220 159 241
136 39 106
173 54 218
121 169 77
228 108 57
65 96 218
137 245 200
41 135 75
216 199 216
121 144 187
19 37 134
176 108 18
127 46 236
255 233 149
13 47 49
190 133 207
27 162 150
172 211 178
231 14 126
83 37 232
15 90 107
203 129 137
176 115 92
132 27 2
198 171 175
167 189 204
53 101 120
10 205 197
81 26 232
31 49 77
104 188 247
106 165 222
13 198 21
78 238 225
45 14 144
253 40 126
108 10 136
218 7 38
77 30 197
178 33 201
134 225 14
57 27 122
208 164 150
119 50 163
231 81 233
66 248 185
224 140 102
16 200 207
23 154 127
41 86 228
123 222 156
195 152 150
219 255 126
166 190 239
58 71 14
218 206 229
162 31 41
114 188 23
216 160 171
176 27 122
98 132 19
67 9 152
0 155 31
195 41 168
42 157 128
246 30 226
46 116 239
204 31 150
128 193 130
68 245 49
56 177 175
188 158 163
21 229 212
188 42 203
164 105 65
47 209 211
143 30 50
90 23 19
86 200 149
16 167 255
24 142 46
164 106 209
1 102 168
163 123 141
61 95 128
60 80 178
92 160 45
43 106 124
83 150 167
239 193 155
213 80 208
142 184 54
188 31 82
192 43 248
244 196 65
90 246 72
244 125 127
32 106 240
239 62 229
88 175 40
207 59 99
220 2 9
53 189 243
166 190 224
160 61 19
58 113 202
73 5 219
242 210 92
35 211 5
62 188 237
170 124 28
166 231 191
106 216 121
22 82 201
31 158 229
50 163 21
198 23 139
179 10 78
156 54 191
63 8 171
250 5 29
60 81 41
171 112 120
252 42 185
21 192 75
43 227 250
38 158 197
50 177 34
29 201 153
137 100 208
167 20 62
243 141 52
137 80 228
241 239 158
101 156 60
202 174 118
28 182 119
196 34 154
187 228 183
23 146 92
71 179 177
116 236 122
177 151 216
77 64 230
145 213 56
129 178 11
219 9 160
85 31 164
217 124 176
104 89 241
36 108 248
99 43 188
39 182 166
217 248 104
84 178 174
82 145 18
80 223 183
233 248 90
208 192 96
173 10 235
78 75 214
37 43 23
51 241 198
141 67 177
76 97 99
139 124 138
148 248 12
254 177 68
32 110 145
222 71 216
151 25 141
174 95 205
101 244 161
126 44 246
6 237 85
205 241 77
240 194 243
242 27 249
207 33 123
16 23 223
98 53 229
210 122 149
72 3 241
69 2 197
131 153 183
53 158 124
20 84 176
233 248 187
90 227 220
79 88 39
180 183 62
250 43 140
178 222 6
46 44 126
243 236 228
170 253 135
81 69 41
43 213 118
251 126 2
36 105 220
113 133 242
78 164 139
60 225 216
43 155 12
49 236 179
190 87 205
168 146 59
185 2 23
232 104 70
68 241 32
74 188 203
54 202 116
112 155 164
167 244 217
172 104 43
218 215 129
101 188 20
114 61 12
174 124 24
223 66 187
103 68 121
41 122 57
121 122 104
216 216 218
10 46 33
186 14 242
11 147 255
204 5 237
69 104 57
191 247 185
151 236 120
220 189 239
147 220 142
206 222 115
205 230 112
106 232 35
142 91 12
152 180 42
80 161 100
162 191 128
179 158 235
73 215 92
214 55 205
207 3 57
37 21 206
204 220 21
128 109 252
219 186 194
216 122 215
75 202 122
38 242 57
52 32 139
23 120 210
163 10 242
156 72 58
12 108 52
6 227 230
5 169 120
109 102 161
63 108 241
122 1 93
236 159 23
99 8 129
195 167 239
162 147 157
119 217 126
211 238 3
26 97 199
152 13 189
2 164 9
248 215 164
89 235 43
171 106 208
21 154 69
112 49 9
52 221 240
236 249 22
149 239 19
255 98 63
84 32 233
176 73 153
59 4 48
114 163 20
239 142 118
252 239 247
51 199 137
210 161 65
109 184 218
30 131 79
111 84 105
233 15 215
131 127 85
209 119 242
135 187 76
148 52 9
167 241 17
115 91 192
201 20 48
179 64 24
93 136 7
106 162 200
121 197 153
48 216 181
64 115 47
139 38 188
169 72 30
95 13 41
197 219 31
117 2 209
53 152 157
131 8 18
226 51 37
65 152 22
253 105 93
109 75 224
123 62 129
186 179 153
202 224 66
227 128 122
199 191 194
174 177 160
231 101 92
126 119 138
20 179 215
50 90 99
182 240 210
168 166 53
87 241 59
214 211 248
237 182 117
113 176 145
142 119 212
129 86 45
211 183 32
45 146 154
217 217 25
165 165 231
58 108 255
103 131 68
12 49 161
219 8 105
108 173 148
62 199 190
155 160 29
58 111 81
27 61 42
15 19 21
27 199 241
78 244 120
105 169 195
197 158 104
67 198 219
76 28 233
17 112 154
20 206 2
79 229 141
145 164 165
71 214 74
79 36 19
177 113 189
162 146 66
137 11 155
164 164 110
223 148 166
48 3 63
116 165 96
106 142 113
97 83 193
128 208 25
17 84 120
179 247 80
187 51 237
14 20 100
5 206 1
167 191 180
37 195 55
244 214 234
126 254 115
195 236 184
243 137 176
152 34 201
172 21 155
220 27 45
67 167 131
210 71 11
17 116 158
124 189 70
21 182 176
145 220 78
111 52 210
8 82 55
110 176 115
220 95 3
160 123 87
16 15 163
177 136 229
123 16 130
14 153 194
76 169 115
213 79 59
165 77 119
199 118 50
244 157 95
78 44 103
79 252 53
214 43 106
43 170 251
92 193 120
211 152 169
156 221 59
149 59 212
46 189 98
20 221 71
233 101 224
106 244 53
247 145 247
137 101 70
36 174 169
83 59 100
129 228 196
8 230 113
154 138 28
194 211 61
180 1 215
53 36 180
58 44 0
254 251 232
86 81 87
239 106 138
146 218 156
33 185 112
157 53 53
176 225 212
232 61 116
30 12 212
210 208 43
129 150 132
96 9 53
170 9 67
28 112 168
228 128 7
161 129 145
195 35 149
62 134 49
232 83 75
44 76 164
166 220 57
237 34 243
78 255 75
103 112 62
110 149 74
134 243 187
188 206 103
5 66 110
101 100 54
76 246 106
178 154 217
4 97 55
87 4 209
21 105 8
184 11 168
48 65 193
0 35 80
243 76 246
132 22 193
45 168 114
64 23 215
176 238 8
201 197 77
96 238 130
235 142 109
15 107 236
5 44 86
169 242 238
202 54 99
142 97 60
248 144 160
170 8 196
4 243 106
83 124 203
224 128 126
149 56 174
160 68 66
45 158 195
113 136 89
36 221 238
150 141 1
127 109 49
185 76 76
247 147 65
140 21 143
187 254 78
104 251 115
0 121 36
127 91 189
179 91 34
56 45 180
114 155 234
80 236 170
153 167 55
177 82 26
44 30 68
21 51 24
40 68 115
112 11 113
104 133 0
216 225 102
203 189 21
61 158 231
94 155 143
214 176 86
157 101 221
0 235 177
245 234 195
2 154 117
5 61 107
174 14 21
187 57 36
137 5 32
8 132 175
42 68 237
155 40 215
21 103 188
224 225 221
200 191 3
222 117 143
126 92 5
201 199 200
100 130 146
177 177 194
213 198 174
104 54 67
51 88 39
67 201 127
38 58 172
152 230 209
248 57 223
209 177 190
142 239 225
49 194 93
67 2 17
78 136 207
179 96 122
234 141 130
197 89 185
245 30 137
246 232 61
217 210 194
189 85 41
0 14 88
13 37 208
25 227 209
149 242 31
199 232 224
233 164 180
236 37 140
70 175 78
128 105 50
87 156 196
103 31 159
25 250 236
99 91 231
67 221 109
150 10 41
225 44 188
163 63 57
178 69 190
118 174 33
222 216 10
172 5 148
27 23 98
32 65 41
93 195 240
20 78 67
113 69 136
155 33 254
20 26 126
72 114 227
209 199 206
167 180 175
211 122 0
209 70 55
229 135 63
28 173 156
32 0 103
120 248 166
32 235 188
20 71 80
143 221 179
72 203 156
95 3 222
205 250 165
166 246 158
235 25 233
66 122 169
111 24 22
45 129 123
75 182 54
239 156 157
251 31 209
116 64 33
61 228 116
173 56 101
79 121 118
157 21 101
10 144 56
112 236 116
10 37 215
245 137 138
72 140 18
105 232 216
62 27 172
164 38 152
100 154 170
105 97 54
134 193 15
137 19 137
12 58 32
221 176 30
145 244 48
134 119 255
231 107 232
133 114 91
135 60 60
69 78 7
182 45 137
228 3 115
237 28 165
165 50 86
206 173 104
184 54 66
47 81 97
28 216 39
62 71 249
115 50 23
126 124 169
180 139 135
189 101 31
185 45 20
102 78 156
106 84 234
29 223 235
141 122 99
119 180 195
145 21 228
100 72 62
155 85 85
149 219 49
204 175 204
250 182 42
166 226 251
60 131 87
191 101 169
80 197 77
155 249 76
169 101 234
244 171 28
136 137 253
179 39 232
225 101 241
96 8 24
191 248 108
78 188 88
242 239 143
119 28 223
212 80 144
235 162 41
227 128 246
154 23 176
156 62 217
255 150 128
141 114 206
202 251 59
40 221 14
13 166 63
134 14 204
144 157 2
177 253 171
78 61 229
123 39 182
247 54 99
82 135 148
29 29 108
128 31 25
84 206 212
192 95 253
132 156 205
180 160 55
182 52 104
160 96 0
13 57 28
43 59 70
65 182 162
225 111 47
231 89 120
10 65 34
93 254 212
132 236 92
218 198 105
199 60 147
173 165 167
132 111 248
158 36 246
53 111 255
116 73 223
33 202 155
178 134 160
179 3 11
96 140 188
2 232 4
188 38 244
127 47 173
106 73 255
83 29 77
26 123 51
81 133 148
236 110 77
62 75 158
192 55 51
40 219 13
188 123 67
107 103 253
235 91 39
223 203 88
82 227 219
10 7 7
204 55 119
176 187 227
141 205 125
89 115 224
46 224 25
103 243 169
248 224 181
152 71 48
252 178 229
177 94 25
168 7 202
212 21 251
40 2 2
66 225 89
249 79 16
8 219 92
63 56 96
128 129 208
185 134 247
74 16 168
170 225 104
21 137 6
33 253 18
77 120 94
57 33 189
143 255 223
237 189 33
218 240 205
215 72 194
187 11 224
132 247 227
74 143 202
69 87 76
0 27 127
136 122 98
254 0 225
124 61 238
240 52 71
3 214 73
5 248 197
65 185 124
186 88 86
79 210 188
85 77 183
252 153 137
1 185 68
22 108 103
2 37 71
181 237 119
20 27 234
182 14 67
67 26 134
29 164 197
153 70 247
73 193 106
43 19 178
165 85 179
190 189 187
201 177 60
26 57 137
175 38 46
6 109 113
34 30 205
65 62 188
229 25 115
42 42 255
120 148 72
43 4 178
156 41 155
177 165 130
217 26 58
20 239 223
66 155 64
218 9 248
169 202 232
29 84 156
81 122 156
202 15 130
203 236 6
48 74 55
8 209 113
93 97 40
76 72 31
145 38 199
159 95 212
243 43 253
234 210 235
160 30 158
60 148 226
203 6 169
166 155 95
178 82 226
176 106 110
252 11 199
147 120 194
239 214 178
64 3 186
252 28 41
183 10 73
93 41 104
179 177 121
178 121 176
32 195 189
204 10 116
5 126 21
174 166 210
84 64 191
226 230 21
60 117 99
21 141 243
227 122 123
177 230 19
41 71 59
93 212 234
40 138 136
151 64 171
143 245 64
170 183 164
92 174 147
84 44 130
97 234 129
2 113 183
8 11 168
105 59 237
37 39 254
176 80 76
218 218 53
142 53 32
98 127 67
147 59 17
77 229 173
249 131 157
132 72 220
125 241 132
0 110 62
242 128 239
185 231 113
122 69 130
68 126 212
84 174 237
205 227 219
14 182 189
253 101 246
103 111 95
227 93 128
34 244 27
128 183 62
185 7 199
90 27 171
141 220 116
192 180 99
147 137 246
105 52 142
184 57 1
17 197 34
180 110 13
19 29 73
156 43 134
59 49 132
14 218 117
61 178 68
2 37 254
54 20 87
185 182 28
34 19 252
85 218 15
0 169 133
252 37 144
51 193 163
46 44 230
151 55 232
117 204 116
44 57 237
163 161 168
236 9 113
182 29 195
100 31 228
207 21 138
130 162 37
203 148 153
239 203 24
128 235 79
129 213 8
236 216 26
114 190 46
16 218 130
193 183 98
97 178 55
148 133 196
159 68 4
77 201 116
17 81 39
0 34 84
190 0 209
248 212 86
248 40 121
95 7 108
59 112 162
98 162 241
194 91 168
0 114 111
131 166 93
12 57 174
10 123 22
16 244 38
28 255 96
183 138 232
155 183 169
152 45 117
87 173 212
140 54 188
7 40 230
188 107 12
119 42 4
204 13 8
218 94 8
194 82 91
172 50 32
66 143 63
203 221 212
187 81 108
107 224 66
182 242 155
44 129 25
179 216 2
166 255 48
255 23 23
202 118 103
15 57 254
237 16 27
31 134 31
230 54 200
177 57 154
222 73 198
115 229 167
48 160 248
105 237 196
102 153 80
130 65 148
198 45 39
40 119 119
20 12 197
255 84 25
173 196 128
102 104 70
87 80 165
189 188 97
36 239 151
87 183 67
23 161 82
192 26 172
59 17 218
60 123 70
207 173 115
62 65 110
93 120 242
255 63 134
22 70 188
215 59 195
175 63 84
167 222 86
220 200 164
152 39 15
10 101 15
48 190 11
126 144 19
144 52 186
13 112 153
124 186 162
10 247 41
171 102 44
242 154 95
58 142 80
26 149 242
174 152 204
107 245 58
129 244 56
196 68 203
26 17 248
84 189 21
236 90 140
177 12 118
242 133 99
251 82 164
30 43 20
200 157 60
122 92 20
142 78 238
153 95 231
69 66 39
249 209 16
223 245 62
198 220 85
211 233 112
59 65 158
176 19 216
206 118 208
161 82 24
158 209 102
96 130 39
109 229 141
226 10 254
236 159 8
234 24 193
3 28 217
19 151 52
1 87 191
105 40 245
0 59 175
152 81 196
132 17 111
22 122 209
138 140 212
57 74 26
52 216 137
12 149 196
75 221 54
63 30 33
197 44 254
247 159 112
231 19 109
109 52 118
235 251 87
167 109 14
50 144 89
75 33 164
69 177 203
214 126 96
48 121 160
189 218 14
133 27 196
24 242 183
29 0 124
142 81 9
239 115 250
102 129 42
80 26 37
86 120 185
254 154 210
194 17 152
251 173 28
202 227 133
101 65 93
60 79 52
177 148 21
57 237 156
191 162 176
51 84 171
233 84 254
151 121 205
211 25 4
17 165 71
194 172 169
42 247 202
15 90 150
133 76 65
127 223 102
229 137 8
217 116 187
62 140 84
114 102 226
212 183 83
46 5 199
61 253 158
111 239 22
153 148 81
85 243 46
195 59 247
87 185 214
190 220 212
86 208 2
45 127 54
224 136 11
130 189 211
48 181 17
242 2 48
131 115 41
253 213 71
116 0 228
197 0 70
204 219 196
63 196 111
112 55 95
155 152 155
105 229 2
145 143 45
117 27 209
144 171 179
85 34 41
87 77 19
138 155 91
9 162 93
166 23 135
92 160 176
114 37 236
245 204 217
214 231 128
7 147 118
43 132 104
253 196 138
57 20 33
3 136 77
116 190 212
206 234 44
159 103 107
25 66 3
239 149 72
102 154 96
78 84 165
108 209 17
211 72 67
44 56 132
198 173 211
73 35 32
148 14 134
237 104 112
26 251 240
112 18 111
237 218 47
217 107 159
125 175 188
155 25 239
29 44 242
6 219 177
56 124 212
26 230 216
68 161 231
98 162 21
71 83 154
207 229 186
197 56 242
167 134 87
74 95 119
232 112 141
177 134 181
27 141 9
129 57 168
8 50 69
52 65 31
197 216 72
77 65 243
239 26 131
101 98 89
154 189 205
93 160 194
139 132 214
97 183 138
164 194 241
199 88 38
209 250 178
208 25 15
129 190 228
90 247 18
235 71 168
169 41 237
175 158 209
80 62 149
48 89 194
185 86 48
155 241 207
169 126 3
248 219 154
234 162 230
73 146 98
183 204 165
200 169 128
63 43 41
222 221 137
158 170 0
80 230 185
30 96 135
92 179 144
45 201 28
8 221 130
52 20 124
241 143 23
173 151 130
208 119 119
96 95 96
105 93 53
78 80 15
26 71 91
199 74 50
167 164 132
62 253 179
50 66 147
230 144 29
225 175 8
165 206 240
202 136 246
209 48 98
87 137 218
171 223 149
33 237 134
25 22 117
192 218 84
49 237 228
180 153 53
138 252 199
235 238 158
242 162 43
150 46 163
138 40 233
145 117 205
44 77 20
9 60 253
226 51 240
30 72 44
151 3 89
51 114 226
177 194 6
151 84 157
203 36 59
109 32 42
29 15 195
146 123 118
244 227 3
212 181 74
186 29 254
114 32 4
92 57 192
196 121 76
63 47 188
126 29 226
51 137 16
106 215 45
131 156 128
240 75 185
16 173 18
188 225 60
161 234 97
144 47 224
179 216 248
241 121 87
110 82 77
32 185 251
74 208 184
154 185 206
179 157 59
102 129 29
123 20 114
219 161 19
151 74 233
146 25 24
145 92 67
98 105 48
242 233 46
226 199 153
90 169 150
213 215 165
139 136 141
190 148 41
2 221 14
170 113 144
230 69 42
230 233 102
145 68 180
163 166 251
251 251 10
188 238 123
175 60 111
48 148 108
4 35 47
227 121 103
59 164 91
234 229 246
23 38 233
85 7 64
28 70 97
106 254 131
179 246 112
34 89 67
220 72 218
138 246 231
41 216 220
116 105 196
219 10 166
253 190 197
144 110 39
210 210 16
68 230 154
245 77 174
163 10 50
142 129 206
243 162 5
140 60 59
38 47 36
154 179 241
74 109 6
201 71 123
204 167 114
10 240 193
84 35 196
186 100 179
228 177 38
113 110 3
194 20 176
147 70 19
76 28 231
95 114 17
255 157 34
107 172 183
196 171 216
36 219 39
228 217 129
129 120 155
10 123 91
0 110 55
184 110 158
133 158 151
189 133 36
174 143 179
241 1 246
163 24 178
166 106 135
126 166 56
114 163 188
69 174 163
253 60 57
10 196 32
154 156 4
241 214 201
72 2 139
46 186 106
154 165 146
229 225 95
152 7 239
60 155 120
253 248 141
1 209 120
35 175 67
196 138 251
147 178 137
202 49 21
187 75 52
74 147 197
85 231 244
42 156 147
67 212 143
155 183 156
47 180 141
57 38 191
4 34 208
18 197 165
30 16 162
68 83 46
161 178 103
5 203 165
49 138 202
198 66 99
127 90 133
228 5 147
156 49 101
20 148 81
86 250 157
69 40 117
114 108 74
51 247 200
177 146 113
44 150 74
179 224 255
0 123 120
98 208 72
20 156 204
2 125 196
238 136 230
61 222 214
201 10 36
255 70 27
25 227 174
217 127 24
65 24 98
143 105 225
182 209 33
43 52 214
212 238 79
119 197 10
188 219 12
124 222 6
251 214 162
107 49 190
4 177 80
60 32 205
143 141 78
58 25 43
111 121 2
226 195 234
5 4 70
115 86 252
45 2 50
75 234 188
83 128 175
52 202 21
196 131 220
223 166 105
13 129 16
200 49 191
14 37 62
42 250 241
168 42 220
252 87 113
247 173 220
122 167 52
173 221 112
239 36 80
3 78 184
225 116 164
72 155 232
220 113 158
24 81 41
61 91 4
40 55 255
85 214 138
129 94 1
136 129 223
57 213 136
237 135 210
219 155 98
30 39 55
78 161 121
45 110 31
141 65 142
247 227 45
188 137 111
183 241 143
204 30 74
54 232 232
6 171 229
141 173 82
139 210 82
73 92 153
26 85 206
215 145 30
17 172 209
228 136 159
142 1 21
211 153 53
135 178 96
203 188 3
6 242 205
33 233 178
28 122 115
80 94 232
118 182 213
55 171 247
95 149 167
154 78 33
160 222 29
97 183 168
21 120 84
44 16 136
55 133 180
29 42 234
90 166 245
28 10 51
17 67 122
233 66 47
64 229 79
20 245 111
164 174 183
69 105 129
144 193 202
247 253 6
163 104 126
60 132 67
185 41 147
244 172 214
69 77 250
145 170 132
161 118 207
201 22 113
38 141 238
187 5 28
118 85 92
44 30 64
230 192 66
13 165 215
144 118 105
175 20 21
249 251 70
162 28 147
87 136 70
63 193 133
240 98 226
187 62 101
211 159 21
46 188 75
154 119 30
90 133 190
250 40 21
241 3 161
127 219 244
120 9 10
43 92 135
95 3 117
69 212 18
217 170 38
217 189 199
213 131 228
206 156 127
203 108 29
181 195 117
24 181 21
19 251 59
216 156 213
21 114 123
26 72 2
153 209 80
188 51 52
52 219 42
201 132 13
33 72 70
11 181 65
45 142 213
67 51 123
241 35 97
229 210 54
247 178 22
108 206 241
120 212 241
174 168 37
22 222 223
76 87 30
70 202 145
172 73 117
117 44 161
58 175 184
227 161 164
93 12 88
101 8 203
48 90 96
67 4 157
221 97 12
116 113 97
253 214 149
161 240 6
114 187 178
121 122 175
196 57 7
249 216 81
94 120 139
232 52 153
195 207 188
125 217 192
150 101 198
234 219 210
163 150 86
171 50 148
89 164 202
91 138 219
108 202 88
5 1 153
156 9 122
68 230 163
79 52 188
242 68 101
18 46 62
0 205 88
174 117 86
241 73 202
169 35 71
198 187 27
86 174 109
59 101 193
48 2 217
143 141 25
181 115 21
88 53 127
131 55 38
49 71 168
109 185 33
17 53 244
173 109 191
102 197 83
252 119 163
163 74 138
120 130 1
214 66 185
16 108 243
37 69 90
57 133 140
45 220 60
27 239 235
23 107 85
8 158 163
90 90 153
218 151 48
19 178 96
83 216 176
140 96 37
33 233 191
150 11 183
146 70 130
161 182 87
204 205 203
138 122 117
53 161 198
107 101 45
203 137 26
66 88 37
121 219 78
132 216 32
249 53 181
237 158 230
217 149 158
69 102 253
34 98 242
117 0 160
217 239 116
197 207 177
203 64 232
51 28 199
37 255 183
3 139 83
97 167 119
46 112 136
223 44 33
3 121 27
86 231 30
137 24 44
41 143 66
122 166 23
51 229 183
31 20 158
210 119 76
203 117 107
227 227 145
194 141 4
124 127 57
15 83 90
3 71 170
111 94 43
29 102 66
194 217 38
99 87 145
70 1 190
143 31 244
208 124 51
161 87 194
248 53 231
108 68 84
128 62 92
96 47 247
62 127 140
144 153 85
233 21 75
241 198 149
247 48 198
210 155 2
113 30 175
241 103 95
152 52 6
228 60 21
74 21 158
111 218 222
79 132 147
31 238 192
148 147 86
229 112 237
89 122 248
19 141 54
222 204 224
174 61 35
131 177 84
195 236 34
249 117 209
15 157 219
167 103 104
171 75 143
180 58 7
173 167 205
108 142 59
183 53 67
238 82 132
45 80 217
17 32 183
238 95 133
228 108 137
83 249 185
60 232 128
160 128 35
127 214 65
246 130 5
131 76 228
123 235 63
255 255 157
59 188 166
214 135 67
34 227 168
222 128 61
127 246 136
227 110 209
200 105 48
148 46 229
52 56 56
139 147 167
227 18 55
126 151 159
242 28 197
21 155 19
245 251 162
83 176 71
213 21 221
41 17 33
176 170 23
119 181 235
42 20 80
174 133 215
248 172 146
252 69 55
66 141 70
142 23 216
217 155 78
85 238 107
145 157 0
205 57 155
128 253 58
17 124 39
112 63 204
44 139 151
83 139 98
161 124 196
35 220 100
200 177 14
88 198 35
147 82 154
148 64 247
229 3 105
255 244 0
62 201 16
224 45 14
123 131 22
237 247 35
232 5 51
67 158 106
179 244 1
176 132 143
6 188 122
89 187 33
57 205 199
130 182 50
194 15 93
169 165 253
238 153 226
151 120 112
165 114 68
41 83 168
207 119 60
186 68 242
217 208 126
78 60 210
149 70 200
179 11 75
136 199 198
203 90 93
132 127 214
111 150 8
104 98 195
201 138 39
63 50 107
189 173 139
112 207 221
68 220 73
55 245 11
186 37 156
59 62 19
33 57 95
53 83 39
124 236 161
143 59 132
255 216 185
53 155 102
241 242 84
185 63 66
49 122 219
2 82 129
67 43 43
95 13 48
201 244 212
239 189 160
211 19 78
192 190 187
57 181 114
70 188 77
141 105 252
223 62 122
57 116 105
2 108 186
16 133 83
245 76 110
156 60 102
248 224 67
160 48 81
116 70 82
119 150 195
7 26 153
51 64 185
13 146 47
141 30 47
103 247 132
231 181 182
96 221 203
112 239 172
4 1 177
233 104 6
78 222 123
21 233 43
124 27 81
114 152 242
50 246 116
12 145 70
88 159 169
246 133 162
5 140 202
194 204 246
82 20 126
219 201 60
57 142 197
36 125 11
7 181 95
24 242 133
158 220 28
112 23 27
192 137 42
134 30 232
21 227 236
167 43 47
57 223 159
155 96 231
181 12 70
134 201 147
13 33 83
72 11 194
170 161 56
33 231 51
152 35 115
146 39 201
56 11 88
47 155 200
18 61 2
41 14 56
57 77 189
150 34 8
194 49 12
131 229 41
136 33 146
235 134 14
106 185 171
163 173 190
82 156 75
34 238 104
124 130 250
218 101 58
105 72 125
64 150 210
163 112 59
38 69 170
199 222 179
92 215 51
94 58 80
49 158 162
20 106 238
197 234 48
212 182 40
235 146 56
79 112 170
26 118 184
188 145 26
197 45 236
133 10 146
188 116 168
253 188 255
232 231 31
209 247 1
25 160 248
160 82 205
53 215 149
33 217 21
184 170 38
230 216 57
182 153 220
186 198 122
100 57 92
188 207 83
199 194 118
13 31 93
43 110 16
113 130 154
22 94 248
142 120 122
166 109 90
31 224 189
252 51 74
123 55 56
246 153 199
254 161 6
196 255 23
140 157 53
177 95 34
50 195 68
74 123 219
190 233 134
3 155 77
141 154 167
32 77 89
246 178 122
157 30 202
57 34 127
218 22 4
143 181 166
98 179 169
87 254 85
139 242 219
25 115 212
21 178 136
55 205 213
60 144 208
229 212 38
188 25 97
160 11 142
45 194 83
177 225 117
255 251 229
126 217 152
140 135 233
217 141 136
110 178 203
21 66 245
53 130 217
232 204 65
111 121 114
128 219 158
75 91 32
92 249 151
91 110 6
54 25 101
251 111 174
97 127 99
148 201 121
199 233 131
97 26 227
134 211 172
62 81 200
231 246 207
52 228 143
183 48 16
229 95 135
148 142 227
245 182 104
232 177 71
137 34 177
100 203 232
3 168 218
202 153 6
104 224 15
63 168 62
240 183 225
75 250 243
248 255 239
5 108 193
70 199 121
229 188 128
225 229 239
38 98 90
111 160 86
38 6 82
128 189 254
105 130 138
250 241 220
77 208 247
210 108 91
63 177 190
214 183 190
0 126 92
12 223 175
22 207 64
57 254 71
197 63 175
184 73 32
28 5 113
243 2 26
160 28 2
32 220 131
82 184 46
99 52 71
78 108 141
145 2 101
8 174 46
217 56 15
120 158 79
164 66 216
139 37 210
6 250 47
103 118 26
19 171 85
10 113 41
160 75 124
128 26 63
188 72 166
189 244 241
198 42 48
210 34 69
184 35 96
35 113 143
240 119 122
98 11 139
84 11 86
148 183 209
25 22 123
189 137 18
144 11 248
109 52 204
167 184 82
243 181 240
109 9 211
9 138 133
43 74 105
28 185 60
14 217 240
223 118 31
244 246 103
184 62 81
227 190 235
251 149 89
178 200 73
37 201 162
92 33 181
108 143 75
21 133 79
8 34 167
243 228 129
237 132 104
252 220 123
239 57 229
107 29 148
129 18 144
79 141 188
67 198 0
84 100 18
15 250 184
165 8 46
239 195 180
45 7 161
99 10 227
111 90 131
78 155 208
149 237 238
61 41 216
173 224 102
190 88 45
218 215 251
229 128 186
35 195 127
143 245 144
202 12 25
244 183 164
22 124 215
51 43 7
29 227 172
190 180 51
95 45 120
14 131 202
209 121 12
182 112 110
38 129 217
222 185 137
60 182 169
183 176 193
18 95 68
195 5 184
5 115 107
57 186 114
216 193 147
192 109 53
13 53 211
135 225 212
130 249 174
91 155 111
223 236 166
3 243 112
243 184 155
188 72 115
253 129 84
106 158 146
230 83 161
251 157 143
203 9 146
228 187 141
49 62 234
165 178 123
7 132 247
82 163 36
255 63 21
240 99 61
197 17 3
224 118 23
171 251 19
64 71 38
116 235 85
28 202 78
146 31 66
219 188 57
147 229 79
254 54 223
233 25 136
39 104 209
41 245 208
253 73 236
172 63 255
43 209 128
205 116 12
197 107 71
236 229 233
2 126 97
123 229 159
155 174 215
230 145 91
52 227 6
87 47 52
167 115 142
83 148 164
223 57 21
149 196 5
156 122 218
171 242 189
139 222 175
179 251 30
21 66 95
217 96 75
214 179 108
107 235 110
155 127 220
134 210 64
136 55 105
140 229 212
101 71 165
237 238 231
149 122 93
78 147 135
150 65 141
36 2 224
22 208 162
151 33 70
182 26 62
200 8 95
113 174 224
226 106 76
221 120 55
208 103 66
67 196 25
20 37 51
253 196 118
95 174 83
86 193 64
184 118 40
109 106 87
26 120 25
123 134 179
47 80 255
211 71 162
148 183 83
23 8 124
125 250 203
219 196 149
166 151 203
180 211 198
65 5 95
125 86 128
87 213 203
152 63 47
74 150 33
116 108 177
183 80 14
178 49 228
173 159 32
87 196 79
87 248 215
113 105 112
235 254 188
245 24 179
224 74 176
234 144 223
2 52 181
38 114 200
134 8 195
206 1 221
209 32 231
36 212 19
73 168 210
91 233 94
197 149 104
185 47 88
249 247 54
35 115 250
84 186 201
211 161 123
208 113 0
243 143 77
210 68 142
24 42 64
145 169 3
115 43 50
100 70 22
33 85 107
213 121 148
177 124 209
38 131 228
150 54 7
184 236 25
191 76 233
250 182 23
72 50 89
193 129 239
247 237 143
167 92 0
197 159 186
255 200 246
220 242 3
140 68 128
2 218 236
193 252 162
117 60 166
137 163 24
23 228 58
23 51 148
73 165 246
125 5 120
101 5 167
150 78 182
201 232 73
135 168 227
95 116 204
230 2 223
230 144 25
55 81 141
189 244 133
219 153 97
223 230 29
64 80 197
113 22 163
213 227 150
210 199 56
60 247 104
106 26 76
27 61 113
60 17 66
66 245 87
63 134 85
8 62 52
9 230 24
54 153 194
247 152 247
234 8 100
39 188 250
146 45 194
112 206 49
47 226 181
216 207 176
49 213 129
96 133 110
158 61 194
126 242 57
208 3 102
252 116 31
142 234 121
6 97 242
53 97 239
63 213 74
194 171 56
90 11 29
140 143 84
208 110 29
9 112 124
91 19 4
82 90 68
240 207 115
168 20 208
67 143 100
54 203 132
118 134 217
231 91 150
60 240 66
209 159 214
254 11 120
219 224 223
181 100 142
58 210 92
137 208 238
116 30 233
239 28 54
254 17 137
152 73 195
139 66 42
48 88 186
219 38 230
78 17 232
226 136 60
172 72 175
151 207 9
10 172 44
63 192 182
125 197 36
236 19 125
60 192 137
150 35 158
203 31 222
17 87 117
164 246 51
89 8 136
31 139 48
91 42 253
30 110 4
187 64 204
203 19 187
171 152 60
79 90 198
31 142 100
244 105 125
8 41 147
56 124 180
41 56 59
202 5 214
43 140 0
201 246 65
174 77 208
249 233 69
184 205 150
38 193 226
52 147 247
61 184 61
207 118 86
240 80 41
122 103 147
211 140 128
45 213 7
200 45 182
144 248 4
42 138 219
76 184 190
36 210 131
97 79 199
140 230 190
119 115 227
181 116 192
73 191 123
131 175 14
5 220 7
91 69 218
165 81 182
71 77 113
194 220 229
164 184 240
234 65 209
250 24 109
34 4 235
144 198 252
111 17 245
139 84 238
14 47 192
210 39 180
59 112 110
55 149 244
124 205 184
35 6 112
32 166 90
114 121 59
234 113 242
244 252 105
35 246 212
72 178 6
56 97 53
165 234 135
248 213 90
44 110 125
193 88 149
34 151 129
123 240 249
92 247 165
191 236 198
42 1 208
155 238 100
241 48 199
53 74 140
17 60 144
180 247 47
13 178 146
183 162 188
8 110 192
186 39 33
34 15 171
8 121 228
156 235 24
48 91 165
203 211 108
184 100 196
13 11 29
87 111 53
113 255 148
192 176 80
86 249 140
160 28 144
137 184 35
227 193 125
6 227 244
1 24 39
52 240 252
67 14 35
60 116 39
83 161 16
65 145 183
100 127 207
219 244 48
225 204 161
241 7 102
159 238 115
156 211 102
211 24 130
171 46 217
38 197 217
122 123 13
41 78 7
34 128 126
123 99 189
5 148 225
40 175 45
191 220 31
22 179 113
205 214 79
52 190 71
242 169 91
67 87 1
141 173 211
8 31 45
203 126 37
205 233 58
172 93 192
138 167 104
19 127 187
2 117 221
119 120 15
250 11 128
48 191 236
23 55 73
106 239 210
253 55 129
1 65 68
112 54 132
107 19 134
151 216 122
233 239 127
58 129 9
239 148 151
127 19 49
92 74 55
150 24 65
113 190 78
118 20 173
37 60 75
44 117 43
137 249 4
196 194 171
160 4 58
55 97 113
241 204 103
104 197 232
92 58 43
35 226 170
75 155 254
93 78 34
198 3 206
235 58 166
124 108 25
144 125 63
136 200 254
148 62 67
96 33 227
146 112 236
250 243 20
142 204 150
126 158 182
89 170 89
241 95 24
94 41 242
81 137 227
7 179 113
199 212 241
39 184 40
29 158 2
149 27 49
217 66 207
99 54 124
119 177 101
2 238 185
78 144 99
79 10 1
78 237 114
26 70 6
124 99 140
100 49 200
141 45 239
190 235 45
109 158 96
5 53 204
207 28 162
11 168 90
77 178 212
147 190 244
116 189 49
71 4 114
222 88 235
216 203 171
59 114 192
95 194 221
26 113 248
79 194 18
109 56 74
143 24 247
13 216 113
150 108 141
100 55 61
28 231 175
70 180 12
179 200 59
42 131 226
223 209 170
194 83 254
178 95 14
205 111 141
232 158 1
174 210 160
55 198 169
84 218 157
23 215 192
87 122 83
182 172 133
92 69 52
187 48 134
70 225 48
150 239 156
250 156 182
145 230 91
16 255 64
63 9 39
67 187 24
21 28 168
222 39 130
46 61 188
172 193 145
157 128 248
48 245 42
27 23 20
147 127 242
36 18 162
214 158 250
50 228 46
1 21 62
173 218 175
185 102 0
210 44 30
189 34 66
155 11 172
200 59 120
216 18 143
195 37 172
254 150 250
61 44 135
188 105 137
135 200 142
194 101 106
129 223 108
138 234 96
246 58 247
114 18 124
190 168 86
207 173 97
79 189 18
25 44 104
200 238 20
129 111 17
12 2 25
122 75 173
118 200 130
187 168 132
34 100 55
232 229 96
190 27 141
244 242 19
76 39 188
123 246 179
205 227 17
159 192 232
225 13 188
160 154 68
85 27 142
93 69 214
242 60 13
70 125 32
50 41 124
185 213 123
247 151 203
19 183 151
133 234 229
50 220 196
238 101 174
9 120 41
151 169 233
8 183 27
149 253 243
233 11 196
217 3 137
134 222 79
137 208 150
215 200 25
158 88 113
236 25 116
209 160 141
34 113 248
27 189 69
30 159 181
80 239 220
251 69 221
57 179 241
184 157 129
77 15 62
188 156 168
219 133 36
141 17 197
119 85 210
171 215 148
22 59 166
126 227 247
81 227 148
233 164 187
168 84 244
106 43 79
80 208 82
102 150 135
78 129 186
218 219 163
169 237 181
255 190 172
19 220 26
254 240 255
39 7 209
29 186 69
94 82 242
63 172 224
250 159 56
57 252 199
166 141 222
22 223 9
130 71 110
246 156 28
51 78 87
80 244 122
142 18 17
166 191 161
0 147 159
118 58 229
106 246 231
152 222 208
223 135 110
110 245 253
31 179 120
8 125 192
1 224 44
122 241 20
184 102 226
246 40 82
135 221 102
188 160 250
31 243 87
7 254 71
43 165 10
127 167 161
196 16 37
117 181 120
11 252 235
41 210 63
43 231 2
174 94 140
173 152 73
26 158 184
117 109 56
254 102 165
61 141 161
179 251 114
199 15 176
249 222 156
106 149 202
53 84 137
67 178 40
168 161 71
225 93 41
30 209 232
164 2 89
54 1 218
248 70 137
246 52 143
200 234 236
55 60 249
53 221 71
149 129 116
10 50 54
0 209 170
149 201 73
225 71 120
215 182 2
40 135 84
178 243 176
18 181 23
157 64 134
186 248 106
209 90 110
91 151 246
139 203 96
148 183 77
126 221 19
86 17 53
26 135 86
157 57 201
205 241 156
25 173 251
171 37 128
62 152 214
78 209 222
40 29 253
191 91 34
167 34 129
13 13 156
82 173 184
134 219 211
28 227 212
186 81 19
67 44 65
42 3 193
103 52 148
74 182 12
92 166 64
172 22 127
198 240 162
147 228 33
64 171 186
248 165 143
10 255 133
164 95 62
182 203 178
153 184 217
171 55 10
94 43 22
80 189 99
130 181 201
170 199 53
142 186 231
237 112 241
176 57 101
157 119 89
21 180 235
2 199 173
27 76 92
123 243 208
89 72 175
11 187 233
150 154 80
129 210 122
79 105 69
210 128 158
0 151 231
49 37 121
49 71 20
253 180 6
194 128 76
122 43 49
66 82 212
45 46 105
11 80 112
198 243 158
65 82 135
90 45 17
36 36 36
199 116 41
226 254 60
192 111 238
186 113 1
146 10 84
184 101 110
91 15 140
86 175 78
169 181 199
47 55 125
16 115 144
106 113 223
203 205 194
227 235 33
125 11 225
143 212 40
129 107 127
174 142 116
165 142 180
166 79 239
128 147 42
19 12 179
131 91 252
170 5 143
178 38 250
48 216 151
22 7 136
64 123 135
53 92 100
182 23 165
87 9 51
193 28 209
124 133 177
39 1 79
48 128 17
190 21 82
68 45 47
248 191 121
161 110 136
204 180 87
107 186 133
189 11 134
90 217 1
1 229 13
57 42 17
210 162 225
79 110 48
11 64 204
135 177 191
214 155 254
2 2 27
111 237 163
164 60 194
1 158 73
255 172 98
21 149 51
67 69 6
7 227 227
84 133 143
166 55 173
54 227 106
38 102 170
219 141 236
37 6 254
195 223 176
217 17 5
196 231 200
199 46 11
100 90 140
77 13 255
221 20 149
210 207 119
120 202 205
174 71 117
165 243 7
102 81 38
121 240 38
46 0 138
11 77 100
157 75 250
146 172 169
231 186 96
69 250 135
244 109 144
138 42 136
154 31 167
246 190 14
135 19 30
110 21 235
38 255 90
248 157 75
4 108 246
75 29 22
72 133 172
235 107 20
226 198 24
20 252 176
94 34 247
189 55 206
211 33 74
128 45 61
14 30 224
203 54 156
111 81 121
45 115 222
46 48 221
113 152 87
106 254 5
237 58 141
181 12 32
255 98 194
170 109 160
65 239 209
20 74 13
78 113 177
44 30 140
105 183 147
138 162 120
210 29 112
34 159 95
176 175 47
247 200 236
191 149 171
244 58 147
114 215 148
207 64 190
90 193 93
231 180 134
68 31 130
123 129 215
254 137 66
53 227 11
161 158 51
70 92 167
58 240 144
248 156 125
128 108 177
113 72 212
82 110 60
28 155 251
128 39 7
180 196 248
78 111 195
64 53 182
130 139 105
205 154 5
180 180 192
212 7 11
67 236 210
76 27 102
249 7 240
137 73 167
227 177 201
169 214 107
242 159 80
218 17 101
145 159 27
189 213 12
59 76 20
157 214 80
37 136 226
162 39 239
53 66 25
160 36 26
197 74 235
123 31 18
158 109 113
150 149 44
27 127 251
223 185 229
137 196 224
8 14 220
13 50 41
40 200 159
169 60 52
115 136 113
33 154 154
175 128 3
229 148 117
127 187 6
185 240 79
47 206 6
19 153 139
65 54 22
167 12 132
50 160 149
3 67 196
96 134 28
208 69 170
112 243 197
203 239 196
83 192 23
229 83 48
17 255 95
148 229 19
98 174 207
214 168 183
187 198 246
253 139 160
201 163 249
63 231 20
60 0 197
102 59 162
158 2 214
94 129 141
138 146 137
212 124 41
196 2 147
213 178 235
49 47 12
90 230 199
17 7 167
209 72 122
151 34 208
93 63 148
102 128 233
187 102 48
19 43 229
191 68 159
242 35 109
156 246 86
104 231 195
46 55 146
75 211 163
156 89 93
69 230 250
112 191 170
234 19 40
200 14 29
9 37 193
116 254 20
246 28 34
181 159 33
6 132 208
59 247 232
150 229 213
182 139 180
246 44 208
250 6 162
119 13 43
207 251 171
138 198 34
33 229 208
213 193 249
182 106 96
214 71 76
249 87 198
28 30 70
12 133 192
191 82 117
179 46 51
54 6 49
250 171 232
10 88 17
91 200 114
249 172 217
199 170 210
49 103 95
168 231 83
89 183 133
66 73 77
217 143 175
190 202 94
140 149 106
43 252 176
174 155 163
141 30 176
109 64 178
93 240 243
141 6 52
12 232 16
32 226 49
132 107 226
90 145 38
246 77 213
212 102 43
248 35 32
33 33 86
224 103 220
97 182 15
50 7 14
4 180 225
49 122 99
87 1 145
167 245 17
39 101 236
27 217 246
122 223 69
132 10 195
195 118 5
15 244 135
19 91 221
203 173 247
223 69 57
149 6 87
209 143 70
214 166 140
212 215 199
198 232 113
243 241 148
254 94 208
110 114 187
154 173 153
147 50 165
253 1 168
198 213 149
25 167 214
200 73 155
31 229 31
86 156 27
149 39 182
62 36 129
151 230 248
244 164 125
58 43 92
131 39 124
17 28 163
157 121 196
70 82 64
117 46 14
201 238 249
53 212 176
157 42 139
151 35 55
19 149 19
253 228 204
127 113 224
255 196 136
229 114 218
210 87 195
246 33 9
180 238 141
14 177 203
254 59 84
157 2 5
200 75 46
139 23 59
143 192 120
82 232 133
211 242 60
43 22 82
189 24 232
242 195 53
73 32 13
31 205 61
244 36 130
8 20 31
193 157 72
66 107 108
186 3 231
226 218 124
13 131 132
223 234 202
88 176 153
211 54 70
195 158 233
189 19 43
41 43 109
53 29 118
54 175 50
136 73 251
121 233 124
141 64 33
96 176 71
133 54 119
213 156 126
156 74 190
54 44 55
35 88 230
46 190 12
96 41 105
171 185 40
242 133 125
98 231 48
141 59 229
116 30 242
222 215 177
199 169 245
75 6 63
98 207 162
197 171 17
82 85 60
48 101 148
47 241 60
133 76 80
16 59 134
108 148 46
148 88 227
249 73 253
124 198 8
118 253 70
86 168 92
191 228 86
181 159 41
249 165 75
192 246 182
60 242 55
216 71 242
220 92 9
230 148 81
73 124 52
220 57 67
178 143 82
90 153 111
82 220 182
97 199 68
254 129 34
129 224 28
41 69 96
196 7 200
212 12 156
182 96 244
194 238 163
147 241 32
167 85 53
99 37 202
194 145 5
176 4 33
210 140 139
42 149 183
68 119 95
12 241 182
190 203 96
226 72 222
177 164 56
6 178 136
77 244 218
179 41 252
211 170 125
235 143 238
220 248 217
94 140 113
243 144 144
29 244 6
192 140 3
241 72 20
17 36 139
65 69 103
125 225 223
232 149 130
126 204 246
80 41 187
35 70 39
155 78 201
143 153 21
133 163 193
70 215 49
211 62 190
24 40 156
5 184 220
251 162 213
40 189 143
12 208 2
179 20 223
173 47 220
77 82 190
210 96 222
201 94 155
54 153 145
43 28 141
225 35 139
98 11 109
0 6 0
225 112 164
114 176 182
15 222 107
191 232 255
38 190 54
162 243 217
51 90 75
140 209 92
126 204 92
99 109 79
160 194 174
211 29 189
213 215 168
49 182 133
61 28 164
254 224 227
105 218 153
32 73 12
60 76 19
201 8 48
86 249 143
112 160 253
157 97 49
211 89 248
200 30 67
2 117 73
20 74 225
232 70 201
104 132 22
120 63 150
205 134 196
84 156 11
253 236 234
132 170 46
36 36 183
154 244 178
208 153 144
252 218 199
186 168 34
206 150 45
104 152 53
108 59 69
73 155 109
195 95 79
101 152 252
110 12 4
108 150 153
134 50 90
43 24 75
106 102 10
141 4 54
238 178 17
255 104 97
112 204 114
235 74 61
77 39 17
226 24 58
71 110 76
91 239 204
148 83 232
198 111 40
194 95 225
110 132 190
103 145 240
173 233 219
156 224 228
17 206 183
25 184 214
212 78 175
195 209 66
117 110 90
122 204 168
50 151 57
16 9 202
250 136 64
81 16 22
66 92 240
198 233 118
247 65 12
219 26 101
166 216 20
183 253 48
194 253 1
201 171 121
93 199 86
228 204 190
93 177 198
250 106 87
241 205 106
34 72 171
237 219 85
20 227 163
156 132 189
122 112 130
95 199 189
177 166 120
95 206 18
10 245 224
74 197 60
122 36 218
221 27 245
250 80 17
5 32 106
168 81 161
252 219 231
189 168 57
68 221 107
97 255 69
166 67 8
106 231 141
248 168 94
28 140 173
168 168 171
42 30 239
217 42 164
237 91 175
232 99 163
7 132 250
56 158 27
180 7 158
186 69 154
171 178 202
27 67 202
43 194 244
75 122 236
104 0 70
78 10 138
50 70 125
34 145 231
218 24 200
225 15 230
97 240 195
147 2 226
255 75 148
33 141 32
133 252 240
54 200 43
182 126 240
166 158 38
96 220 176
30 51 97
7 121 217
237 134 34
245 150 215
121 6 34
20 12 156
12 213 14
105 28 199
13 67 56
2 88 222
13 103 99
213 244 133
210 242 85
174 8 232
247 247 73
146 105 197
134 46 255
87 120 248
17 44 54
10 4 185
236 118 21
223 136 128
112 68 181
230 174 53
74 175 220
247 98 0
32 99 154
132 123 155
111 29 253
49 179 233
188 4 185
206 226 118
103 72 60
206 4 66
203 179 135
233 217 3
143 138 105
121 155 85
14 1 80
77 104 36
237 130 147
232 57 162
162 36 3
121 129 138
5 180 94
60 28 39
101 164 127
5 23 27
237 195 65
163 22 162
185 251 15
147 86 202
2 230 82
163 91 19
184 102 81
24 203 112
214 254 140
170 96 250
114 59 185
48 49 115
55 52 244
32 4 116
159 88 15
54 152 163
172 194 34
47 178 108
144 214 7
51 105 108
11 157 157
11 255 126
203 102 242
160 44 173
124 169 54
36 226 80
18 8 120
116 174 209
149 20 112
110 185 114
19 54 238
252 188 186
46 235 217
58 245 233
242 78 103
135 66 210
23 24 183
97 84 98
152 10 172
134 61 59
84 101 247
223 111 237
210 48 101
26 67 20
178 200 208
157 10 251
46 153 0
207 192 109
38 91 154
190 191 226
10 233 9
36 164 241
145 7 50
146 75 30
209 191 10
205 21 20
111 254 154
129 255 188
82 178 168
17 6 223
215 77 90
43 124 216
248 45 253
57 177 88
163 187 70
74 178 236
48 3 219
128 47 48
219 52 25
244 75 124
45 238 39
46 205 118
54 87 52
145 138 2
180 23 22
231 173 89
228 22 4
164 16 71
33 38 147
177 208 123
254 121 92
20 183 138
205 109 32
201 126 97
199 110 112
73 191 180
1 251 78
22 147 153
154 167 243
221 27 152
67 44 114
163 235 6
199 192 21
173 139 235
106 187 132
230 193 28
137 151 126
71 227 60
5 163 4
2 68 101
37 218 254
224 21 91
114 15 107
89 247 191
64 25 237
150 233 181
156 75 74
69 17 35
45 231 57
57 70 9
169 4 255
12 73 107
188 98 68
29 112 104
222 95 103
87 136 80
235 148 14
110 32 137
116 207 15
104 63 63
186 175 133
181 47 115
167 153 169
13 167 207
132 82 30
39 222 90
132 84 201
189 119 23
113 156 246
3 85 112
50 60 185
53 181 84
139 228 250
131 174 121
192 76 2
224 86 249
53 137 173
77 171 44
166 148 26
198 121 96
68 31 202
174 34 22
10 83 213
47 153 94
108 72 123
7 213 214
231 76 75
241 80 182
244 125 146
16 23 107
226 223 29
231 186 204
240 239 83
151 142 215
17 25 18
61 28 228
248 52 17
70 163 226
213 227 19
52 201 158
21 240 233
5 55 79
195 40 109
30 250 99
196 244 255
31 17 108
251 228 11
40 125 75
255 23 220
10 126 176
84 198 14
18 223 161
82 23 168
147 32 150
47 14 75
247 245 219
143 66 224
94 254 9
9 165 250
130 179 91
229 119 91
140 104 172
207 157 2
96 200 54
174 15 122
206 40 114
204 153 129
66 49 94
151 144 147
158 171 11
217 47 13
140 138 110
208 61 43
9 125 10
205 115 14
152 119 212
242 100 206
178 85 59
187 146 142
59 241 75
178 9 117
70 111 108
164 74 245
181 26 242
167 104 164
3 218 192
239 39 190
147 106 176
77 140 23
183 157 78
51 122 213
197 24 204
235 101 225
34 48 18
223 216 102
226 84 39
62 196 14
196 44 140
145 62 135
239 163 208
165 73 56
124 38 135
111 4 8
17 99 164
198 86 132
41 248 139
0 222 168
220 43 59
214 128 20
142 121 152
117 81 249
208 87 129
121 106 197
84 181 151
235 110 255
164 3 125
63 183 85
92 76 174
135 137 165
142 175 33
15 1 67
15 168 123
3 249 48
137 245 50
244 244 38
64 14 248
221 168 79
204 117 134
106 96 211
145 19 190
182 231 159
25 54 161
150 132 236
185 53 212
96 2 99
156 114 249
24 140 211
15 92 104
53 150 202
64 106 178
213 75 99
51 9 171
111 120 171
48 71 138
23 17 71
91 174 108
174 192 42
82 124 56
100 45 155
1 85 54
207 186 237
179 181 36
5 241 59
200 226 137
26 101 26
100 93 33
170 171 211
249 82 86
71 222 148
121 216 212
71 188 154
172 231 9
69 67 53
146 235 74
15 145 199
98 90 21
11 82 9
181 50 194
218 138 97
29 68 21
70 59 216
77 42 4
253 50 135
200 136 60
83 240 92
55 7 224
29 207 33
108 22 128
26 94 30
29 168 104
65 84 54
115 135 118
38 241 189
132 60 194
158 208 53
3 74 233
192 239 179
114 108 72
4 22 126
235 121 107
26 104 232
103 71 147
184 103 68
221 33 45
117 197 138
31 67 25
217 213 75
160 21 237
43 61 225
130 203 201
208 29 136
64 171 156
202 122 86
235 26 112
19 249 240
103 2 60
11 56 30
236 76 88
66 157 180
186 50 101
48 80 68
45 234 98
28 75 58
2 177 164
16 8 38
176 114 99
131 219 46
128 214 112
78 184 183
138 107 221
210 162 30
141 113 34
7 157 236
134 2 37
69 25 53
87 119 216
143 128 128
71 169 179
44 152 199
186 232 251
229 145 55
14 129 182
67 229 47
166 38 15
133 9 216
50 148 69
41 47 64
199 2 211
251 18 155
108 74 62
45 21 200
170 206 229
10 99 179
46 33 197
27 227 91
187 11 153
221 111 42
101 192 178
167 117 177
62 180 162
114 47 57
9 7 88
83 243 195
61 76 41
8 137 250
53 185 12
156 25 206
38 51 216
239 192 16
153 39 140
240 2 46
95 74 27
75 188 79
201 47 155
122 116 245
245 210 69
89 227 116
154 195 61
185 45 212
75 19 190
61 176 119
194 184 122
15 44 126
26 211 232
181 251 170
240 228 244
14 83 100
155 31 9
143 118 130
129 133 212
170 182 217
49 206 143
245 255 96
130 169 120
1 252 171
133 24 22
119 11 226
53 41 53
96 97 184
162 45 46
98 235 89
75 231 205
244 233 33
146 225 223
253 123 134
157 30 101
209 116 118
109 33 87
63 122 100
238 125 255
247 33 165
150 178 207
182 112 235
65 192 239
243 203 40
41 6 219
191 139 252
151 227 207
163 55 194
20 178 127
250 49 193
44 27 197
165 207 81
45 15 162
124 150 83
78 59 74
69 143 246
91 64 161
159 172 143
238 145 69
96 50 247
41 74 126
56 62 47
225 136 99
54 143 5
233 216 104
74 238 182
14 231 64
248 166 135
81 95 37
59 51 76
13 59 8
8 195 154
160 20 161
135 15 253
96 114 135
208 154 230
93 76 249
88 213 136
63 17 141
53 131 78
39 110 117
25 216 87
255 64 57
245 30 141
168 212 69
62 253 144
113 214 148
236 84 215
201 0 35
67 65 65
253 80 85
142 145 238
127 31 12
61 53 175
191 8 152
151 163 191
157 158 217
28 156 84
194 211 137
246 36 132
42 183 95
209 10 162
220 43 141
49 154 36
33 44 130
111 1 127
107 188 85
58 54 121
68 19 240
168 215 78
191 18 112
74 6 206
2 236 116
88 76 246
244 61 228
166 147 41
46 21 151
88 209 70
243 16 251
240 181 58
53 190 94
122 146 111
228 150 124
25 128 154
134 66 153
77 4 233
143 238 229
111 232 152
22 50 132
99 78 186
230 80 123
91 63 103
103 189 136
18 188 150
162 105 135
168 106 111
166 223 223
221 164 5
189 41 180
222 156 118
95 137 195
33 100 5
98 32 87
150 135 82
222 35 70
201 127 196
9 169 22
47 124 226
224 71 162
84 121 242
70 62 185
231 95 204
37 188 19
86 184 132
109 237 129
31 132 203
171 82 250
232 94 4
157 188 33
26 7 84
58 149 65
226 207 134
237 90 163
223 39 116
184 152 29
32 148 176
217 180 123
28 122 219
241 93 245
215 131 105
130 115 202
75 108 177
200 43 221
122 193 111
54 237 219
93 230 118
43 67 200
211 80 14
56 214 158
176 71 142
1 203 148
218 164 10
223 69 208
207 26 58
89 25 142
241 109 121
255 77 130
202 90 14
98 35 75
18 200 0
250 62 111
1 108 252
188 75 110
142 71 45
35 41 32
19 30 160
49 4 59
213 240 166
95 234 223
239 125 75
207 116 84
9 161 190
23 207 216
135 147 60
245 234 54
201 225 6
120 57 212
249 7 81
115 172 196
124 135 225
153 101 182
124 175 252
130 155 178
179 230 47
245 159 220
197 46 22
171 1 28
192 221 222
204 169 120
5 132 239
148 189 135
30 154 219
176 110 99
91 214 113
102 205 178
106 58 28
168 163 103
14 179 161
143 146 162
163 253 176
184 13 246
141 215 248
73 166 164
169 127 228
153 27 248
36 252 99
172 222 145
156 217 104
120 35 250
104 48 39
131 188 70
113 15 64
148 137 137
3 113 46
195 218 69
151 2 86
110 11 184
235 156 187
185 229 59
165 96 235
184 186 56
92 208 247
157 129 114
162 115 92
229 131 1
46 182 137
136 135 161
70 41 43
215 216 124
98 240 243
139 164 230
155 248 33
173 55 73
135 180 183
139 91 37
183 125 170
50 10 61
41 181 34
213 198 159
245 104 226
116 58 119
174 119 106
11 4 77
134 27 192
29 69 116
115 138 38
5 225 193
13 244 19
119 10 0
148 60 211
245 52 111
94 230 159
19 126 4
46 35 70
163 54 130
94 52 164
102 37 71
76 76 96
225 167 210
1 217 180
162 81 65
127 58 0
34 192 247
241 69 60
90 119 186
69 56 229
152 234 51
4 132 228
77 216 244
196 142 45
146 140 176
185 30 59
248 124 29
14 83 70
55 88 132
53 42 57
228 52 197
31 124 198
161 78 160
67 110 118
167 148 216
69 112 238
56 38 20
197 105 197
145 117 145
203 222 49
130 10 98
65 200 36
170 116 59
201 251 159
68 182 112
215 25 132
19 177 5
122 80 70
129 93 187
199 178 25
118 187 253
22 72 184
95 228 52
137 144 250
160 98 58
54 92 88
143 134 82
96 76 96
178 63 36
34 156 173
48 50 68
226 95 214
35 25 93
183 150 221
76 47 1
104 206 213
17 157 183
224 93 144
21 132 175
177 186 254
252 8 74
194 23 36
191 225 213
142 39 74
228 250 190
115 24 132
152 35 205
214 29 10
73 155 186
116 62 31
78 143 209
210 247 5
238 149 188
32 146 188
9 100 32
76 229 165
211 115 8
70 136 142
246 25 33
197 254 62
180 64 0
173 187 193
96 222 232
144 233 9
110 101 213
251 95 3
56 154 14
24 242 158
89 42 35
58 58 189
124 50 62
100 243 119
175 224 239
115 84 123
253 25 174
30 38 47
79 146 60
139 186 254
78 202 41
136 229 139
217 68 245
115 16 202
241 7 221
131 215 104
19 23 207
58 164 207
28 30 206
61 33 141
54 188 61
178 126 214
168 158 190
172 66 239
203 42 197
133 182 94
97 183 21
80 179 183
185 33 123
235 203 38
129 96 47
237 5 64
203 90 216
204 205 65
166 168 33
248 75 68
150 71 249
131 9 58
230 218 117
180 185 189
235 134 130
252 196 219
147 220 95
69 95 123
131 8 173
159 109 241
109 36 239
206 250 219
176 183 254
73 120 19
4 24 248
14 228 102
174 72 225
82 166 23
40 239 189
221 89 65
23 6 193
121 116 40
172 227 253
87 139 250
204 197 103
109 79 143
14 90 8
122 61 185
252 42 68
132 153 181
84 15 206
66 165 159
202 128 185
83 86 16
9 28 49
183 254 193
88 237 242
198 126 114
168 68 158
129 199 198
185 163 86
77 49 252
56 145 222
188 93 70
80 180 36
15 75 175
197 144 188
123 123 25
202 125 188
169 95 38
124 7 193
99 149 201
119 138 16
8 183 20
154 90 80
91 20 7
50 255 80
4 233 152
207 181 115
154 174 25
239 135 94
111 182 121
87 10 10
211 82 152
165 131 159
103 73 108
184 115 170
253 214 181
99 100 181
160 142 109
28 50 247
170 230 168
234 193 190
64 86 75
4 65 249
30 74 69
136 179 75
162 133 210
209 90 143
163 230 119
179 182 1
155 33 164
220 200 146
10 112 68
249 87 8
241 132 184
174 114 234
231 188 213
97 169 236
54 114 80
1 143 60
197 40 1
111 219 33
14 222 210
156 94 250
8 141 12
63 197 157
48 86 225
50 107 189
182 110 1
128 130 74
144 8 132
252 189 210
146 187 220
146 63 227
26 46 185
35 118 222
67 45 226
200 13 43
157 236 130
100 224 47
167 131 200
128 151 128
237 110 101
35 112 63
40 17 250
198 220 80
139 246 196
95 172 197
106 194 24
179 75 6
174 30 240
240 97 95
60 64 39
113 179 150
17 166 178
5 209 187
202 62 35
211 216 176
167 250 59
72 207 254
41 7 196
7 63 39
183 131 183
130 24 18
142 203 22
201 26 9
16 24 4
136 232 64
49 164 103
215 91 147
47 126 112
24 90 242
58 28 225
230 7 157
98 54 0
225 162 84
103 157 59
132 94 226
12 48 15
17 129 235
231 11 212
214 217 183
160 76 138
26 37 193
65 3 165
116 237 6
94 35 105
76 175 26
110 71 190
104 117 120
109 198 118
63 103 230
162 134 215
200 235 104
108 249 58
140 190 188
246 210 73
168 153 98
117 68 102
216 232 64
152 41 229
202 153 112
182 128 21
29 175 98
200 70 97
53 117 188
52 165 109
197 170 117
156 59 233
8 212 168
69 73 216
227 245 135
76 149 207
91 158 237
247 212 176
116 237 116
84 215 86
81 10 63
152 96 121
82 11 60
73 240 19
36 137 193
70 172 101
221 142 218
26 42 0
63 180 226
247 196 35
104 228 112
4 62 195
147 254 62
164 21 58
107 202 192
43 225 185
68 131 86
143 151 110
60 42 176
58 107 255
164 237 178
161 17 206
37 88 55
34 57 250
11 234 29
65 209 104
48 47 177
116 189 171
71 165 90
109 168 40
231 10 157
147 214 182
75 172 97
229 159 127
120 16 104
180 69 122
22 45 120
50 251 137
116 79 143
229 187 18
214 158 203
251 145 168
252 112 49
129 112 71
63 148 212
36 73 50
49 212 34
228 157 43
112 155 212
210 161 18
59 117 134
22 41 138
233 96 35
103 125 7
127 139 139
28 47 76
130 112 164
95 167 4
207 233 190
255 116 0
237 245 174
163 48 81
152 62 235
164 208 87
231 10 251
85 159 166
28 24 141
67 29 97
138 26 40
24 21 203
193 42 12
39 219 171
252 215 206
25 213 207
13 229 254
33 132 123
89 140 37
229 177 56
35 15 197
6 37 94
19 81 132
93 226 66
112 249 209
66 179 167
5 77 115
54 119 31
41 222 5
234 185 113
215 128 134
91 95 107
36 24 6
38 59 40
100 163 81
197 232 143
224 173 81
242 3 183
241 75 106
219 244 43
145 146 49
165 154 156
226 201 143
35 137 215
3 199 7
21 251 49
55 143 108
96 117 77
164 225 192
171 206 35
20 203 116
73 188 125
28 11 198
140 125 177
75 8 114
190 150 206
215 31 150
239 156 67
108 213 213
49 153 185
247 94 127
254 30 252
137 101 160
92 77 228
14 254 230
74 39 130
204 244 169
125 199 232
67 151 84
190 205 149
145 130 196
228 24 203
128 186 173
31 110 105
230 39 92
11 222 203
140 206 150
53 148 24
22 192 139
90 38 39
150 190 237
35 69 108
249 27 137
112 6 137
108 125 149
80 201 204
75 127 36
240 90 28
228 48 33
5 101 40
225 201 141
142 136 26
127 180 157
24 63 205
179 107 36
214 82 168
255 156 211
157 63 155
26 142 82
36 141 229
44 197 0
45 217 55
47 23 3
224 56 21
217 213 24
205 139 16
173 115 78
213 244 12
161 236 14
225 116 222
184 166 175
127 167 192
22 70 171
192 59 141
218 212 224
126 125 32
11 33 252
170 201 49
207 3 235
230 122 195
44 214 254
252 88 234
128 249 172
177 99 150
249 71 178
114 46 165
20 213 94
126 249 29
156 201 242
213 98 235
240 7 87
171 88 139
233 69 182
171 42 176
202 204 178
132 169 96
75 44 178
75 198 71
241 199 95
54 142 226
220 26 30
92 23 87
220 127 218
44 161 68
107 93 243
239 47 27
134 131 58
220 214 217
144 145 96
252 250 168
185 130 101
36 29 197
35 53 135
197 20 94
213 54 233
234 184 183
99 193 172
160 237 202
167 145 209
197 228 125
231 237 94
163 143 118
49 209 32
18 184 12
130 38 20
248 33 129
152 246 255
238 132 60
27 142 120
5 190 221
116 65 48
176 253 87
144 88 122
181 219 250
123 128 123
217 216 138
86 28 208
240 113 80
130 8 96
124 97 216
94 254 73
25 251 239
98 229 197
166 164 170
121 203 79
223 242 99
139 82 110
223 68 34
124 87 133
44 231 38
250 136 55
19 55 63
83 242 160
36 228 120
245 79 141
173 26 36
29 65 122
3 183 68
232 78 9
214 171 91
198 180 103
248 201 12
225 157 190
186 68 0
187 76 107
202 195 104
33 152 138
44 37 171
51 139 234
93 41 218
253 140 19
58 50 175
146 24 251
209 20 157
70 114 167
43 47 191
128 233 28
165 10 174
2 37 99
189 60 27
3 168 88
206 114 12
251 254 179
29 205 130
167 191 48
228 70 104
42 60 86
169 14 112
12 117 176
183 178 210
25 203 68
92 108 204
188 246 150
66 246 127
72 110 54
137 137 196
228 235 170
66 117 0
10 47 134
32 180 76
96 105 8
21 59 16
221 140 167
60 11 254
147 240 196
79 181 70
251 13 68
178 204 230
108 50 213
218 113 227
129 82 211
215 77 1
158 5 105
37 190 86
132 91 206
193 45 55
3 180 139
49 155 12
151 12 52
245 242 26
8 231 117
134 223 182
169 122 195
223 27 54
13 76 19
200 219 39
169 77 26
199 218 237
10 120 114
129 207 139
65 172 160
109 30 198
47 65 17
120 240 37
142 212 67
199 214 171
39 213 199
155 60 171
71 143 148
246 230 134
125 113 161
173 82 144
41 202 129
116 248 32
24 127 172
19 202 45
236 218 98
88 194 165
183 105 14
7 25 97
66 246 237
198 45 46
17 110 131
161 4 27
55 246 250
119 16 88
7 93 8
206 35 231
7 123 9
142 129 25
226 126 161
196 103 94
165 234 138
158 172 36
32 56 65
233 169 122
58 141 241
148 71 136
56 43 65
194 228 254
6 26 150
186 73 138
3 239 182
58 114 202
244 159 166
145 239 4
11 49 238
129 238 116
178 112 233
36 167 129
116 240 220
195 59 148
162 96 105
246 97 187
185 243 162
12 232 227
18 39 149
39 129 82
120 82 32
60 2 181
6 204 175
111 210 169
235 206 24
206 125 23
57 239 81
240 125 24
45 115 174
172 13 147
67 145 121
136 122 21
58 239 72
170 252 201
87 171 217
212 108 25
4 197 240
85 87 45
235 96 170
227 211 73
136 158 168
193 140 212
31 155 26
161 241 99
136 249 144
249 195 125
17 108 100
140 110 0
94 143 0
188 15 115
109 160 205
24 68 146
189 82 248
58 134 51
190 159 36
223 134 97
69 73 194
89 220 204
191 156 224
152 10 131
103 113 38
206 85 210
192 24 202
233 33 238
157 116 247
12 31 213
13 52 251
46 95 131
192 254 0
108 100 167
210 45 5
246 160 36
44 247 59
206 181 167
41 169 31
72 132 6
63 23 6
207 0 142
150 144 165
96 55 178
0 1 141
12 0 46
89 190 155
12 143 91
195 237 136
117 123 205
13 55 125
15 107 96
238 46 3
69 47 216
238 169 181
183 172 35
171 172 167
208 172 56
10 175 245
244 249 194
131 3 160
161 84 194
85 247 10
250 243 50
16 99 229
83 235 146
239 112 208
127 118 208
80 236 58
232 43 41
115 75 34
214 124 47
123 4 225
173 44 225
196 211 210
186 238 240
218 239 82
7 243 203
203 200 37
23 238 170
121 84 225
115 65 93
131 116 17
212 52 150
225 130 200
140 28 2
198 5 99
113 170 32
76 14 100
27 120 54
5 133 135
165 231 97
133 53 5
160 246 96
245 65 205
178 31 238
15 154 88
167 169 242
168 27 100
240 179 70
169 205 150
236 114 142
137 218 111
143 4 172
21 179 193
11 227 82
113 23 17
118 129 7
250 90 95
84 187 9
10 120 50
21 36 107
150 134 162
64 127 31
182 4 60
103 44 20
133 64 203
105 9 44
244 38 234
49 246 218
136 176 20
254 106 228
174 82 178
32 216 154
201 33 42
159 204 212
168 248 66
15 159 94
223 70 12
59 69 204
245 41 172
7 110 90
207 164 73
196 87 140
112 51 243
210 135 11
212 90 176
86 165 223
134 109 207
238 82 109
168 230 221
237 168 139
204 157 19
199 97 92
225 70 165
134 55 25
81 238 58
13 32 46
224 181 225
216 131 52
234 252 170
219 168 242
74 129 69
146 208 221
49 165 46
97 190 240
40 129 226
187 164 248
236 238 149
187 178 135
111 141 171
191 30 239
13 48 75
30 99 39
8 147 184
133 20 194
109 234 7
231 85 90
73 11 91
54 150 145
185 59 67
154 157 164
122 35 9
229 169 38
224 69 80
8 101 12
0 5 118
49 254 100
208 189 68
215 245 84
81 252 154
228 228 249
53 94 185
61 252 237
148 111 144
63 163 169
52 254 208
173 4 185
227 9 221
151 13 58
222 139 98
59 172 188
9 82 14
130 216 51
34 127 108
72 251 4
186 79 43
11 250 233
206 255 164
136 11 210
201 223 10
243 18 109
10 135 248
213 55 184
53 47 155
183 116 142
9 99 108
241 47 147
1 107 226
196 73 230
155 71 190
47 148 24
217 145 156
89 248 71
183 248 222
33 209 42
142 63 31
141 26 19
148 166 238
255 176 115
97 166 128
232 230 244
239 185 129
66 87 244
199 115 28
195 123 220
226 216 134
229 119 128
23 177 172
103 95 178
156 202 51
168 70 110
24 53 126
183 196 37
30 45 128
41 140 156
58 158 43
87 175 73
171 80 235
253 90 254
235 164 186
248 69 5
96 162 24
196 72 208
62 21 229
95 228 206
108 68 157
18 4 255
217 40 220
254 184 91
209 11 10
110 74 136
204 230 45
148 178 4
141 130 177
218 107 236
187 140 163
91 200 81
42 71 3
18 211 237
94 226 89
197 242 77
142 255 210
227 129 100
141 12 122
151 242 242
85 4 221
72 14 234
5 134 108
2 131 235
143 193 57
170 16 43
170 160 112
132 82 201
155 189 225
248 191 135
51 30 98
90 119 232
139 38 164
165 244 128
164 30 145
242 28 254
174 200 107
22 13 39
184 177 239
218 126 251
50 247 239
176 84 168
43 88 242
200 209 170
215 19 143
175 68 136
182 196 238
189 66 18
131 84 137
182 17 249
209 191 202
240 91 43
162 127 133
101 95 255
58 76 3
142 112 238
5 72 226
224 75 231
37 196 198
51 23 122
39 172 150
135 93 209
206 17 238
76 111 149
189 130 184
237 203 100
132 196 76
162 16 183
201 2 57
99 41 117
116 170 127
191 101 201
72 29 120
244 193 38
128 56 28
238 30 140
166 116 73
173 43 26
51 62 241
252 173 204
77 195 177
252 189 134
19 27 21
66 247 76
142 110 200
250 35 150
165 61 248
132 139 134
53 51 197
253 233 182
97 199 151
68 248 8
83 51 46
57 118 86
115 211 249
147 125 169
120 87 74
40 226 108
61 2 202
186 78 180
45 21 187
215 129 180
66 160 59
158 87 175
64 109 175
43 72 121
175 1 206
235 66 149
71 121 130
201 219 84
237 76 146
60 149 172
34 67 97
53 209 85
253 153 98
47 82 177
107 215 101
165 147 18
180 76 198
234 174 33
14 14 69
165 53 189
31 138 161
146 240 239
236 138 214
135 74 105
156 200 199
13 187 2
32 140 8
131 167 27
52 16 214
83 227 90
226 180 30
86 123 244
173 37 212
206 130 149
126 92 143
101 108 152
11 76 69
169 173 53
145 25 231
250 121 246
43 119 175
0 222 146
252 28 57
100 32 22
148 245 207
140 125 104
176 230 84
105 123 239
154 136 87
118 186 109
217 249 24
24 196 129
77 198 191
112 34 192
104 240 204
7 81 231
89 78 163
170 42 135
122 76 39
168 28 172
97 7 35
195 128 245
18 122 219
185 141 94
39 85 110
214 209 154
165 181 168
95 25 132
242 250 240
223 189 71
179 66 185
76 171 2
188 249 202
60 129 228
0 37 65
88 127 101
150 81 232
75 42 231
170 168 186
38 41 130
39 152 181
77 68 221
202 251 83
190 57 15
50 127 143
47 161 39
18 69 125
43 39 224
68 107 41
196 12 87
191 209 231
200 109 220
41 109 66
206 117 94
61 164 216
84 191 78
216 224 191
83 153 161
168 121 222
255 34 33
188 215 9
36 7 188
79 137 21
176 130 109
196 81 37
130 38 30
44 22 5
250 46 38
150 237 19
59 93 39
122 181 234
47 75 74
198 102 184
46 28 135
227 244 39
124 78 0
23 62 47
183 70 20
34 249 11
21 120 89
76 227 57
98 28 218
167 199 57
185 49 30
136 252 209
209 245 225
133 94 129
116 137 5
106 29 199
208 65 55
172 141 0
166 239 201
168 58 131
251 1 130
62 78 62
190 151 207
110 167 157
57 227 253
179 120 118
11 181 111
167 93 64
110 93 65
72 1 28
93 192 144
128 134 168
99 179 115
31 73 132
33 56 186
172 166 246
215 136 43
156 109 214
9 86 56
88 202 143
16 222 49
245 195 161
57 203 255
180 253 62
116 37 22
139 218 41
111 186 104
165 157 124
229 207 12
219 26 198
111 87 51
25 122 245
49 165 196
184 241 53
10 162 34
17 37 4
159 240 120
137 156 125
174 90 9
213 247 203
102 82 109
52 106 206
74 73 23
6 68 151
91 35 171
30 188 161
167 46 114
144 183 1
223 134 113
168 127 39
244 78 237
97 111 67
26 18 102
123 227 44
32 67 191
199 63 113
35 117 250
43 51 106
210 14 223
122 110 154
214 63 23
243 112 0
139 227 155
200 113 210
12 174 88
5 0 123
110 50 194
169 114 6
131 210 91
93 78 32
126 77 152
220 125 44
109 194 204
254 231 63
250 246 250
116 186 32
115 48 163
104 51 44
178 251 90
205 24 239
158 238 111
137 45 251
251 129 87
48 201 172
26 71 46
48 167 144
233 212 209
86 230 148
158 134 95
30 202 145
247 69 20
218 89 189
236 218 57
218 42 146
163 189 127
220 67 84
65 87 17
142 63 1
181 86 94
198 62 7
43 7 213
236 217 32
53 235 49
236 227 170
174 85 207
185 24 50
86 35 28
114 166 179
8 245 140
180 37 245
5 10 73
89 180 212
89 62 182
29 116 64
214 166 250
44 210 94
48 243 100
55 54 237
1 56 29
4 16 96
214 210 152
153 133 213
121 93 179
142 207 41
254 135 228
169 118 69
156 217 13
113 25 226
170 162 46
82 231 180
46 69 169
154 163 236
5 81 232
84 48 222
194 162 96
116 109 12
174 1 242
231 126 177
112 160 253
98 225 245
231 166 60
141 210 16
134 36 16
131 52 143
24 78 129
187 235 220
132 84 148
2 223 96
18 158 92
252 209 53
237 225 92
189 126 204
127 84 143
174 128 93
37 139 199
5 205 52
26 196 31
62 24 151
197 108 223
236 231 220
119 195 215
111 181 187
209 114 27
43 105 172
37 231 84
219 208 220
199 249 215
0 39 10
25 189 233
56 171 161
138 85 33
151 4 148
68 107 5
185 233 107
111 165 134
109 77 166
195 113 16
164 247 33
175 35 208
135 249 103
97 200 192
157 180 5
94 165 0
15 42 204
111 97 57
231 63 72
21 139 221
206 134 34
165 15 172
127 48 145
201 99 7
91 175 206
166 154 7
251 209 146
34 1 104
200 158 28
96 53 65
20 46 116
183 155 35
45 115 12
251 86 208
111 235 132
177 245 172
14 192 115
100 206 78
150 95 231
205 31 5
44 243 14
0 236 125
88 21 47
88 18 6
26 131 108
126 26 250
194 228 12
47 172 60
236 12 71
155 109 192
120 56 132
19 24 110
87 199 29
222 24 189
56 133 117
81 146 209
160 73 157
29 103 108
54 248 254
47 192 1
151 18 182
243 37 170
11 217 248
251 245 149
38 42 189
137 110 218
137 197 79
213 61 37
207 107 167
61 225 34
23 89 204
123 18 43
185 104 152
12 171 69
11 65 210
184 65 132
89 236 251
29 222 235
77 172 189
104 106 110
112 47 29
137 52 134
134 52 242
218 33 167
230 39 23
115 78 194
230 73 224
145 9 141
253 38 155
185 161 206
227 24 105
33 22 141
66 92 18
197 93 24
115 217 21
201 180 215
205 28 246
226 58 243
142 139 43
241 183 100
101 2 129
63 55 195
73 176 64
133 59 7
232 237 114
129 98 107
177 170 248
116 171 248
79 223 215
211 203 255
57 237 180
116 138 219
166 13 12
69 118 46
224 32 236
143 185 25
15 230 245
16 255 63
65 248 26
94 40 6
216 238 63
12 182 99
8 106 43
147 223 218
215 106 234
155 213 246
43 189 20
243 222 218
50 202 3
38 139 166
183 190 228
11 159 178
95 29 115
117 206 156
167 84 250
201 93 113
104 127 48
3 9 25
18 153 97
114 18 254
124 213 238
96 106 174
192 93 249
37 121 40
111 196 69
14 140 52
250 69 33
21 46 231
100 30 143
166 91 161
33 243 240
14 163 129
212 3 41
130 7 128
83 145 211
4 93 171
99 247 75
23 109 23
192 36 130
241 212 0
147 238 101
158 254 31
195 67 141
127 34 59
241 200 133
57 141 239
254 78 46
158 184 115
101 235 204
227 135 129
93 107 163
253 92 29
218 55 218
211 127 65
46 8 21
75 85 239
54 224 223
70 225 178
155 234 57
169 17 37
176 208 53
148 91 229
3 183 10
61 197 15
90 51 213
161 7 163
165 199 219
40 211 195
47 123 66
225 160 79
206 88 154
85 85 175
155 118 104
57 13 154
60 190 206
57 200 85
17 74 48
48 197 222
192 107 133
36 111 112
170 177 93
208 156 111
201 135 69
239 17 50
214 208 113
164 47 117
214 52 239
12 172 221
221 96 171
158 132 66
62 181 251
174 219 173
239 153 192
66 22 223
138 206 26
89 44 33
142 150 55
242 56 147
194 48 12
73 77 38
152 218 215
222 92 212
43 178 98
126 234 223
81 172 184
130 127 81
173 211 192
105 205 233
162 212 167
22 99 14
121 162 29
133 204 58
228 6 84
63 234 84
201 16 223
64 79 103
139 184 140
213 88 239
32 241 2
23 172 110
244 116 47
204 160 60
128 77 201
227 168 10
172 72 78
57 97 83
227 144 136
180 171 137
8 42 113
32 242 136
128 107 117
201 92 129
14 107 204
38 77 190
95 95 105
124 111 222
48 107 48
27 67 29
112 42 143
195 109 164
16 7 35
164 188 168
64 88 127
103 58 47
224 53 49
109 232 38
164 174 223
14 239 87
78 13 50
17 78 20
1 42 57
31 145 153
22 120 20
230 170 97
40 33 38
110 80 157
119 246 23
202 209 212
73 250 84
37 231 161
28 97 8
112 162 192
251 175 107
168 84 151
234 228 172
24 137 25
200 241 65
233 123 57
43 76 185
101 90 153
245 228 215
130 194 60
138 145 183
18 13 53
68 136 119
136 127 97
124 176 110
249 101 68
64 189 16
43 161 84
176 121 87
160 91 1
67 87 219
142 27 232
214 104 192
86 232 139
209 218 48
119 22 205
190 243 75
165 107 110
114 112 226
174 177 229
104 45 155
99 184 99
67 97 246
223 52 172
155 64 230
139 234 216
69 14 171
133 7 163
202 144 28
22 113 93
78 54 184
21 192 238
191 16 194
15 74 37
41 63 150
47 243 47
162 228 35
63 237 69
123 193 119
73 96 26
253 29 100
153 238 55
216 32 30
198 221 152
121 2 130
232 174 139
246 114 157
25 74 211
97 179 252
184 59 248
247 98 186
93 117 184
209 78 243
26 34 29
236 244 44
106 204 66
32 124 106
99 89 211
111 19 70
142 120 180
173 187 11
84 148 238
213 251 206
4 12 25
174 100 248
29 153 159
209 229 141
226 223 212
63 96 137
220 114 88
247 141 125
187 83 177
104 241 190
107 71 71
197 219 230
228 222 184
219 7 143
101 73 167
89 213 47
168 34 94
175 165 105
113 32 236
229 219 134
174 222 120
15 163 53
81 105 216
40 199 101
110 74 115
82 66 59
2 118 181
50 217 162
39 253 180
86 160 204
214 94 225
253 5 96
113 71 193
220 191 155
145 178 13
27 203 6
149 52 211
142 110 177
57 224 205
237 210 9
104 234 35
0 58 70
33 150 7
79 215 112
199 102 78
4 120 161
52 75 148
169 200 73
108 57 152
160 85 157
225 106 141
101 164 187
215 108 226
0 200 20
169 81 215
72 19 103
158 152 72
68 105 61
35 156 240
48 51 64
204 255 130
160 202 163
49 38 36
141 90 194
73 19 155
161 198 18
46 237 123
95 114 39
218 184 41
95 119 131
148 21 249
12 76 140
254 117 1
66 19 213
116 74 220
190 197 194
177 9 162
81 161 178
228 54 5
64 233 231
156 45 94
67 227 204
151 193 68
7 50 227
58 52 53
222 102 115
226 201 92
218 122 18
101 49 159
233 172 69
144 122 86
119 191 104
17 231 112
220 64 42
89 105 115
241 81 116
163 6 18
112 16 169
195 79 228
104 4 66
19 69 21
193 158 98
108 191 38
197 138 127
225 61 255
61 86 205
139 132 117
232 94 26
241 18 198
18 194 148
135 253 223
102 227 243
93 112 157
161 63 46
30 253 187
10 15 88
247 151 105
229 168 212
179 133 137
220 221 132
153 134 197
3 44 190
213 173 234
86 102 239
207 197 220
18 203 164
39 255 27
3 105 198
251 119 41
151 26 84
176 52 220
140 131 56
73 191 156
80 58 224
61 22 188
140 86 64
37 17 39
185 125 45
150 209 201
163 236 68
10 183 98
165 217 181
27 210 153
90 33 235
64 65 161
253 189 232
86 175 130
59 203 59
40 79 23
190 199 191
123 186 137
52 189 126
187 160 161
107 187 37
15 108 154
50 89 63
70 34 73
210 59 233
53 75 59
34 32 218
3 195 167
151 146 247
89 99 15
79 232 128
135 147 103
145 27 120
123 59 159
114 19 207
145 165 72
229 214 51
120 99 183
177 238 227
227 88 22
172 143 2
111 51 151
48 3 249
16 117 204
97 56 185
184 82 240
132 25 145
61 40 200
50 188 71
21 239 6
93 176 114
235 84 204
97 12 221
12 46 44
243 11 120
134 206 31
255 49 113
55 36 0
203 208 220
244 106 57
114 101 131
211 150 25
197 25 237
56 192 162
175 177 157
164 89 215
243 5 127
231 65 237
180 10 54
51 22 248
102 124 27
177 107 107
231 159 109
81 203 38
94 73 39
123 245 210
42 14 24
100 144 228
25 23 11
66 36 0
65 55 196
43 94 43
51 40 182
53 22 254
163 219 155
246 143 191
227 99 214
148 9 39
230 201 208
205 38 62
92 34 112
127 146 74
59 21 113
155 169 243
148 147 128
108 143 64
53 152 129
144 220 40
79 49 225
3 248 129
4 196 103
190 165 119
58 171 144
227 8 46
183 196 42
58 87 237
147 249 139
189 129 69
106 202 106
200 103 196
226 102 180
159 234 12
103 181 187
27 251 63
122 87 123
254 47 77
2 234 12
128 63 174
210 88 11
152 72 187
187 90 146
253 211 252
14 48 54
253 247 19
146 95 26
90 209 61
180 66 220
95 151 204
77 112 20
102 161 4
248 38 229
184 215 23
250 42 222
99 242 202
18 248 174
221 209 239
215 185 148
60 175 224
244 235 71
38 191 192
41 213 11
222 14 113
126 148 56
209 179 65
89 84 87
245 157 37
228 178 239
170 102 55
198 239 61
107 159 228
227 143 74
55 222 184
252 167 161
225 72 236
164 4 61
238 63 77
248 202 140
172 16 150
187 129 153
100 70 98
19 159 247
57 23 54
156 181 76
156 237 200
24 90 80
49 136 207
186 214 167
129 25 131
75 202 48
143 105 108
22 46 255
57 201 185
43 186 241
39 144 212
240 25 191
169 61 129
51 120 79
4 62 25
249 108 241
197 126 47
223 242 222
106 211 69
170 185 100
205 5 198
233 29 45
169 127 104
78 189 249
196 116 4
30 177 58
215 219 72
111 96 171
158 232 77
216 200 202
19 76 103
154 130 76
130 30 109
16 111 237
247 53 239
181 251 212
174 88 149
156 43 226
139 128 1
168 101 191
15 169 107
90 9 118
119 152 232
134 141 137
33 127 19
137 99 167
25 235 109
45 113 201
89 116 210
1 115 251
236 196 150
49 247 149
120 170 185
70 127 147
137 192 191
49 120 227
184 130 215
159 197 248
223 135 149
124 187 200
24 19 94
56 134 234
56 226 36
48 211 91
165 227 98
124 39 170
168 213 114
41 74 175
134 124 95
165 24 247
65 27 170
157 31 191
38 184 240
90 247 140
241 188 18
203 193 16
21 216 178
141 216 41
227 179 128
233 78 55
18 52 174
224 165 45
46 142 252
22 70 73
95 119 40
37 129 183
111 124 60
215 182 81
149 20 154
12 210 203
159 255 143
16 116 121
26 171 168
96 152 205
153 146 3
16 11 165
30 86 9
66 180 161
169 156 149
116 147 178
166 99 73
59 132 215
52 237 55
82 248 254
55 243 153
194 134 35
213 90 100
58 93 255
226 141 153
122 170 12
9 101 116
200 108 18
166 143 223
68 62 213
46 144 122
113 2 2
232 212 155
137 4 150
34 197 106
69 96 195
5 147 58
197 242 200
110 46 233
118 55 219
226 124 184
134 36 56
244 33 7
123 28 84
38 10 142
220 38 232
204 163 110
56 218 237
174 210 186
156 22 50
89 42 252
198 33 153
247 144 51
69 87 205
121 21 59
73 203 24
16 200 180
249 13 84
48 246 52
99 137 241
115 202 194
186 54 136
85 77 205
76 221 53
243 149 224
95 100 192
59 49 30
236 206 139
0 138 18
227 166 71
64 255 87
179 163 75
131 136 119
208 60 137
47 164 135
121 138 244
102 226 125
98 90 103
193 45 250
120 121 182
108 121 229
103 89 167
174 253 88
80 232 87
116 157 145
72 86 164
91 119 79
211 77 192
38 225 28
48 110 230
44 164 6
94 149 205
118 158 164
4 153 195
149 103 43
205 33 61
24 86 194
209 223 221
177 82 29
32 147 205
24 142 59
45 120 205
231 214 5
71 84 107
25 137 20
19 174 102
77 3 108
225 37 82
239 152 84
217 40 246
141 210 109
177 92 156
24 91 60
72 85 40
143 185 137
250 15 108
120 90 18
131 223 28
74 217 163
179 140 132
246 12 221
233 83 87
21 108 94
213 2 40
39 61 110
227 120 47
219 41 177
150 195 86
90 184 86
202 1 75
76 43 110
103 97 242
0 202 14
128 186 122
195 144 250
201 206 213
174 140 141
118 163 218
253 101 199
140 139 189
155 161 42
81 128 25
220 220 222
194 142 234
152 170 66
121 222 77
42 236 87
94 240 242
54 101 82
117 143 214
33 57 94
130 81 73
93 73 172
139 108 182
204 127 101
81 177 253
92 191 152
174 172 248
225 135 4
217 106 46
63 14 47
193 16 68
64 22 197
27 185 208
8 245 250
196 111 127
142 47 191
64 49 158
172 161 123
223 24 0
22 17 45
130 107 94
114 136 128
81 1 202
228 97 141
145 197 92
149 248 86
164 88 77
64 30 156
255 161 112
203 134 106
71 3 186
54 219 3
87 46 146
146 27 187
68 246 58
77 195 225
185 100 186
49 208 23
65 50 238
21 246 17
225 224 239
6 243 119
55 201 233
73 67 134
39 239 123
62 8 77
33 162 138
49 109 135
132 90 191
192 198 150
216 105 235
198 115 186
225 192 242
195 65 134
119 62 219
188 216 1
79 36 177
150 13 165
129 105 19
68 40 234
139 16 111
107 230 122
95 141 12
116 96 41
9 112 117
226 167 127
9 41 34
97 116 118
190 245 205
212 33 9
116 4 99
243 157 172
231 133 20
67 246 33
33 127 68
145 6 176
37 83 246
167 189 243
174 226 90
169 88 88
153 70 7
70 118 175
245 253 166
146 249 207
200 215 82
213 245 76
162 73 4
236 146 54
113 22 41
106 187 149
35 114 234
12 201 133
161 208 64
119 144 20
117 197 179
115 183 51
92 57 110
141 255 147
167 176 2
164 69 8
137 50 158
154 219 57
120 12 181
221 223 84
141 37 18
182 86 171
11 137 154
142 120 92
118 97 153
138 144 203
146 126 11
148 149 70
181 108 66
125 221 237
113 254 198
67 32 28
164 150 208
180 3 206
184 92 96
65 163 42
149 140 247
4 210 204
43 87 148
65 218 127
54 20 125
255 107 150
157 139 224
148 111 166
169 228 139
167 181 74
254 28 174
252 154 120
251 91 196
52 135 182
204 42 52
102 26 61
227 53 60
27 139 145
228 169 145
232 137 85
242 194 130
105 222 118
65 58 172
212 142 85
169 229 184
90 160 82
127 169 115
171 191 72
70 136 185
62 218 192
121 237 71
120 75 68
59 162 250
3 230 198
254 144 114
46 116 220
85 184 133
60 206 21
56 232 40
123 108 120
34 158 222
127 71 146
99 209 216
81 3 163
88 253 23
213 215 146
121 148 139
13 86 60
155 122 238
202 214 45
245 38 44
88 92 28
212 81 134
240 69 85
183 75 119
6 43 108
253 239 11
145 105 170
54 246 58
105 82 142
182 202 249
139 252 180
196 232 235
171 191 175
23 226 30
133 57 38
131 239 63
9 110 93
184 223 254
20 38 69
42 79 56
8 168 93
205 93 26
32 240 187
2 68 53
175 85 15
241 100 126
245 172 148
145 107 195
71 115 50
114 2 255
226 57 196
243 129 251
177 212 122
248 42 194
138 246 201
79 200 114
214 126 29
45 156 102
91 197 151
48 163 163
98 118 160
128 120 1
216 4 106
59 172 171
73 102 127
221 225 25
167 227 180
35 97 227
59 228 9
142 159 148
97 137 119
255 120 10
237 112 46
103 24 49
159 157 172
242 39 1
116 238 51
175 44 104
192 177 230
123 147 207
102 232 148
2 76 150
203 146 173
116 239 102
139 229 238
131 161 176
174 154 51
147 148 20
83 170 231
43 71 195
45 116 127
150 173 201
129 122 135
5 159 121
148 246 228
226 35 130
208 242 169
157 31 12
200 79 165
227 19 23
35 221 78
230 100 229
24 44 92
17 29 72
55 48 215
123 126 183
53 53 220
255 158 245
139 4 194
28 212 133
191 210 164
189 133 126
127 74 37
254 170 88
234 13 123
164 52 48
237 61 236
16 223 179
123 93 252
253 221 58
135 147 172
67 213 112
93 84 253
207 132 224
204 8 139
195 189 92
228 37 113
63 3 17
173 180 141
54 216 243
127 98 64
61 10 45
87 173 228
17 112 14
86 106 27
218 77 49
179 221 251
119 220 224
39 218 111
27 76 254
245 111 194
250 40 131
22 128 138
196 125 213
72 105 148
222 29 84
102 212 192
98 126 204
217 130 120
106 109 66
180 74 212
184 242 133
41 217 61
193 17 174
146 57 171
242 24 175
10 166 199
234 150 123
47 37 145
51 125 106
172 61 36
200 233 151
94 117 204
96 252 23
21 128 200
124 145 122
33 108 227
107 217 20
184 145 70
129 0 173
28 66 134
57 171 11
95 227 182
138 161 116
69 244 25
94 107 237
167 27 90
251 157 218
23 118 139
77 211 111
183 117 1
255 179 118
1 190 52
245 142 28
92 108 48
117 198 68
104 175 2
102 133 149
230 222 124
79 64 88
151 209 199
189 189 206
3 81 216
183 183 164
202 198 138
240 237 248
122 236 155
134 57 210
68 247 130
125 180 85
173 223 172
35 208 30
232 109 112
94 175 11
172 152 137
92 30 102
249 168 155
80 82 169
119 92 173
91 217 224
164 119 67
159 211 47
214 230 164
231 2 182
83 14 227
143 56 132
138 221 189
32 237 137
4 123 139
207 243 87
172 236 37
11 205 22
226 233 248
149 84 38
203 253 167
14 5 64
235 76 41
135 138 37
114 151 29
221 140 182
240 212 126
35 124 232
238 171 105
95 195 152
153 198 180
122 33 55
29 206 95
242 213 63
122 84 91
100 32 98
161 138 10
42 155 181
108 205 70
151 166 79
204 231 71
40 152 149
158 131 103
202 40 229
81 34 158
162 115 224
57 66 153
70 34 57
200 26 59
25 54 50
156 136 137
170 73 74
168 5 238
92 182 146
137 6 64
152 238 253
31 19 64
142 31 210
161 12 169
150 128 79
204 94 13
166 189 44
126 93 132
54 5 184
181 182 128
151 29 66
124 240 154
187 8 79
97 168 252
80 158 1
118 164 44
208 71 219
163 35 164
74 38 55
32 228 41
227 51 48
139 96 228
119 170 174
238 118 136
198 82 164
147 247 232
174 12 58
59 4 60
98 13 44
5 225 68
216 56 189
92 172 9
63 62 103
150 221 239
185 139 235
221 36 25
141 169 7
14 117 43
252 45 132
52 72 176
114 232 160
82 230 128
36 74 58
84 20 219
169 233 21
121 195 146
7 150 62
10 100 5
140 55 66
171 86 115
255 211 127
187 67 79
192 70 96
244 212 125
94 60 207
20 122 226
114 37 66
62 29 253
88 159 5
187 23 240
125 44 196
82 133 200
86 7 137
162 225 119
99 244 18
179 99 145
188 147 32
169 27 153
149 183 225
176 97 95
16 79 126
156 79 220
78 71 35
188 111 84
58 235 232
26 90 87
92 3 0
64 57 160
2 99 247
82 254 107
129 254 184
52 87 235
212 174 184
44 149 70
125 215 138
83 20 2
20 80 237
214 142 150
23 121 38
245 168 170
205 118 99
248 58 112
126 224 139
160 108 84
73 240 242
198 95 165
55 74 29
59 76 166
234 176 84
141 97 234
71 199 7
228 87 16
188 114 78
154 234 156
237 244 137
78 38 225
200 51 248
118 45 148
166 130 229
18 99 101
31 140 70
65 151 129
79 207 81
165 18 206
200 255 180
12 159 189
34 37 234
229 21 89
103 178 122
175 231 178
84 224 99
36 208 9
4 165 254
250 248 5
107 49 217
238 174 13
228 219 40
22 22 84
84 196 124
75 189 139
124 162 118
141 245 157
90 106 58
255 106 253
193 37 8
113 20 24
204 165 165
187 222 43
242 171 118
187 12 57
188 247 84
47 121 73
208 172 11
242 158 69
216 179 223
67 50 104
71 28 131
91 21 205
196 177 236
208 34 209
255 46 26
158 139 137
82 40 89
82 21 116
155 144 36
38 129 167
239 232 178
90 139 228
182 185 50
24 107 19
97 131 125
205 171 128
234 216 104
207 220 53
189 243 35
223 4 144
110 28 228
249 73 102
113 37 80
131 142 47
52 82 178
115 240 136
24 123 68
157 216 173
152 250 48
25 164 236
253 131 168
186 42 208
172 7 160
90 149 195
157 15 203
243 57 236
161 111 205
59 118 207
167 135 217
101 56 53
61 165 197
41 115 241
93 243 214
124 153 191
230 0 92
197 224 49
25 223 156
95 84 52
92 208 253
221 93 127
93 28 104
190 10 85
41 133 28
133 244 74
169 177 214
146 22 113
166 86 76
206 171 167
183 107 211
118 136 251
121 110 158
202 1 117
38 229 152
168 156 12
76 87 60
23 209 7
61 65 142
57 229 227
203 231 36
228 75 165
184 0 201
175 43 92
162 214 43
37 54 232
187 121 117
223 137 218
101 145 153
17 12 163
147 52 188
25 210 155
106 186 232
31 231 135
19 29 168
32 172 13
79 235 74
232 9 135
202 132 70
225 229 109
223 86 95
75 254 17
84 192 183
64 249 202
107 237 202
127 178 91
66 205 71
126 11 132
33 238 200
104 216 82
183 210 43
79 93 182
131 177 239
148 100 88
108 181 182
245 222 161
128 177 117
43 249 6
100 34 201
25 215 117
249 109 67
77 98 158
128 135 200
253 62 176
117 16 120
129 205 126
197 81 35
217 78 9
240 134 205
107 5 49
132 143 100
171 186 153
153 168 143
93 179 206
124 147 38
46 12 183
99 69 242
107 132 114
51 180 57
28 247 218
174 137 171
49 13 132
2 12 111
26 128 20
16 51 118
89 124 44
253 99 183
50 229 168
134 106 108
163 203 163
62 179 216
84 144 53
99 22 151
73 90 79
48 140 230
217 143 28
192 153 20
228 251 191
108 198 58
44 121 83
81 3 97
117 77 49
143 209 107
249 13 230
229 19 141
77 123 114
185 177 159
188 235 220
46 226 187
159 98 69
33 29 5
241 38 172
196 63 226
254 249 159
10 73 238
190 98 152
21 104 21
243 96 185
122 210 111
106 52 86
108 39 255
39 102 147
124 169 226
206 35 123
223 160 40
128 121 238
102 192 208
48 150 224
37 126 6
251 171 98
197 133 184
114 142 250
181 182 236
168 183 193
164 178 95
197 177 78
15 32 90
31 243 9
244 17 39
56 163 235
45 39 18
187 149 123
135 219 32
240 193 153
210 93 240
194 61 129
197 211 171
222 230 252
4 223 28
71 73 145
202 171 65
215 248 128
66 237 121
102 79 199
74 111 222
213 19 122
24 33 162
28 166 163
171 226 108
69 27 9
8 220 152
208 190 243
161 73 46
186 98 59
107 144 219
108 231 20
169 212 45
216 145 52
63 98 14
233 59 94
179 224 6
248 160 38
126 106 1
43 79 163
96 75 220
118 98 206
241 140 195
222 39 96
86 122 174
238 143 132
94 57 49
189 81 153
55 195 51
245 204 58
77 101 115
140 74 72
169 11 200
87 155 43
92 72 34
112 98 134
144 132 180
90 123 120
237 91 63
251 250 67
40 41 252
107 75 131
180 174 171
24 90 2
84 46 106
63 47 142
188 219 76
70 55 199
204 148 128
27 19 216
3 12 108
236 3 86
61 241 188
40 29 104
250 61 199
174 81 17
229 174 162
235 78 174
90 11 144
57 63 87
133 244 165
216 175 61
174 28 43
78 55 246
143 66 83
83 135 52
24 76 225
141 174 129
104 73 33
95 133 167
125 44 57
227 214 183
224 248 207
254 54 229
102 125 76
135 184 9
36 129 188
146 173 190
25 239 15
133 15 36
82 66 17
170 252 123
184 164 89
210 109 127
14 154 37
143 34 143
160 213 217
17 132 213
251 151 66
43 170 69
75 198 141
49 136 211
34 155 107
129 50 54
128 144 159
100 233 111
176 2 149
192 30 226
34 87 191
230 22 209
27 157 72
150 171 31
22 143 254
121 145 169
69 159 90
154 188 117
150 213 125
73 229 196
179 160 47
245 140 18
245 204 173
77 19 77
191 54 85
94 246 190
32 55 18
101 170 21
207 167 12
177 56 15
99 226 164
252 161 67
180 36 251
117 240 109
93 185 58
236 10 220
209 148 107
24 92 2
109 11 94
52 108 30
107 52 22
145 191 128
201 166 228
27 13 219
26 158 6
215 22 117
66 198 131
64 203 212
226 150 147
37 122 223
164 107 250
162 193 33
127 113 90
8 228 116
79 131 121
245 14 29
144 35 14
243 207 32
8 217 122
162 49 18
142 92 80
80 217 150
32 166 113
187 240 129
210 155 171
83 255 253
225 103 234
146 73 95
73 230 224
194 140 179
28 252 160
70 157 151
69 42 25
218 72 101
31 177 204
213 150 121
220 168 66
145 249 31
104 151 125
17 37 194
36 209 204
34 68 49
49 19 235
44 41 65
215 235 104
143 162 7
127 143 206
191 91 110
92 180 81
3 239 239
193 95 19
91 148 182
178 162 30
182 158 135
49 88 159
78 57 172
14 253 254
247 154 68
244 143 43
251 9 78
96 177 255
37 191 221
254 223 200
165 40 135
104 236 50
21 3 128
223 245 123
104 94 179
1 92 10
139 158 77
15 99 2
150 125 124
136 80 16
134 194 234
228 126 209
123 164 173
209 170 91
90 221 32
187 68 164
172 143 14
98 250 134
118 141 141
79 231 166
195 82 60
177 189 248
38 93 203
243 129 172
195 196 187
226 163 57
223 252 189
100 117 47
45 13 140
37 22 243
219 71 154
151 39 47
237 241 157
157 235 100
237 218 91
118 30 98
35 200 215
37 7 1
72 177 42
132 94 41
222 105 78
197 213 13
13 19 59
59 30 9
207 28 201
110 36 208
21 160 28
165 64 243
108 205 133
146 20 157
2 55 0
8 225 104
61 188 26
21 252 150
129 74 44
225 77 202
140 233 156
247 89 225
142 53 213
87 249 229
152 191 251
135 41 155
233 84 132
141 210 82
63 127 236
225 3 139
18 70 27
153 156 95
66 189 64
22 189 66
169 68 122
221 170 206
44 247 45
86 208 252
131 85 31
162 202 254
74 109 236
27 225 169
253 164 183
241 89 77
154 95 113
94 19 50
110 179 175
57 93 45
118 30 83
94 224 17
60 95 175
53 7 85
162 53 196
64 161 55
175 182 176
165 250 108
206 204 113
184 23 233
137 146 144
13 247 74
243 13 10
203 196 104
105 183 36
58 128 49
148 146 126
191 26 188
68 157 252
120 31 167
56 161 92
217 129 18
152 138 77
161 49 129
182 66 19
117 185 127
133 145 187
89 176 143
245 186 122
157 65 181
81 11 156
173 240 74
99 218 253
82 248 18
67 153 14
124 130 32
35 122 51
33 218 220
55 140 233
68 88 104
64 159 97
157 183 202
16 210 38
207 196 157
116 37 72
34 231 151
2 146 109
117 117 214
210 176 136
31 84 190
24 147 170
69 238 3
86 151 128
39 198 175
236 121 120
74 139 66
231 92 32
250 181 94
57 172 21
167 235 146
83 231 201
31 129 166
128 146 181
152 165 168
219 93 73
135 102 207
90 21 254
70 64 89
103 179 196
206 76 156
19 123 73
155 249 250
195 199 40
192 7 24
41 248 213
93 202 199
98 115 212
44 126 200
164 230 90
86 100 192
111 109 11
78 59 254
127 29 196
103 54 58
111 131 98
46 42 170
73 140 26
111 191 58
63 205 11
27 198 13
252 241 184
228 65 27
3 67 12
217 160 3
116 206 36
125 96 54
32 139 174
163 51 182
238 51 255
162 82 75
157 1 242
7 3 208
183 85 71
45 42 215
26 228 209
70 170 196
20 207 173
8 172 78
47 236 156
186 223 52
77 111 165
195 17 219
16 122 145
19 178 217
233 88 22
56 83 236
85 36 69
153 75 20
179 97 235
125 41 77
143 246 31
251 62 234
39 35 80
58 6 74
126 116 18
226 234 99
182 59 55
177 210 141
112 100 195
170 249 160
253 65 32
94 192 172
14 235 234
194 154 216
214 57 94
156 247 131
249 85 150
25 211 3
177 120 3
135 151 214
209 38 182
213 105 184
251 0 44
211 104 25
226 51 196
78 129 21
77 83 56
221 82 121
223 43 196
178 15 184
104 169 43
247 216 145
190 49 195
204 63 83
106 113 128
144 84 47
208 41 129
121 226 196
255 253 87
65 103 28
17 110 80
116 98 20
125 160 210
90 212 229
10 162 13
31 126 180
99 74 85
45 234 12
230 186 217
42 85 213
27 157 110
154 187 3
73 161 114
214 205 35
169 83 31
183 68 124
160 70 106
184 48 193
153 85 152
56 198 24
172 180 24
5 251 244
88 55 27
250 245 24
114 14 142
137 60 194
221 82 20
255 13 126
178 206 33
167 44 210
201 219 88
147 23 167
239 9 221
208 103 218
240 106 117
230 206 251
138 103 156
90 238 216
116 44 57
36 90 176
163 50 15
243 139 72
163 220 5
235 250 123
111 44 193
23 237 127
232 143 178
155 195 66
147 198 243
39 36 141
7 239 134
101 239 58
244 102 130
159 18 224
194 171 28
235 89 245
232 225 97
231 215 145
73 44 2
149 244 220
195 3 122
204 223 127
1 18 61
225 104 235
146 6 121
90 179 49
73 242 186
7 196 57
115 47 175
44 158 122
190 199 183
157 90 143
172 206 27
106 41 97
83 245 243
79 144 204
26 209 138
243 72 186
107 169 155
141 14 209
82 203 233
71 84 172
199 144 178
69 38 212
128 35 175
81 45 110
32 49 239
240 168 68
248 32 106
175 214 43
141 68 23
94 231 204
17 234 194
60 158 241
189 88 166
52 241 65
252 103 149
72 93 99
33 25 204
94 50 40
13 160 97
50 247 113
132 164 240
57 146 197
252 147 32
203 171 177
253 29 98
223 64 210
156 222 116
237 254 232
149 185 106
142 149 184
61 72 111
21 60 173
231 105 107
109 175 237
219 35 161
211 57 192
58 165 118
229 208 158
75 247 237
67 109 178
87 221 227
49 51 97
137 142 233
170 190 30
214 223 237
50 115 44
89 173 142
125 241 95
68 172 37
252 196 103
88 49 115
209 201 255
251 19 112
222 63 132
93 213 212
145 187 193
41 87 32
97 120 33
220 24 119
174 75 63
113 187 25
51 216 31
108 133 128
178 73 163
115 234 216
201 174 23
66 74 251
24 7 232
93 73 100
80 239 105
37 126 243
104 216 3
49 130 243
20 59 17
36 135 0
46 5 185
47 6 73
167 249 58
42 83 133
152 249 52
231 73 200
8 172 29
156 197 26
64 95 144
73 88 214
217 19 157
174 32 251
120 8 235
145 246 110
129 130 201
147 89 20
97 147 100
161 113 99
31 215 25
190 176 192
79 76 123
215 184 152
69 174 244
24 59 142
252 110 0
211 36 84
100 47 99
245 113 138
154 95 68
8 121 58
126 105 232
245 2 117
69 252 151
192 169 43
240 46 163
170 178 231
224 83 7
16 56 96
118 124 144
178 7 214
113 121 66
14 182 100
160 73 214
155 24 186
0 254 16
176 169 218
2 77 12
135 185 179
200 162 27
77 156 84
252 167 68
73 25 170
143 217 104
172 151 32
95 48 75
43 8 218
60 105 221
153 128 54
246 105 100
230 84 178
152 73 178
48 141 20
55 132 110
103 153 169
69 177 39
220 33 4
252 231 82
197 123 232
66 136 182
232 27 60
89 102 90
65 215 153
38 186 152
49 136 24
155 81 166
171 246 229
1 44 142
113 195 51
198 146 55
100 24 222
96 158 141
1 211 108
94 132 118
191 39 137
164 78 123
122 161 143
14 210 0
77 230 0
99 61 144
223 109 147
254 25 189
173 228 4
84 43 172
216 9 112
206 104 226
182 105 113
17 239 228
192 226 60
181 105 103
93 205 53
196 63 222
228 42 67
47 240 189
255 171 223
247 14 129
167 84 143
215 100 153
133 23 109
6 240 214
25 40 178
132 142 106
154 53 144
25 50 130
217 158 155
4 86 224
144 221 125
182 103 224
168 186 252
66 169 63
124 104 145
91 177 224
213 247 181
40 128 18
75 95 17
220 165 120
111 235 8
94 103 177
217 228 177
61 186 254
26 246 22
40 163 95
75 118 241
103 129 7
255 182 108
126 235 75
88 21 247
222 224 56
45 16 61
41 190 109
146 221 207
20 21 223
120 46 178
67 120 34
212 21 188
114 241 141
193 77 190
161 62 88
142 167 14
188 191 110
152 49 222
245 221 32
54 171 137
6 119 4
247 81 130
168 234 141
106 46 52
154 247 46
73 87 133
57 199 195
100 79 169
250 192 188
41 139 78
97 114 125
198 9 140
52 195 116
55 168 231
233 49 201
201 0 242
174 56 71
87 159 227
110 31 195
161 192 116
182 243 147
80 77 121
106 90 2
184 210 187
139 189 255
206 106 74
183 33 126
82 126 32
163 102 161
76 59 233
103 56 46
138 247 23
116 173 84
172 61 238
132 127 166
46 60 241
182 21 189
208 62 245
131 61 31
171 171 137
22 11 172
161 38 140
180 50 130
184 239 95
7 220 12
104 5 237
225 131 187
4 27 244
107 192 137
253 197 2
209 202 27
97 46 14
236 120 97
111 23 45
246 45 24
12 150 162
223 93 93
226 18 177
242 146 91
161 68 192
165 220 48
111 32 19
147 140 172
8 148 27
25 94 34
15 182 142
68 154 157
46 152 166
216 19 90
156 2 19
188 1 178
114 77 206
182 182 211
176 50 206
239 241 119
113 192 75
29 204 164
116 205 167
109 134 123
12 228 244
242 209 83
35 22 127
205 146 97
199 248 151
20 173 222
233 237 229
28 124 98
115 135 198
219 152 8
250 19 240
108 18 9
214 205 153
9 46 180
212 78 177
51 241 169
48 78 182
247 198 33
68 11 203
182 152 77
61 166 15
120 48 64
163 183 182
49 32 50
37 183 218
139 245 99
100 170 46
175 123 106
225 55 254
1 117 181
151 116 156
69 234 101
19 34 227
206 46 135
6 215 210
158 103 52
48 150 206
76 59 229
144 43 188
41 67 95
125 214 85
2 148 50
137 24 150
29 163 117
36 45 32
134 172 208
89 133 81
157 0 57
234 113 180
114 52 36
15 18 231
89 91 107
55 70 158
96 213 72
31 246 249
208 163 72
200 22 244
213 236 111
41 132 128
123 133 71
81 14 129
95 149 65
229 210 66
103 81 228
193 107 150
117 165 17
129 13 173
124 133 14
75 145 32
138 1 5
4 19 10
189 227 80
239 87 45
89 19 141
126 26 108
180 56 23
98 57 165
25 121 116
129 243 93
177 70 14
30 29 68
64 138 239
215 97 105
74 190 9
213 125 123
128 170 106
186 251 124
136 155 47
169 17 29
170 112 180
245 77 80
205 81 238
63 165 93
79 88 52
246 220 49
197 88 35
41 226 246
97 35 55
27 87 236
40 87 201
150 51 147
168 114 148
134 163 164
78 81 51
238 202 179
251 187 251
55 29 27
176 221 177
245 219 165
253 71 8
129 1 38
99 24 119
164 232 38
3 192 177
178 101 165
154 24 177
56 249 125
1 57 116
74 51 75
48 173 209
29 252 90
180 8 0
250 253 162
94 140 157
153 250 197
227 20 76
113 125 7
215 40 119
119 144 77
28 132 3
208 121 255
92 94 161
119 13 238
186 108 91
2 5 234
194 234 130
246 121 43
147 54 202
218 7 102
134 30 194
41 113 136
7 188 73
77 2 135
49 183 160
101 230 228
167 154 124
145 158 226
8 173 7
212 86 222
6 199 164
194 244 182
90 153 34
115 157 181
195 217 51
142 78 53
98 49 18
228 237 48
238 251 118
201 136 50
11 9 71
186 239 167
128 21 2
4 97 118
48 220 175
210 32 219
105 9 224
39 183 222
84 185 42
76 89 152
92 233 170
233 21 79
15 156 58
253 116 55
160 149 209
93 65 198
208 57 174
110 160 162
164 136 216
98 88 119
191 72 242
96 50 163
224 45 72
56 246 117
202 67 251
185 217 15
226 129 220
184 204 148
176 111 80
192 20 5
79 173 198
92 31 32
173 214 200
118 19 141
219 167 183
245 86 29
155 168 181
141 69 136
132 150 114
216 183 240
106 181 84
131 127 207
177 190 10
146 149 39
201 245 176
253 161 191
222 83 158
143 64 17
95 190 62
137 194 2
183 212 20
251 143 65
209 251 180
34 136 67
229 41 247
101 213 111
7 41 151
203 163 117
52 190 88
125 83 168
201 35 190
157 205 213
168 220 29
93 105 56
56 85 166
45 235 121
88 40 2
224 48 34
27 77 10
209 129 19
193 125 53
223 111 58
142 72 255
233 208 214
0 123 242
201 79 73
195 103 137
238 123 51
182 68 212
76 216 51
94 191 96
130 177 15
173 179 72
255 122 81
194 145 193
58 68 153
82 242 42
122 19 71
129 61 255
49 170 202
177 238 32
222 48 26
186 191 213
151 126 121
39 15 127
125 103 61
186 195 227
188 183 126
25 9 5
249 130 172
7 8 207
118 205 132
180 183 251
183 134 185
100 119 114
161 81 75
54 132 79
35 232 186
227 38 19
0 156 32
91 151 81
53 100 92
148 247 103
49 15 151
58 162 8
90 203 192
243 94 209
134 50 86
18 83 103
109 243 72
98 99 249
251 154 66
43 188 73
63 34 9
225 169 241
236 108 105
0 65 195
9 30 24
165 161 49
83 189 95
35 252 3
90 251 66
54 41 229
26 159 22
130 176 30
198 57 233
147 223 131
177 199 2
191 162 70
36 64 160
6 234 75
92 46 30
7 59 47
115 82 154
11 161 163
202 43 43
171 178 9
59 93 29
146 229 113
77 67 194
136 149 122
170 94 222
206 29 118
139 68 90
17 161 41
29 113 226
70 203 69
21 121 152
151 231 242
74 4 132
225 179 145
111 107 84
80 147 182
76 174 110
52 93 220
231 189 67
1 252 101
250 88 29
0 231 173
208 213 199
38 70 252
30 50 60
21 212 169
194 45 187
117 44 133
167 64 156
162 188 232
117 203 190
21 47 107
99 28 14
63 169 243
191 191 190
146 204 106
96 247 155
163 143 58
159 92 169
207 40 123
166 222 47
191 52 5
66 21 223
183 152 75
115 139 152
33 252 60
117 72 242
16 213 62
153 143 127
204 124 165
62 91 125
129 94 249
225 148 230
55 132 250
203 128 183
206 39 217
51 38 62
91 54 19
204 120 157
139 69 226
85 7 129
197 226 242
125 93 145
15 145 56
127 6 32
157 171 217
238 30 119
192 127 23
240 127 34
108 231 179
106 31 39
94 238 187
157 247 189
159 105 167
219 96 71
214 55 86
132 198 160
212 96 6
133 197 101
168 72 78
158 92 39
30 100 14
6 125 89
222 102 163
77 24 189
99 191 112
7 99 156
243 108 137
74 194 175
80 10 66
207 208 239
95 76 140
38 71 188
26 167 250
26 228 116
77 35 236
242 229 85
7 182 120
35 201 202
66 100 111
137 123 95
108 44 202
34 205 13
23 246 68
115 168 151
170 38 190
125 30 159
3 231 223
113 121 38
173 203 174
254 90 162
65 239 134
252 183 200
130 226 242
44 86 148
192 233 65
65 136 171
191 138 8
84 80 233
35 199 40
30 141 32
14 192 241
2 38 141
99 62 252
192 194 221
67 233 174
204 125 210
32 186 84
119 109 25
40 248 237
82 5 96
245 31 18
57 39 1
16 13 243
134 201 67
144 209 102
97 16 72
86 74 22
155 156 99
195 120 139
26 57 15
36 22 106
132 28 86
24 38 179
120 79 162
243 85 24
179 80 6
9 178 112
10 174 1
29 106 255
15 147 28
76 182 127
96 13 6
196 181 209
51 80 65
151 129 229
217 52 209
0 80 172
66 24 43
121 42 39
77 45 106
39 114 122
246 155 23
210 194 197
137 189 182
98 0 187
132 183 222
208 80 25
55 189 254
154 158 166
230 114 114
154 112 18
179 151 184
40 157 173
190 61 219
152 182 186
225 197 160
238 29 200
72 221 52
207 236 213
31 32 168
120 146 199
152 31 72
186 134 195
5 44 176
35 208 144
60 213 229
136 251 25
44 165 122
13 24 73
228 99 250
219 155 149
92 208 45
111 202 49
104 248 108
235 143 63
92 91 12
165 19 131
140 105 5
167 242 242
212 118 65
1 233 162
81 148 240
226 254 118
33 137 43
136 172 124
89 1 220
201 147 146
126 164 20
45 122 103
157 7 221
21 80 121
21 135 6
218 16 165
126 197 16
254 113 190
54 172 202
193 199 68
246 206 200
80 0 17
216 96 132
130 82 137
139 95 78
48 228 116
163 21 41
105 89 187
126 215 184
239 102 109
251 218 31
38 159 88
113 236 26
208 185 219
175 101 198
64 183 57
116 185 179
141 226 31
242 123 107
87 79 154
20 10 219
133 163 225
152 197 184
249 122 209
205 139 223
198 93 102
75 188 36
207 145 17
135 237 58
179 229 214
189 74 6
195 165 201
171 57 121
180 28 233
161 93 249
205 31 250
102 197 147
221 110 38
241 182 49
0 246 177
182 8 62
148 6 204
87 177 247
104 11 204
53 173 210
11 238 161
74 196 37
76 224 248
71 69 27
59 40 162
204 2 170
135 206 14
253 252 166
135 255 112
101 255 90
180 252 74
113 217 231
13 68 31
116 38 166
4 219 53
201 245 219
111 17 8
237 203 101
53 161 41
194 19 101
105 62 58
5 172 167
170 213 34
18 141 241
101 72 33
173 124 247
97 156 201
29 180 40
162 119 212
28 90 45
143 21 17
178 196 217
58 75 166
55 218 182
83 1 185
236 63 70
144 202 106
3 157 48
75 230 141
230 216 24
88 211 100
65 196 203
255 132 206
128 162 70
124 132 82
87 233 246
239 133 37
230 113 129
127 78 3
239 119 179
244 53 156
8 26 236
38 166 9
83 158 253
46 6 31
234 120 119
195 238 12
219 5 185
93 59 41
169 178 51
163 149 248
78 58 34
24 39 183
223 214 129
56 10 36
47 56 155
242 92 123
93 70 253
251 18 163
200 187 221
217 193 247
119 27 127
143 104 186
38 147 21
198 29 48
189 40 212
5 121 86
25 73 240
32 212 208
202 212 225
83 221 135
35 65 60
199 233 172
61 208 232
253 16 193
17 186 77
194 85 18
58 52 121
4 137 27
188 147 8
222 166 236
245 166 121
5 140 78
157 195 181
234 94 198
126 86 50
142 245 158
192 224 106
179 251 27
53 147 128
222 82 143
167 243 65
30 73 228
15 208 97
107 135 239
174 156 72
116 121 64
162 120 188
102 173 110
210 215 155
110 35 8
182 16 171
52 100 66
162 133 207
108 54 241
65 179 139
247 249 94
93 65 101
31 214 180
218 54 157
25 48 0
242 1 50
55 152 128
104 224 151
160 245 71
18 151 28
230 185 157
51 178 24
128 206 227
162 11 215
41 136 8
46 19 46
67 204 134
141 241 128
211 243 110
58 210 81
186 173 61
253 251 131
214 67 203
30 45 142
98 96 147
62 173 66
85 24 29
206 188 138
250 181 93
250 226 244
58 116 225
65 181 208
251 90 4
105 179 32
230 232 215
136 121 102
74 50 250
40 46 184
199 57 90
14 170 237
162 232 63
60 80 134
113 129 184
249 39 51
14 246 233
248 127 198
24 141 114
75 197 154
206 130 80
241 48 205
135 209 199
197 200 188
240 114 60
175 98 37
177 11 181
14 79 133
252 132 222
209 43 125
229 253 117
19 184 158
246 54 170
6 59 128
16 128 138
19 204 52
183 17 62
10 204 206
16 149 14
224 109 19
137 209 138
243 4 118
247 36 21
85 30 102
124 65 144
186 112 143
236 218 175
91 234 102
50 131 49
115 237 60
174 9 60
225 98 108
111 139 228
108 126 171
233 201 117
181 160 63
3 84 250
251 219 22
162 74 184
15 144 111
125 9 177
145 75 93
217 199 207
148 69 233
7 244 235
13 89 41
72 150 212
197 140 198
50 206 110
80 102 232
67 146 143
21 50 67
249 69 26
46 172 114
74 242 220
26 56 11
43 208 112
13 81 118
199 39 149
185 181 13
108 11 195
177 125 20
204 115 64
78 212 74
59 43 116
93 252 223
127 105 223
189 42 91
249 184 125
212 196 144
237 49 193
51 245 145
91 127 81
5 237 33
220 180 131
53 166 182
128 99 144
97 179 252
21 70 136
233 110 47
21 228 75
171 235 72
59 230 57
172 33 179
206 57 22
58 173 24
179 81 210
231 176 73
109 231 11
104 200 145
133 163 156
7 122 139
104 36 106
216 35 146
57 183 198
81 79 142
101 22 134
60 98 21
188 78 77
19 78 180
250 16 130
119 213 244
144 43 25
152 154 2
213 150 52
30 238 98
47 12 244
61 15 252
9 101 189
10 182 116
225 116 210
33 42 46
57 171 3
249 252 226
235 104 133
62 213 103
85 23 181
164 240 46
6 199 81
141 46 64
56 187 254
198 176 122
106 244 67
149 0 76
181 183 93
55 6 72
42 156 62
171 80 29
25 167 157
122 165 98
51 202 112
8 46 89
196 209 163
181 199 32
197 95 24
196 241 168
173 209 134
229 216 36
25 88 65
19 223 124
113 68 174
180 6 254
61 253 83
35 221 232
57 214 192
142 239 99
200 110 16
34 223 203
38 53 193
88 11 193
184 79 84
104 130 151
151 201 71
43 204 128
244 118 213
202 20 4
36 189 9
216 43 227
245 126 128
223 2 38
137 155 80
178 201 63
102 166 237
178 114 56
163 206 197
193 191 104
116 187 3
174 0 249
54 168 35
121 7 112
109 198 177
204 218 198
79 249 60
21 63 5
217 251 165
129 31 5
126 52 42
118 53 218
147 54 207
5 193 105
196 3 58
225 168 19
99 24 18
251 159 90
68 238 25
52 150 226
213 172 169
224 174 224
83 115 157
99 143 240
36 224 87
15 68 222
254 54 139
250 6 100
251 13 192
27 112 210
36 69 30
15 104 45
246 184 199
87 140 220
32 236 77
39 42 239
143 199 134
15 240 205
239 134 57
237 159 202
215 177 140
134 192 7
194 112 130
225 181 204
249 210 253
99 44 65
252 69 146
123 181 224
233 235 82
32 42 97
198 135 42
39 13 101
115 250 10
247 163 161
16 1 53
105 150 170
234 16 202
202 46 221
127 50 236
38 135 162
94 197 214
24 213 254
